sulimanbadour1/Project_S/control/InverseKinematics/robot_joint_data.csv
Time, Joint 1 Angle (Rad), Joint 2 Angle (Rad), Joint 3 Angle (Rad), Joint 4 Angle (Rad), Joint 5 Angle (Rad), Joint 1 Angle (Deg), Joint 2 Angle (Deg), Joint 3 Angle (Deg), Joint 4 Angle (Deg), Joint 5 Angle (Deg), Joint 1 Vel, Joint 2 Vel, Joint 3 Vel, Joint 4 Vel, Joint 5 Vel, Joint 1 Eff, Joint 2 Eff, Joint 3 Eff, Joint 4 Eff, Joint 5 Eff
0.0, -3.14, 1.57, 0.96, 0.53, 1.42, -179.91, 89.95, 54.95, 30.31, 81.47, 0.00, 0.00, 0.00, -0.00, -0.00, -0.00, -20.66, -5.69, 0.00, -0.00
0.04400157928466797, -3.14, 1.57, 0.96, 0.53, 1.42, -179.91, 89.95, 54.95, 30.31, 81.47, -0.00, 0.00, 0.00, -0.00, 0.00, -0.00, -20.76, -5.76, -0.00, 0.00
0.08300042152404785, -3.14, 1.57, 0.96, 0.53, 1.42, -179.91, 89.95, 54.95, 30.31, 81.47, -0.00, 0.00, 0.00, -0.00, 0.00, 0.00, -20.76, -5.76, -0.00, -0.00
0.12000036239624023, -3.14, 1.57, 0.96, 0.53, 1.42, -179.91, 89.95, 54.95, 30.31, 81.47, -0.00, 0.00, 0.00, -0.00, 0.00, 0.00, -20.76, -5.75, -0.00, -0.00
0.15400028228759766, -3.14, 1.57, 0.96, 0.53, 1.42, -179.91, 89.95, 54.95, 30.31, 81.47, -0.00, 0.00, 0.00, -0.00, 0.00, 0.00, -20.76, -5.75, -0.00, -0.00
0.18999981880187988, -3.14, 1.57, 0.96, 0.53, 1.42, -179.91, 89.95, 54.95, 30.31, 81.47, -0.00, 0.00, 0.00, -0.00, 0.00, 0.00, -20.76, -5.75, -0.00, -0.00
0.2310028076171875, -3.14, 1.57, 0.96, 0.53, 1.42, -179.91, 89.95, 54.95, 30.31, 81.47, -0.00, 0.00, 0.00, -0.00, 0.00, 0.00, -20.76, -5.75, -0.00, -0.00
0.26399946212768555, -3.14, 1.57, 0.96, 0.53, 1.42, -179.91, 89.95, 54.95, 30.31, 81.47, -0.00, 0.00, 0.00, -0.00, 0.00, 0.00, -20.75, -5.75, -0.00, -0.00
0.2969980239868164, -3.14, 1.57, 0.96, 0.53, 1.42, -179.91, 89.95, 54.95, 30.31, 81.47, -0.00, 0.00, 0.00, -0.00, 0.00, 0.00, -20.75, -5.75, -0.00, -0.00
0.33099818229675293, -3.14, 1.57, 0.96, 0.53, 1.42, -179.91, 89.95, 54.95, 30.31, 81.47, -0.00, 0.00, 0.00, -0.00, 0.00, 0.00, -20.75, -5.75, -0.00, -0.00
0.36499905586242676, -3.14, 1.57, 0.96, 0.53, 1.42, -179.91, 89.95, 54.95, 30.31, 81.47, -0.00, 0.00, 0.00, -0.00, 0.00, 0.00, -20.75, -5.75, -0.00, -0.00
0.39999985694885254, -3.14, 1.57, 0.96, 0.53, 1.42, -179.91, 89.95, 54.95, 30.31, 81.47, -0.00, 0.00, 0.00, -0.00, 0.00, 0.00, -20.75, -5.75, -0.00, -0.00
0.4351663589477539, -3.14, 1.57, 0.96, 0.53, 1.42, -179.91, 89.95, 54.95, 30.31, 81.47, -0.00, 0.00, 0.00, -0.00, 0.00, 0.00, -20.75, -5.75, -0.00, -0.00
0.4756009578704834, -3.14, 1.57, 0.96, 0.53, 1.42, -179.91, 89.95, 54.95, 30.31, 81.47, -0.00, 0.00, 0.00, -0.00, 0.00, 0.00, -20.75, -5.75, -0.00, -0.00
0.5138199329376221, -3.14, 1.57, 0.96, 0.53, 1.42, -179.91, 89.95, 54.95, 30.31, 81.47, -0.00, 0.00, 0.00, -0.00, 0.00, 0.00, -20.75, -5.75, -0.00, -0.00
0.5521831512451172, -3.14, 1.57, 0.96, 0.53, 1.42, -179.91, 89.95, 54.95, 30.31, 81.47, -0.00, 0.00, 0.00, -0.00, 0.00, 0.00, -20.75, -5.75, -0.00, -0.00
0.5854220390319824, -3.14, 1.57, 0.96, 0.53, 1.42, -179.91, 89.95, 54.95, 30.31, 81.47, -0.00, 0.00, 0.00, -0.00, 0.00, 0.00, -20.75, -5.75, -0.00, -0.00
0.6225755214691162, -3.14, 1.57, 0.96, 0.53, 1.42, -179.91, 89.95, 54.95, 30.31, 81.47, -0.00, 0.00, 0.00, -0.00, 0.00, 0.00, -20.75, -5.75, -0.00, -0.00
0.6574728488922119, -3.14, 1.57, 0.96, 0.53, 1.42, -179.91, 89.95, 54.95, 30.31, 81.47, -0.00, 0.00, 0.00, -0.00, 0.00, 0.00, -20.75, -5.75, -0.00, -0.00
0.6926116943359375, -3.14, 1.57, 0.96, 0.53, 1.42, -179.91, 89.95, 54.95, 30.31, 81.47, -0.00, 0.00, 0.00, -0.00, 0.00, 0.00, -20.75, -5.75, -0.00, -0.00
0.7266097068786621, -3.14, 1.57, 0.96, 0.53, 1.42, -179.91, 89.95, 54.95, 30.31, 81.47, -0.00, 0.00, 0.00, -0.00, 0.00, 0.00, -20.75, -5.75, -0.00, -0.00
0.7596113681793213, -3.14, 1.57, 0.96, 0.53, 1.42, -179.91, 89.95, 54.95, 30.31, 81.47, -0.00, 0.00, 0.00, -0.00, 0.00, 0.00, -20.75, -5.75, -0.00, -0.00
0.7966139316558838, -3.14, 1.57, 0.96, 0.53, 1.42, -179.91, 89.95, 54.95, 30.31, 81.47, -0.00, 0.00, 0.00, -0.00, 0.00, 0.00, -20.75, -5.75, -0.00, -0.00
0.8506135940551758, -3.14, 1.57, 0.96, 0.53, 1.42, -179.91, 89.95, 54.95, 30.31, 81.47, -0.00, 0.00, 0.00, -0.00, 0.00, 0.00, -20.75, -5.75, -0.00, -0.00
0.893317461013794, -3.14, 1.57, 0.96, 0.53, 1.42, -179.91, 89.95, 54.95, 30.31, 81.47, -0.00, 0.00, 0.00, -0.00, 0.00, 0.00, -20.75, -5.75, -0.00, -0.00
0.9263150691986084, -3.14, 1.57, 0.96, 0.53, 1.42, -179.91, 89.95, 54.95, 30.31, 81.47, -0.00, 0.00, 0.00, -0.00, 0.00, 0.00, -20.75, -5.75, -0.00, -0.00
0.9613158702850342, -3.14, 1.57, 0.96, 0.53, 1.42, -179.91, 89.95, 54.95, 30.31, 81.47, -0.00, 0.00, 0.00, -0.00, 0.00, 0.00, -20.75, -5.75, -0.00, -0.00
0.9985847473144531, -3.14, 1.57, 0.96, 0.53, 1.42, -179.91, 89.95, 54.95, 30.31, 81.47, -0.00, 0.00, 0.00, -0.00, 0.00, 0.00, -20.75, -5.75, -0.00, -0.00
1.03310227394104, -3.14, 1.57, 0.96, 0.53, 1.42, -179.91, 89.95, 54.95, 30.31, 81.47, -0.00, 0.00, 0.00, -0.00, 0.00, 0.00, -20.75, -5.75, -0.00, -0.00
1.0661015510559082, -3.14, 1.57, 0.96, 0.53, 1.42, -179.91, 89.95, 54.95, 30.31, 81.47, -0.00, 0.00, 0.00, -0.00, 0.00, 0.00, -20.75, -5.75, -0.00, -0.00
1.1001017093658447, -3.14, 1.57, 0.96, 0.53, 1.42, -179.91, 89.95, 54.95, 30.31, 81.47, -0.00, 0.00, 0.00, -0.00, 0.00, 0.00, -20.75, -5.75, -0.00, -0.00
1.1331028938293457, -3.14, 1.57, 0.96, 0.53, 1.42, -179.91, 89.95, 54.95, 30.31, 81.47, -0.00, 0.00, 0.00, -0.00, 0.00, 0.00, -20.75, -5.75, -0.00, -0.00
1.1725339889526367, -3.14, 1.57, 0.96, 0.53, 1.42, -179.91, 89.95, 54.95, 30.31, 81.47, -0.00, 0.00, 0.00, -0.00, 0.00, 0.00, -20.75, -5.75, -0.00, -0.00
1.2103323936462402, -3.14, 1.57, 0.96, 0.53, 1.42, -179.91, 89.95, 54.95, 30.31, 81.47, -0.00, 0.00, 0.00, -0.00, 0.00, 0.00, -20.75, -5.75, -0.00, -0.00
1.2458512783050537, -3.14, 1.57, 0.96, 0.53, 1.42, -179.91, 89.95, 54.95, 30.31, 81.47, -0.00, 0.00, 0.00, -0.00, 0.00, 0.00, -20.75, -5.75, -0.00, -0.00
1.2798538208007812, -3.14, 1.57, 0.96, 0.53, 1.42, -179.91, 89.95, 54.95, 30.31, 81.47, -0.00, 0.00, 0.00, -0.00, 0.00, 0.00, -20.75, -5.75, -0.00, -0.00
1.3143725395202637, -3.14, 1.57, 0.96, 0.53, 1.42, -179.91, 89.95, 54.95, 30.31, 81.47, -0.00, 0.00, 0.00, -0.00, 0.00, 0.00, -20.75, -5.75, -0.00, -0.00
1.3473701477050781, -3.14, 1.57, 0.96, 0.53, 1.42, -179.91, 89.95, 54.95, 30.31, 81.47, -0.00, 0.00, 0.00, -0.00, 0.00, 0.00, -20.75, -5.75, -0.00, -0.00
1.3853716850280762, -3.14, 1.57, 0.96, 0.53, 1.42, -179.91, 89.95, 54.95, 30.31, 81.47, -0.00, 0.00, 0.00, -0.00, 0.00, 0.00, -20.75, -5.75, -0.00, -0.00
1.420891284942627, -3.14, 1.57, 0.96, 0.53, 1.42, -179.91, 89.95, 54.95, 30.31, 81.47, -0.00, 0.00, 0.00, -0.00, 0.00, 0.00, -20.75, -5.75, -0.00, -0.00
1.4588935375213623, -3.14, 1.57, 0.96, 0.53, 1.42, -179.91, 89.95, 54.95, 30.31, 81.47, -0.00, 0.00, 0.00, -0.00, 0.00, 0.00, -20.75, -5.75, -0.00, -0.00
1.4956963062286377, -3.14, 1.57, 0.96, 0.53, 1.42, -179.91, 89.95, 54.95, 30.31, 81.47, -0.00, 0.00, 0.00, -0.00, 0.00, 0.00, -20.75, -5.75, -0.00, -0.00
1.5336976051330566, -3.14, 1.57, 0.96, 0.53, 1.42, -179.91, 89.95, 54.95, 30.31, 81.47, -0.00, 0.00, 0.00, -0.00, 0.00, 0.00, -20.75, -5.75, -0.00, -0.00
1.5676956176757812, -3.14, 1.57, 0.96, 0.53, 1.42, -179.91, 89.95, 54.95, 30.31, 81.47, -0.00, 0.00, 0.00, -0.00, 0.00, 0.00, -20.75, -5.75, -0.00, -0.00
1.6006953716278076, -3.14, 1.57, 0.96, 0.53, 1.42, -179.91, 89.95, 54.95, 30.31, 81.47, -0.00, 0.00, 0.00, -0.00, 0.00, 0.00, -20.75, -5.75, -0.00, -0.00
1.6354620456695557, -3.14, 1.57, 0.96, 0.53, 1.42, -179.91, 89.95, 54.95, 30.31, 81.47, -0.00, 0.00, 0.00, -0.00, 0.00, 0.00, -20.75, -5.75, -0.00, -0.00
1.668893575668335, -3.14, 1.57, 0.96, 0.53, 1.42, -179.91, 89.95, 54.95, 30.31, 81.47, -0.00, 0.00, 0.00, -0.00, 0.00, 0.00, -20.75, -5.75, -0.00, -0.00
1.705270767211914, -3.14, 1.57, 0.96, 0.53, 1.42, -179.91, 89.95, 54.95, 30.31, 81.47, -0.00, 0.00, 0.00, -0.00, 0.00, 0.00, -20.75, -5.75, -0.00, -0.00
1.7459707260131836, -3.14, 1.57, 0.96, 0.53, 1.42, -179.91, 89.95, 54.95, 30.31, 81.47, -0.00, 0.00, 0.00, -0.00, 0.00, 0.00, -20.75, -5.75, -0.00, -0.00
1.7886707782745361, -3.14, 1.57, 0.96, 0.53, 1.42, -179.91, 89.95, 54.95, 30.31, 81.47, -0.00, 0.00, 0.00, -0.00, 0.00, 0.00, -20.75, -5.75, -0.00, -0.00
1.827672004699707, -3.14, 1.57, 0.96, 0.53, 1.42, -179.91, 89.95, 54.95, 30.31, 81.47, -0.00, 0.00, 0.00, -0.00, 0.00, 0.00, -20.75, -5.75, -0.00, -0.00
1.8656702041625977, -3.14, 1.57, 0.96, 0.53, 1.42, -179.91, 89.95, 54.95, 30.31, 81.47, -0.00, 0.00, 0.00, -0.00, 0.00, 0.00, -20.75, -5.75, -0.00, -0.00
1.8986706733703613, -3.14, 1.57, 0.96, 0.53, 1.42, -179.91, 89.95, 54.95, 30.31, 81.47, -0.00, 0.00, 0.00, -0.00, 0.00, 0.00, -20.75, -5.75, -0.00, -0.00
1.9336724281311035, -3.14, 1.57, 0.96, 0.53, 1.42, -179.91, 89.95, 54.95, 30.31, 81.47, -0.00, 0.00, 0.00, -0.00, 0.00, 0.00, -20.75, -5.75, -0.00, -0.00
1.9666695594787598, -3.14, 1.57, 0.96, 0.53, 1.42, -179.91, 89.95, 54.95, 30.31, 81.47, -0.00, 0.00, 0.00, -0.00, 0.00, 0.00, -20.75, -5.75, -0.00, -0.00
2.0006704330444336, -3.14, 1.57, 0.96, 0.53, 1.42, -179.91, 89.95, 54.95, 30.31, 81.47, -0.00, 0.00, 0.00, -0.00, 0.00, 0.00, -20.75, -5.75, -0.00, -0.00
2.034006357192993, -3.14, 1.57, 0.96, 0.53, 1.42, -179.91, 89.95, 54.95, 30.31, 81.47, -0.00, 0.00, 0.00, -0.00, 0.00, 0.00, -20.75, -5.75, -0.00, -0.00
2.0680036544799805, -3.14, 1.57, 0.96, 0.53, 1.42, -179.91, 89.95, 54.95, 30.31, 81.47, -0.00, 0.00, 0.00, -0.00, 0.00, 0.00, -20.75, -5.75, -0.00, -0.00
2.1050050258636475, -3.14, 1.57, 0.96, 0.53, 1.42, -179.91, 89.95, 54.95, 30.31, 81.47, -0.00, 0.00, 0.00, -0.00, 0.00, 0.00, -20.75, -5.75, -0.00, -0.00
2.138003349304199, -3.14, 1.57, 0.96, 0.53, 1.42, -179.91, 89.95, 54.95, 30.31, 81.47, -0.00, 0.00, 0.00, -0.00, 0.00, 0.00, -20.75, -5.75, -0.00, -0.00
2.1780922412872314, -3.14, 1.57, 0.96, 0.53, 1.42, -179.91, 89.95, 54.95, 30.31, 81.47, -0.00, 0.00, 0.00, -0.00, 0.00, 0.00, -20.75, -5.75, -0.00, -0.00
2.2170932292938232, -3.14, 1.57, 0.96, 0.53, 1.42, -179.91, 89.95, 54.95, 30.31, 81.47, -0.00, 0.00, 0.00, -0.00, 0.00, 0.00, -20.75, -5.75, -0.00, -0.00
2.250092029571533, -3.14, 1.57, 0.96, 0.53, 1.42, -179.91, 89.95, 54.95, 30.31, 81.47, -0.00, 0.00, 0.00, -0.00, 0.00, 0.00, -20.75, -5.75, -0.00, -0.00
2.2826969623565674, -3.14, 1.57, 0.96, 0.53, 1.42, -179.91, 89.95, 54.95, 30.31, 81.47, -0.00, 0.00, 0.00, -0.00, 0.00, 0.00, -20.75, -5.75, -0.00, -0.00
2.3179690837860107, -3.14, 1.57, 0.96, 0.53, 1.42, -179.91, 89.95, 54.95, 30.31, 81.47, -0.00, 0.00, 0.00, -0.00, 0.00, 0.00, -20.75, -5.75, -0.00, -0.00
2.3509700298309326, -3.14, 1.57, 0.96, 0.53, 1.42, -179.91, 89.95, 54.95, 30.31, 81.47, -0.00, 0.00, 0.00, -0.00, 0.00, 0.00, -20.75, -5.75, -0.00, -0.00
2.3869845867156982, -3.14, 1.57, 0.96, 0.53, 1.42, -179.91, 89.95, 54.95, 30.31, 81.47, -0.00, 0.00, 0.00, -0.00, 0.00, 0.00, -20.75, -5.75, -0.00, -0.00
2.4209823608398438, -3.14, 1.57, 0.96, 0.53, 1.42, -179.91, 89.95, 54.95, 30.31, 81.47, -0.00, 0.00, 0.00, -0.00, 0.00, 0.00, -20.75, -5.75, -0.00, -0.00
2.4585323333740234, -3.14, 1.57, 0.96, 0.53, 1.42, -179.91, 89.95, 54.95, 30.31, 81.47, -0.00, 0.00, 0.00, -0.00, 0.00, 0.00, -20.75, -5.75, -0.00, -0.00
2.495534896850586, -3.14, 1.57, 0.96, 0.53, 1.42, -179.91, 89.95, 54.95, 30.31, 81.47, -0.00, 0.00, 0.00, -0.00, 0.00, 0.00, -20.75, -5.75, -0.00, -0.00
2.5335323810577393, -3.14, 1.57, 0.96, 0.53, 1.42, -179.91, 89.95, 54.95, 30.31, 81.47, -0.00, 0.00, 0.00, -0.00, 0.00, 0.00, -20.75, -5.75, -0.00, -0.00
2.567556619644165, -3.14, 1.57, 0.96, 0.53, 1.42, -179.91, 89.95, 54.95, 30.31, 81.47, -0.00, 0.00, 0.00, -0.00, 0.00, 0.00, -20.75, -5.75, -0.00, -0.00
2.600550651550293, -3.14, 1.57, 0.96, 0.53, 1.42, -179.91, 89.95, 54.95, 30.31, 81.47, -0.00, 0.00, 0.00, -0.00, 0.00, 0.00, -20.75, -5.75, -0.00, -0.00
2.635680913925171, -3.14, 1.57, 0.96, 0.53, 1.42, -179.91, 89.95, 54.95, 30.31, 81.47, -0.00, 0.00, 0.00, -0.00, 0.00, 0.00, -20.75, -5.75, -0.00, -0.00
2.670877456665039, -3.14, 1.57, 0.96, 0.53, 1.42, -179.91, 89.95, 54.95, 30.31, 81.47, -0.00, 0.00, 0.00, -0.00, 0.00, 0.00, -20.75, -5.75, -0.00, -0.00
2.706599473953247, -3.14, 1.57, 0.96, 0.53, 1.42, -179.91, 89.95, 54.95, 30.31, 81.47, -0.00, 0.00, 0.00, -0.00, 0.00, 0.00, -20.75, -5.75, -0.00, -0.00
2.7415976524353027, -3.14, 1.57, 0.96, 0.53, 1.42, -179.91, 89.95, 54.95, 30.31, 81.47, -0.00, 0.00, 0.00, -0.00, 0.00, 0.00, -20.75, -5.75, -0.00, -0.00
2.780545234680176, -3.14, 1.57, 0.96, 0.53, 1.42, -179.91, 89.95, 54.95, 30.31, 81.47, -0.00, 0.00, 0.00, -0.00, 0.00, 0.00, -20.75, -5.75, -0.00, -0.00
2.8185431957244873, -3.14, 1.57, 0.96, 0.53, 1.42, -179.91, 89.95, 54.95, 30.31, 81.47, -0.00, 0.00, 0.00, -0.00, 0.00, 0.00, -20.75, -5.75, -0.00, -0.00
2.8535444736480713, -3.14, 1.57, 0.96, 0.53, 1.42, -179.91, 89.95, 54.95, 30.31, 81.47, -0.00, 0.00, 0.00, -0.00, 0.00, 0.00, -20.75, -5.75, -0.00, -0.00
2.8915436267852783, -3.14, 1.57, 0.96, 0.53, 1.42, -179.91, 89.95, 54.95, 30.31, 81.47, -0.00, 0.00, 0.00, -0.00, 0.00, 0.00, -20.75, -5.75, -0.00, -0.00
2.9325449466705322, -3.14, 1.57, 0.96, 0.53, 1.42, -179.91, 89.95, 54.95, 30.31, 81.47, -0.00, 0.00, 0.00, -0.00, 0.00, 0.00, -20.75, -5.75, -0.00, -0.00
2.9775447845458984, -3.14, 1.57, 0.96, 0.53, 1.42, -179.91, 89.95, 54.95, 30.31, 81.47, -0.00, 0.00, 0.00, -0.00, 0.00, 0.00, -20.75, -5.75, -0.00, -0.00
3.018543004989624, -3.14, 1.57, 0.96, 0.53, 1.42, -179.91, 89.95, 54.95, 30.31, 81.47, -0.00, 0.00, 0.00, -0.00, 0.00, 0.00, -20.75, -5.75, -0.00, -0.00
3.051543951034546, -3.14, 1.57, 0.96, 0.53, 1.42, -179.91, 89.95, 54.95, 30.31, 81.47, -0.00, 0.00, 0.00, -0.00, 0.00, 0.00, -20.75, -5.75, -0.00, -0.00
3.085545063018799, -3.14, 1.57, 0.96, 0.53, 1.42, -179.91, 89.95, 54.95, 30.31, 81.47, -0.00, 0.00, 0.00, -0.00, 0.00, 0.00, -20.75, -5.75, -0.00, -0.00
3.120544672012329, -3.14, 1.57, 0.96, 0.53, 1.42, -179.91, 89.95, 54.95, 30.31, 81.47, -0.00, 0.00, 0.00, -0.00, 0.00, 0.00, -20.75, -5.75, -0.00, -0.00
3.1545510292053223, -3.14, 1.57, 0.96, 0.53, 1.42, -179.91, 89.95, 54.95, 30.31, 81.47, -0.00, 0.00, 0.00, -0.00, 0.00, 0.00, -20.75, -5.75, -0.00, -0.00
3.1965456008911133, -3.14, 1.57, 0.96, 0.53, 1.42, -179.91, 89.95, 54.95, 30.31, 81.47, -0.00, 0.00, 0.00, -0.00, 0.00, 0.00, -20.75, -5.75, -0.00, -0.00
3.229544162750244, -3.14, 1.57, 0.96, 0.53, 1.42, -179.91, 89.95, 54.95, 30.31, 81.47, -0.00, 0.00, 0.00, -0.00, 0.00, 0.00, -20.75, -5.75, -0.00, -0.00
3.26554536819458, -3.14, 1.57, 0.96, 0.53, 1.42, -179.91, 89.95, 54.95, 30.31, 81.47, -0.00, 0.00, 0.00, -0.00, 0.00, 0.00, -20.75, -5.75, -0.00, -0.00
3.2995448112487793, -3.14, 1.57, 0.96, 0.53, 1.42, -179.91, 89.95, 54.95, 30.31, 81.47, -0.00, 0.00, 0.00, -0.00, 0.00, 0.00, -20.75, -5.75, -0.00, -0.00
3.3335442543029785, -3.14, 1.57, 0.96, 0.53, 1.42, -179.91, 89.95, 54.95, 30.31, 81.47, -0.00, 0.00, 0.00, -0.00, 0.00, 0.00, -20.75, -5.75, -0.00, -0.00
3.368544578552246, -3.14, 1.57, 0.96, 0.53, 1.42, -179.91, 89.95, 54.95, 30.31, 81.47, -0.00, 0.00, 0.00, -0.00, 0.00, 0.00, -20.75, -5.75, -0.00, -0.00
3.4045467376708984, -3.14, 1.57, 0.96, 0.53, 1.42, -179.91, 89.95, 54.95, 30.31, 81.47, -0.00, 0.00, 0.00, -0.00, 0.00, 0.00, -20.75, -5.75, -0.00, -0.00
3.446544885635376, -3.14, 1.57, 0.96, 0.53, 1.42, -179.91, 89.95, 54.95, 30.31, 81.47, -0.00, 0.00, 0.00, -0.00, 0.00, 0.00, -20.75, -5.75, -0.00, -0.00
3.483543872833252, -3.14, 1.57, 0.96, 0.53, 1.42, -179.91, 89.95, 54.95, 30.31, 81.47, -0.00, 0.00, 0.00, -0.00, 0.00, 0.00, -20.75, -5.75, -0.00, -0.00
3.521543264389038, -3.14, 1.57, 0.96, 0.53, 1.42, -179.91, 89.95, 54.95, 30.31, 81.47, -0.00, 0.00, 0.00, -0.00, 0.00, 0.00, -20.75, -5.75, -0.00, -0.00
3.5605430603027344, -3.14, 1.57, 0.96, 0.53, 1.42, -179.91, 89.95, 54.95, 30.31, 81.47, -0.00, 0.00, 0.00, -0.00, 0.00, 0.00, -20.75, -5.75, -0.00, -0.00
3.5933377742767334, -3.14, 1.57, 0.96, 0.53, 1.42, -179.91, 89.95, 54.95, 30.31, 81.47, -0.00, 0.00, 0.00, -0.00, 0.00, 0.00, -20.75, -5.75, -0.00, -0.00
3.6268186569213867, -3.14, 1.57, 0.96, 0.53, 1.42, -179.91, 89.95, 54.95, 30.31, 81.47, -0.00, 0.00, 0.00, -0.00, 0.00, 0.00, -20.75, -5.75, -0.00, -0.00
3.6621973514556885, -3.14, 1.57, 0.96, 0.53, 1.42, -179.91, 89.95, 54.95, 30.31, 81.47, -0.00, 0.00, 0.00, -0.00, 0.00, 0.00, -20.75, -5.75, -0.00, -0.00
3.6942076683044434, -3.14, 1.57, 0.96, 0.53, 1.42, -179.91, 89.95, 54.95, 30.31, 81.47, -0.00, 0.00, 0.00, -0.00, 0.00, 0.00, -20.75, -5.75, -0.00, -0.00
3.7332069873809814, -3.14, 1.57, 0.96, 0.53, 1.42, -179.91, 89.95, 54.95, 30.31, 81.47, -0.00, 0.00, 0.00, -0.00, 0.00, 0.00, -20.75, -5.75, -0.00, -0.00
3.7656071186065674, -3.14, 1.57, 0.96, 0.53, 1.42, -179.91, 89.95, 54.95, 30.31, 81.47, -0.00, 0.00, 0.00, -0.00, 0.00, 0.00, -20.75, -5.75, -0.00, -0.00
3.8036022186279297, -3.14, 1.57, 0.96, 0.53, 1.42, -179.91, 89.95, 54.95, 30.31, 81.47, -0.00, 0.00, 0.00, -0.00, 0.00, 0.00, -20.75, -5.75, -0.00, -0.00
3.8387179374694824, -3.14, 1.57, 0.96, 0.53, 1.42, -179.91, 89.95, 54.95, 30.31, 81.47, -0.00, 0.00, 0.00, -0.00, 0.00, 0.00, -20.75, -5.75, -0.00, -0.00
3.8727176189422607, -3.11, 1.57, 0.96, 0.53, 1.42, -178.40, 89.95, 54.95, 30.31, 81.47, 6.31, 0.00, 0.00, -0.00, 0.00, 2257.29, -20.75, -5.75, -0.00, -0.00
3.9137189388275146, -3.06, 1.57, 0.96, 0.53, 1.42, -175.53, 89.95, 54.95, 30.31, 81.47, 12.03, 0.00, -0.00, 0.00, 0.00, 2047.34, 4.72, 19.81, -0.00, -0.00
3.9685895442962646, -3.00, 1.57, 0.96, 0.53, 1.42, -172.00, 89.95, 54.95, 30.31, 81.47, 14.79, 0.00, -0.00, 0.00, 0.00, 996.19, 72.38, 87.49, 0.00, -0.00
4.027589559555054, -2.94, 1.57, 0.96, 0.53, 1.42, -168.25, 89.95, 54.95, 30.31, 81.47, 15.70, 0.00, -0.00, 0.00, 0.00, 332.99, 120.10, 135.28, 0.00, -0.00
4.096903562545776, -2.86, 1.57, 0.96, 0.53, 1.42, -163.93, 89.95, 54.95, 30.31, 81.47, 18.09, 0.00, -0.00, 0.00, 0.00, 869.75, 137.79, 152.99, 0.00, -0.00
4.159906387329102, -2.77, 1.57, 0.96, 0.53, 1.42, -158.72, 89.95, 54.95, 30.31, 81.47, 21.84, 0.00, -0.00, 0.00, 0.00, 1355.41, 189.96, 205.22, 0.00, -0.00
4.218905925750732, -2.68, 1.57, 0.96, 0.53, 1.42, -153.65, 89.95, 54.95, 30.31, 81.47, 21.24, 0.00, -0.00, 0.00, 0.00, -191.11, 286.22, 301.61, 0.00, 0.00
4.280908584594727, -2.60, 1.57, 0.96, 0.53, 1.42, -148.89, 89.95, 54.95, 30.31, 81.47, 19.91, 0.00, -0.00, 0.00, 0.00, -454.81, 269.68, 285.05, 0.00, 0.00
4.345649480819702, -2.52, 1.57, 0.96, 0.53, 1.42, -144.42, 89.95, 54.95, 30.31, 81.47, 18.72, 0.00, -0.00, 0.00, 0.00, -409.71, 234.44, 249.76, 0.00, 0.00
4.407644271850586, -2.45, 1.57, 0.96, 0.53, 1.42, -140.21, 89.95, 54.95, 30.31, 81.47, 17.64, 0.00, -0.00, 0.00, 0.00, -368.98, 204.63, 219.93, -0.00, 0.00
4.469644069671631, -2.38, 1.57, 0.96, 0.53, 1.42, -136.42, 89.95, 54.95, 30.31, 81.47, 15.87, 0.00, -0.00, 0.00, 0.00, -616.09, 179.45, 194.70, 0.00, 0.00
4.536646842956543, -2.32, 1.57, 0.96, 0.53, 1.42, -133.01, 89.95, 54.95, 30.31, 81.47, 14.29, 0.00, -0.00, 0.00, 0.00, -555.72, 141.39, 156.60, -0.00, 0.00
4.6056458950042725, -2.27, 1.57, 0.96, 0.53, 1.42, -129.94, 89.95, 54.95, 30.31, 81.47, 12.86, 0.00, -0.00, 0.00, 0.00, -501.15, 110.62, 125.78, 0.00, 0.00
4.67032527923584, -2.22, 1.57, 0.96, 0.53, 1.42, -127.18, 89.95, 54.95, 30.31, 81.47, 11.57, 0.00, -0.00, 0.00, 0.00, -451.84, 85.63, 100.77, -0.00, 0.00
4.732325792312622, -2.18, 1.57, 0.96, 0.53, 1.42, -124.69, 89.95, 54.95, 30.31, 81.47, 10.42, 0.00, -0.00, 0.00, 0.00, -407.31, 65.42, 80.53, -0.00, 0.00
4.794245004653931, -2.14, 1.57, 0.96, 0.53, 1.42, -122.46, 89.95, 54.95, 30.31, 81.47, 9.37, 0.00, -0.00, 0.00, 0.00, -367.11, 49.08, 64.16, 0.00, 0.00
4.861494064331055, -2.10, 1.57, 0.96, 0.53, 1.42, -120.44, 89.95, 54.95, 30.31, 81.47, 8.44, 0.00, -0.00, 0.00, 0.00, -330.84, 35.78, 50.86, -0.00, 0.00
4.923845052719116, -2.07, 1.57, 0.96, 0.53, 1.42, -118.63, 89.95, 54.95, 30.31, 81.47, 7.59, 0.00, -0.00, 0.00, 0.00, -298.10, 25.05, 40.10, 0.00, 0.00
4.981934070587158, -2.04, 1.57, 0.96, 0.53, 1.42, -117.00, 89.95, 54.95, 30.31, 81.47, 6.83, 0.00, -0.00, 0.00, 0.00, -268.57, 16.35, 31.40, 0.00, 0.00
5.026775360107422, -2.02, 1.57, 0.96, 0.53, 1.42, -115.53, 89.95, 54.95, 30.31, 81.47, 6.15, 0.00, -0.00, 0.00, 0.00, -241.94, 9.28, 24.33, -0.00, 0.00
5.060774087905884, -1.99, 1.57, 0.96, 0.53, 1.42, -114.21, 89.95, 54.95, 30.31, 81.47, 5.53, 0.00, -0.00, 0.00, 0.00, -217.93, 3.60, 18.63, 0.00, 0.00
5.099776268005371, -1.97, 1.57, 0.96, 0.53, 1.42, -113.02, 89.95, 54.95, 30.31, 81.47, 4.98, 0.00, 0.00, -0.00, 0.00, -196.29, -0.89, 14.08, 0.00, 0.00
5.135775089263916, -1.95, 1.57, 0.96, 0.53, 1.42, -111.95, 89.95, 54.95, 30.31, 81.47, 4.48, 0.00, 0.00, -0.00, 0.00, -176.79, -4.79, 10.23, -0.00, 0.00
5.176776647567749, -1.94, 1.57, 0.96, 0.53, 1.42, -110.99, 89.95, 54.95, 30.31, 81.47, 4.03, 0.00, 0.00, -0.00, 0.00, -159.21, -7.82, 7.20, -0.00, 0.00
5.211530685424805, -1.92, 1.57, 0.96, 0.53, 1.42, -110.12, 89.95, 54.95, 30.31, 81.47, 3.63, 0.00, 0.00, -0.00, 0.00, -143.37, -10.29, 4.73, -0.00, 0.00
5.245047330856323, -1.91, 1.57, 0.96, 0.53, 1.42, -109.34, 89.95, 54.95, 30.31, 81.47, 3.27, 0.00, 0.00, -0.00, 0.00, -129.09, -12.26, 2.75, 0.00, 0.00
5.285045385360718, -1.90, 1.57, 0.96, 0.53, 1.42, -108.64, 89.95, 54.95, 30.31, 81.47, 2.94, 0.00, 0.00, -0.00, 0.00, -116.24, -13.88, 1.13, 0.00, 0.00
5.322574138641357, -1.89, 1.57, 0.96, 0.53, 1.42, -108.00, 89.95, 54.95, 30.31, 81.47, 2.65, 0.00, 0.00, -0.00, 0.00, -104.65, -15.22, -0.20, -0.00, 0.00
5.356574535369873, -1.88, 1.56, 0.96, 0.53, 1.42, -107.43, 89.30, 54.95, 30.31, 81.47, 2.38, -2.76, 0.00, -0.00, 0.00, -94.22, -1224.08, -522.40, -0.00, 0.00
5.3915746212005615, -1.87, 1.54, 0.96, 0.53, 1.42, -106.92, 88.42, 54.95, 30.31, 81.47, 2.14, -3.67, 0.00, -0.00, 0.00, -77.22, -418.52, -172.23, -0.00, 0.00
5.429089307785034, -1.86, 1.53, 0.96, 0.53, 1.42, -106.46, 87.63, 54.95, 30.31, 81.47, 1.93, -3.31, -0.00, 0.00, 0.00, -68.22, 141.30, 71.24, 0.00, 0.00
5.467091798782349, -1.85, 1.52, 0.96, 0.53, 1.42, -106.05, 86.92, 54.95, 30.31, 81.47, 1.74, -2.98, -0.00, 0.00, 0.00, -63.28, 124.92, 62.79, 0.00, 0.00
5.5000903606414795, -1.84, 1.50, 0.96, 0.53, 1.42, -105.67, 86.00, 54.95, 30.31, 81.47, 1.56, -3.87, 0.00, -0.00, 0.00, -58.43, -411.04, -169.60, -0.00, 0.00
5.538090944290161, -1.84, 1.48, 0.96, 0.53, 1.42, -105.34, 84.88, 54.95, 30.31, 81.47, 1.41, -4.67, 0.00, -0.00, 0.00, -51.85, -373.05, -151.04, -0.00, 0.00
5.573092937469482, -1.83, 1.46, 0.96, 0.53, 1.42, -105.04, 83.50, 54.95, 30.31, 81.47, 1.27, -5.79, 0.00, -0.00, 0.00, -46.41, -512.51, -208.68, -0.00, 0.00
5.607090950012207, -1.83, 1.43, 0.96, 0.53, 1.42, -104.76, 82.06, 54.95, 30.31, 81.47, 1.14, -6.01, 0.00, -0.00, 0.00, -41.43, -117.14, -33.56, -0.00, 0.00
5.640176296234131, -1.82, 1.41, 0.96, 0.53, 1.42, -104.52, 80.77, 54.95, 30.31, 81.47, 1.03, -5.41, -0.00, 0.00, 0.00, -38.17, 239.10, 120.91, 0.00, 0.00
5.677151679992676, -1.82, 1.39, 0.96, 0.53, 1.42, -104.30, 79.61, 54.95, 30.31, 81.47, 0.92, -4.87, -0.00, 0.00, 0.00, -35.82, 213.14, 106.74, 0.00, 0.00
5.711152791976929, -1.82, 1.37, 0.96, 0.53, 1.42, -104.10, 78.57, 54.95, 30.31, 81.47, 0.83, -4.38, -0.00, 0.00, 0.00, -33.34, 189.68, 94.18, 0.00, 0.00
5.745746374130249, -1.81, 1.35, 0.96, 0.53, 1.42, -103.92, 77.34, 54.95, 30.31, 81.47, 0.75, -5.13, 0.00, -0.00, 0.00, -30.83, -352.57, -141.76, -0.00, 0.00
5.780116558074951, -1.81, 1.32, 0.96, 0.53, 1.42, -103.76, 75.86, 54.95, 30.31, 81.47, 0.67, -6.21, 0.00, -0.00, 0.00, -27.83, -494.18, -200.15, -0.00, 0.00
5.813117265701294, -1.81, 1.29, 0.96, 0.53, 1.42, -103.62, 74.15, 54.95, 30.31, 81.47, 0.61, -7.17, 0.00, -0.00, 0.00, -25.13, -448.07, -175.46, -0.00, 0.00
5.8471152782440186, -1.81, 1.26, 0.96, 0.53, 1.42, -103.49, 72.32, 54.95, 30.31, 81.47, 0.55, -7.65, 0.00, -0.00, 0.00, -22.89, -233.01, -77.60, -0.00, 0.00
5.880115270614624, -1.80, 1.23, 0.96, 0.53, 1.42, -103.37, 70.49, 54.95, 30.31, 81.47, 0.49, -7.67, 0.00, -0.00, 0.00, -21.09, -39.05, 8.75, -0.00, 0.00
5.914116382598877, -1.80, 1.20, 0.96, 0.53, 1.42, -103.26, 68.65, 54.95, 30.31, 81.47, 0.44, -7.70, 0.00, -0.00, 0.00, -19.50, -37.88, 9.24, -0.00, 0.00
5.944115400314331, -1.80, 1.17, 0.96, 0.53, 1.42, -103.17, 66.81, 54.95, 30.31, 81.47, 0.40, -7.72, 0.00, -0.00, 0.00, -18.00, -36.79, 9.68, -0.00, 0.00
5.977114677429199, -1.80, 1.14, 0.96, 0.53, 1.42, -103.08, 65.15, 54.95, 30.31, 81.47, 0.36, -6.95, -0.00, 0.00, 0.00, -16.57, 311.55, 159.90, 0.00, 0.00
6.011115550994873, -1.80, 1.10, 0.96, 0.53, 1.42, -103.01, 63.09, 54.95, 30.31, 81.47, 0.32, -8.64, 0.00, -0.00, 0.00, -15.19, -763.66, -308.75, -0.00, 0.00
6.044146537780762, -1.80, 1.07, 0.96, 0.53, 1.42, -102.94, 61.04, 54.95, 30.31, 81.47, 0.29, -8.57, -0.00, 0.00, 0.00, -13.98, 3.17, 32.55, 0.00, 0.00
6.076130628585815, -1.80, 1.03, 0.96, 0.53, 1.42, -102.88, 58.92, 54.95, 30.31, 81.47, 0.26, -8.90, 0.00, -0.00, 0.00, -12.83, -173.19, -44.18, -0.00, 0.00
6.110130071640015, -1.79, 0.99, 0.96, 0.53, 1.42, -102.82, 56.62, 54.95, 30.31, 81.47, 0.23, -9.60, 0.00, -0.00, 0.00, -11.78, -332.75, -110.91, -0.00, 0.00
6.141133069992065, -1.79, 0.95, 0.96, 0.53, 1.42, -102.77, 54.37, 54.95, 30.31, 81.47, 0.21, -9.43, -0.00, 0.00, 0.00, -10.85, 44.46, 56.85, 0.00, 0.00
6.1811301708221436, -1.79, 0.91, 0.96, 0.53, 1.42, -102.72, 52.35, 54.95, 30.31, 81.47, 0.19, -8.49, -0.00, 0.00, 0.00, -9.88, 385.26, 202.42, 0.00, 0.00
6.212783336639404, -1.79, 0.88, 0.96, 0.53, 1.42, -102.68, 50.52, 54.95, 30.31, 81.47, 0.17, -7.64, -0.00, 0.00, 0.00, -8.84, 345.26, 178.07, 0.00, 0.00
6.24578332901001, -1.79, 0.85, 0.96, 0.53, 1.42, -102.65, 48.88, 54.95, 30.31, 81.47, 0.15, -6.88, -0.00, 0.00, 0.00, -7.87, 309.17, 156.72, 0.00, 0.00
6.2880189418792725, -1.79, 0.83, 0.96, 0.53, 1.42, -102.61, 47.40, 54.95, 30.31, 81.47, 0.14, -6.19, -0.00, 0.00, 0.00, -6.97, 276.69, 138.03, 0.00, 0.00
6.3235392570495605, -1.79, 0.80, 0.96, 0.53, 1.42, -102.58, 45.98, 54.95, 30.31, 81.47, 0.12, -5.97, -0.00, 0.00, 0.00, -6.17, 73.63, 46.61, 0.00, 0.00
6.3585364818573, -1.79, 0.78, 0.96, 0.53, 1.42, -102.56, 44.70, 54.95, 30.31, 81.47, 0.11, -5.37, -0.00, 0.00, 0.00, -5.49, 238.03, 116.30, 0.00, 0.00
6.392538785934448, -1.79, 0.76, 0.96, 0.53, 1.42, -102.53, 43.54, 54.95, 30.31, 81.47, 0.10, -4.83, -0.00, 0.00, 0.00, -4.84, 212.54, 102.41, 0.00, 0.00
6.431063652038574, -1.79, 0.74, 0.96, 0.53, 1.42, -102.51, 42.50, 54.95, 30.31, 81.47, 0.09, -4.35, -0.00, 0.00, 0.00, -4.26, 189.62, 90.18, 0.00, 0.00
6.474456548690796, -1.79, 0.73, 0.96, 0.53, 1.42, -102.49, 41.57, 54.95, 30.31, 81.47, 0.08, -3.91, -0.00, 0.00, 0.00, -3.75, 168.94, 79.35, 0.00, 0.00
6.51045560836792, -1.79, 0.76, 0.96, 0.53, 1.42, -102.47, 43.48, 54.95, 30.31, 81.47, 0.07, 7.98, 0.00, -0.00, 0.00, -3.31, 5188.82, 2243.80, 0.00, 0.00
6.544455051422119, -1.79, 0.81, 0.96, 0.53, 1.42, -102.46, 46.61, 54.95, 30.31, 81.47, 0.07, 13.14, 0.00, -0.00, 0.00, -1.94, 2241.11, 992.03, 0.00, 0.00
6.720454692840576, -1.79, 0.87, 0.96, 0.53, 1.42, -102.44, 49.91, 54.95, 30.31, 81.47, 0.06, 13.81, -0.00, 0.00, 0.00, -1.53, 284.30, 192.74, 0.00, 0.00
6.874454736709595, -1.79, 0.94, 0.96, 0.53, 1.42, -102.43, 53.92, 54.95, 30.31, 81.47, 0.05, 16.79, -0.00, 0.00, 0.00, -1.55, 1298.11, 637.94, 0.00, 0.00
7.007455110549927, -1.79, 1.00, 0.96, 0.53, 1.42, -102.42, 57.53, 54.95, 30.31, 81.47, 0.05, 15.11, 0.00, -0.00, 0.00, -1.50, -738.33, -202.79, -0.00, 0.00
7.1645424365997314, -1.79, 1.06, 0.96, 0.53, 1.42, -102.41, 60.77, 54.95, 30.31, 81.47, 0.04, 13.60, 0.00, -0.00, 0.00, -1.61, -668.65, -194.41, -0.00, 0.00
7.3113439083099365, -1.79, 1.11, 0.96, 0.53, 1.42, -102.40, 63.70, 54.95, 30.31, 81.47, 0.04, 12.24, 0.00, -0.00, 0.00, -1.62, -605.46, -184.67, -0.00, 0.00
7.482952117919922, -1.79, 1.16, 0.96, 0.53, 1.42, -102.39, 66.33, 54.95, 30.31, 81.47, 0.04, 11.02, 0.00, -0.00, 0.00, -1.57, -548.26, -174.15, -0.00, 0.00
7.661320686340332, -1.79, 1.20, 0.96, 0.53, 1.42, -102.38, 68.69, 54.95, 30.31, 81.47, 0.03, 9.92, 0.00, -0.00, 0.00, -1.49, -496.54, -163.29, -0.00, 0.00
7.8353211879730225, -1.76, 1.24, 0.96, 0.53, 1.42, -101.05, 70.82, 54.95, 30.31, 81.47, 5.58, 8.92, 0.00, -0.00, 0.00, 2362.88, -449.76, -152.35, -0.00, -0.00
7.963840007781982, -1.59, 1.27, 0.96, 0.53, 1.42, -90.95, 72.74, 54.95, 30.31, 81.47, 42.33, 8.03, 0.00, -0.00, 0.00, 15550.13, -402.13, -125.23, -0.00, -0.01
8.056841373443604, -1.33, 1.30, 0.96, 0.53, 1.42, -75.98, 74.47, 54.95, 30.31, 81.47, 62.70, 7.23, -0.00, 0.00, 0.00, 8538.90, 12.60, 832.85, -0.00, -0.00
8.1128408908844, -1.07, 1.33, 0.96, 0.53, 1.42, -61.37, 76.02, 54.95, 30.31, 81.47, 61.19, 6.51, -0.00, 0.00, 0.00, -630.55, 688.29, 2056.40, -0.00, 0.00
8.174842119216919, -0.82, 1.35, 0.96, 0.53, 1.42, -46.71, 77.42, 54.95, 30.31, 81.47, 61.42, 5.86, -0.00, 0.00, 0.00, 72.43, 835.36, 2015.87, -0.00, -0.00
8.232842206954956, -0.56, 1.37, 0.96, 0.53, 1.42, -31.99, 78.68, 54.95, 30.31, 81.47, 61.63, 5.27, -0.00, 0.00, 0.00, 54.94, 1017.96, 2085.70, -0.00, -0.00
8.284841060638428, -0.31, 1.39, 0.96, 0.53, 1.42, -17.80, 79.81, 54.95, 30.31, 81.47, 59.43, 4.74, -0.00, 0.00, 0.00, -922.61, 1181.59, 2146.57, -0.00, 0.00
8.342843294143677, -0.08, 1.41, 0.96, 0.53, 1.42, -4.47, 80.83, 54.95, 30.31, 81.47, 55.87, 4.27, -0.00, 0.00, 0.00, -1468.20, 1211.08, 2027.20, -0.00, 0.00
8.394841194152832, 0.14, 1.43, 0.96, 0.53, 1.42, 8.30, 81.75, 54.95, 30.31, 81.47, 53.46, 3.84, -0.00, 0.00, 0.00, -999.31, 1147.90, 1810.63, -0.00, 0.00
8.452842235565186, 0.37, 1.44, 0.96, 0.53, 1.42, 21.11, 82.57, 54.95, 30.31, 81.47, 53.67, 3.46, -0.00, 0.00, 0.00, 48.83, 1119.26, 1674.41, -0.00, -0.00
8.513486862182617, 0.59, 1.45, 0.96, 0.53, 1.42, 33.78, 83.31, 54.95, 30.31, 81.47, 53.06, 3.11, -0.00, 0.00, 0.00, -262.29, 1205.68, 1708.29, -0.00, -0.00
8.56548547744751, 0.79, 1.47, 0.96, 0.53, 1.42, 45.37, 83.98, 54.95, 30.31, 81.47, 48.55, 2.80, -0.00, 0.00, 0.00, -1774.32, 1241.33, 1685.71, -0.00, 0.00
8.619489431381226, 0.97, 1.48, 0.96, 0.53, 1.42, 55.80, 84.58, 54.95, 30.31, 81.47, 43.70, 2.52, -0.00, 0.00, 0.00, -1894.67, 1065.80, 1414.79, -0.00, 0.00
8.677485466003418, 1.14, 1.49, 0.96, 0.53, 1.42, 65.19, 85.13, 54.95, 30.31, 81.47, 39.33, 2.27, -0.00, 0.00, 0.00, -1696.23, 876.03, 1145.82, -0.00, 0.00
8.743115425109863, 1.29, 1.49, 0.96, 0.53, 1.42, 73.64, 85.61, 54.95, 30.31, 81.47, 35.39, 2.04, -0.00, 0.00, 0.00, -1518.34, 715.63, 926.67, -0.00, 0.00
8.809112787246704, 1.29, 1.50, 0.96, 0.53, 1.42, 73.66, 86.05, 54.95, 30.31, 81.47, 0.11, 1.84, -0.00, 0.00, 0.00, -13403.66, 581.04, 748.31, -0.00, 0.01
8.863116025924683, 1.12, 1.51, 0.96, 0.53, 1.42, 64.40, 86.45, 54.95, 30.31, 81.47, -38.79, 1.65, 0.00, -0.00, 0.00, -14679.70, -101.22, -39.37, -0.00, 0.01
8.92311406135559, 0.90, 1.51, 0.96, 0.53, 1.42, 51.33, 86.80, 54.95, 30.31, 81.47, -54.75, 1.49, -0.00, 0.00, 0.00, -5995.11, 764.78, 918.97, -0.00, 0.00
8.97411322593689, 0.56, 1.52, 0.96, 0.53, 1.42, 31.99, 87.12, 54.95, 30.31, 81.47, -81.03, 1.34, 0.00, -0.00, 0.00, -9871.37, 1645.49, 1872.92, -0.00, 0.00
9.010629415512085, 0.19, 1.53, 0.96, 0.53, 1.42, 10.79, 87.41, 54.95, 30.31, 81.47, -88.80, 1.21, 0.00, -0.00, 0.00, -3079.49, 3755.48, 4149.49, -0.00, 0.00
9.046146392822266, -0.14, 1.53, 0.96, 0.53, 1.42, -8.29, 87.67, 54.95, 30.31, 81.47, -79.92, 1.08, 0.00, -0.00, 0.00, 3045.31, 4581.41, 4999.54, -0.00, -0.00
9.080146789550781, -0.44, 1.53, 0.96, 0.53, 1.42, -25.46, 87.90, 54.95, 30.31, 81.47, -71.93, 0.98, 0.00, -0.00, 0.00, 2754.95, 3738.70, 4052.04, -0.00, -0.00
9.11614441871643, -0.71, 1.54, 0.96, 0.53, 1.42, -40.92, 88.11, 54.95, 30.31, 81.47, -64.73, 0.88, 0.00, -0.00, 0.00, 2490.42, 3046.41, 3283.07, -0.00, -0.00
9.15914511680603, -0.96, 1.54, 0.96, 0.53, 1.42, -54.82, 88.30, 54.95, 30.31, 81.47, -58.26, 0.79, 0.00, -0.00, 0.00, 2249.87, 2478.81, 2659.24, -0.00, -0.00
9.200144052505493, -1.18, 1.54, 0.96, 0.53, 1.42, -67.34, 88.47, 54.95, 30.31, 81.47, -52.43, 0.71, 0.00, -0.00, 0.00, 2031.49, 2014.19, 2153.29, -0.00, -0.00
9.251915216445923, -1.37, 1.55, 0.96, 0.53, 1.42, -78.61, 88.62, 54.95, 30.31, 81.47, -47.19, 0.64, 0.00, -0.00, 0.00, 1833.48, 1634.41, 1743.07, -0.00, -0.00
9.305017709732056, -1.55, 1.55, 0.96, 0.53, 1.42, -88.75, 88.76, 54.95, 30.31, 81.47, -42.47, 0.58, -0.00, 0.00, 0.00, 1654.15, 1324.34, 1410.51, -0.00, -0.00
9.360018014907837, -1.71, 1.55, 0.96, 0.53, 1.42, -97.87, 88.88, 54.95, 30.31, 81.47, -38.22, 0.52, -0.00, 0.00, 0.00, 1491.86, 1071.49, 1141.01, -0.00, -0.00
9.417908430099487, -1.85, 1.55, 0.96, 0.53, 1.42, -106.08, 89.00, 54.95, 30.31, 81.47, -34.40, 0.47, -0.00, 0.00, 0.00, 1345.14, 865.46, 922.60, -0.00, -0.00
9.47870683670044, -1.98, 1.56, 0.96, 0.53, 1.42, -113.48, 89.10, 54.95, 30.31, 81.47, -30.96, 0.42, -0.00, 0.00, 0.00, 1212.57, 697.82, 745.68, -0.00, -0.00
9.536695003509521, -2.10, 1.56, 0.96, 0.53, 1.42, -120.13, 89.19, 54.95, 30.31, 81.47, -27.87, 0.38, -0.00, 0.00, 0.00, 1092.84, 561.43, 602.33, -0.00, -0.00
9.594290733337402, -2.20, 1.56, 0.96, 0.53, 1.42, -126.12, 89.27, 54.95, 30.31, 81.47, -25.08, 0.34, -0.00, 0.00, 0.00, 984.76, 450.61, 486.25, -0.00, -0.00
9.658290147781372, -2.30, 1.56, 0.96, 0.53, 1.42, -131.50, 89.34, 54.95, 30.31, 81.47, -22.57, 0.31, -0.00, 0.00, 0.00, 887.24, 360.64, 392.26, -0.00, -0.00
9.72429370880127, -2.38, 1.56, 0.96, 0.53, 1.42, -136.35, 89.41, 54.95, 30.31, 81.47, -20.31, 0.28, -0.00, 0.00, 0.00, 799.28, 287.57, 316.12, -0.00, -0.00
9.789294242858887, -2.46, 1.56, 0.96, 0.53, 1.42, -140.72, 89.47, 54.95, 30.31, 81.47, -18.28, 0.25, -0.00, 0.00, 0.00, 719.95, 228.37, 254.52, -0.00, -0.00
9.852290153503418, -2.52, 1.56, 0.96, 0.53, 1.42, -144.65, 89.52, 54.95, 30.31, 81.47, -16.45, 0.22, -0.00, 0.00, 0.00, 648.44, 180.32, 204.63, -0.00, -0.00
9.92329216003418, -2.59, 1.56, 0.96, 0.53, 1.42, -148.18, 89.57, 54.95, 30.31, 81.47, -14.81, 0.20, -0.00, 0.00, 0.00, 583.97, 141.43, 164.26, -0.00, -0.00
9.997289896011353, -2.64, 1.56, 0.96, 0.53, 1.42, -151.36, 89.61, 54.95, 30.31, 81.47, -13.33, 0.18, -0.00, 0.00, 0.00, 525.88, 109.98, 131.62, -0.00, -0.00
10.072290182113647, -2.69, 1.56, 0.96, 0.53, 1.42, -154.23, 89.65, 54.95, 30.31, 81.47, -12.00, 0.16, -0.00, 0.00, 0.00, 473.54, 84.48, 105.17, -0.00, -0.00
10.142290830612183, -2.74, 1.56, 0.96, 0.53, 1.42, -156.80, 89.31, 54.95, 30.31, 81.47, -10.80, -1.44, 0.00, -0.00, 0.00, 426.38, -630.95, -215.97, -0.00, -0.00
10.19836688041687, -2.78, 1.50, 0.96, 0.53, 1.42, -159.12, 86.06, 54.95, 30.31, 81.47, -9.72, -13.60, 0.00, -0.00, 0.00, 364.35, -5271.33, -2227.30, -0.00, -0.00
10.233366966247559, -2.81, 1.41, 0.96, 0.53, 1.42, -161.21, 80.96, 54.95, 30.31, 81.47, -8.74, -21.37, 0.00, -0.00, 0.00, 210.02, -3383.98, -1345.02, -0.00, -0.00
10.266366958618164, -2.85, 1.32, 0.96, 0.53, 1.42, -163.09, 75.42, 54.95, 30.31, 81.47, -7.87, -23.20, 0.00, -0.00, 0.00, 174.94, -822.19, -134.36, -0.00, -0.00
10.300886154174805, -2.88, 1.21, 0.96, 0.53, 1.42, -164.78, 69.40, 54.95, 30.31, 81.47, -7.08, -25.24, 0.00, -0.00, 0.00, 212.33, -936.45, -155.65, -0.00, -0.00
10.334923267364502, -2.90, 1.10, 0.96, 0.53, 1.42, -166.30, 62.93, 54.95, 30.31, 81.47, -6.37, -27.08, 0.00, -0.00, 0.00, 252.11, -865.16, -89.57, -0.00, -0.00
10.366925477981567, -2.93, 0.99, 0.96, 0.53, 1.42, -167.67, 56.54, 54.95, 30.31, 81.47, -5.74, -26.76, -0.00, 0.00, 0.00, 291.28, 69.51, 348.11, 0.00, -0.00
10.39792776107788, -2.95, 0.87, 0.96, 0.53, 1.42, -168.91, 50.03, 54.95, 30.31, 81.47, -5.16, -27.26, 0.00, -0.00, 0.00, 314.19, -295.80, 178.90, -0.00, -0.00
10.429332733154297, -2.97, 0.76, 0.96, 0.53, 1.42, -170.02, 43.42, 54.95, 30.31, 81.47, -4.65, -27.70, 0.00, -0.00, 0.00, 324.01, -277.90, 193.55, -0.00, -0.00
10.46289610862732, -2.98, 0.64, 0.96, 0.53, 1.42, -171.01, 36.62, 54.95, 30.31, 81.47, -4.18, -28.51, 0.00, -0.00, 0.00, 320.38, -433.44, 132.99, -0.00, -0.00
10.505383729934692, -3.00, 0.52, 0.96, 0.53, 1.42, -171.91, 29.73, 54.95, 30.31, 81.47, -3.76, -28.83, 0.00, -0.00, 0.00, 306.99, -225.73, 237.94, -0.00, -0.00
10.542906045913696, -3.01, 0.39, 0.96, 0.53, 1.42, -172.72, 22.50, 54.95, 30.31, 81.47, -3.39, -30.31, 0.00, -0.00, 0.00, 280.38, -731.02, 24.98, -0.00, -0.00
10.578905582427979, -3.03, 0.27, 0.96, 0.53, 1.42, -173.45, 15.42, 54.95, 30.31, 81.47, -3.05, -29.66, -0.00, 0.00, 0.00, 251.84, 200.78, 460.64, 0.00, -0.00
10.612495183944702, -3.04, 0.15, 0.96, 0.53, 1.42, -174.10, 8.66, 54.95, 30.31, 81.47, -2.74, -28.28, -0.00, 0.00, 0.00, 205.77, 526.59, 583.75, 0.00, -0.00
10.644070148468018, -3.05, 0.04, 0.96, 0.53, 1.42, -174.69, 2.49, 54.95, 30.31, 81.47, -2.47, -25.85, -0.00, 0.00, 0.00, 157.01, 996.60, 752.78, 0.00, -0.00
10.678836822509766, -3.06, -0.05, 0.96, 0.53, 1.42, -175.22, -3.06, 54.95, 30.31, 81.47, -2.22, -23.27, -0.00, 0.00, 0.00, 110.75, 1076.00, 732.56, 0.00, -0.00
10.718388080596924, -3.07, -0.14, 0.96, 0.53, 1.42, -175.70, -8.06, 54.95, 30.31, 81.47, -2.00, -20.94, -0.00, 0.00, 0.00, 73.76, 974.08, 636.26, 0.00, -0.00
10.758903503417969, -3.07, -0.22, 0.96, 0.53, 1.42, -176.13, -12.56, 54.95, 30.31, 81.47, -1.80, -18.85, -0.00, 0.00, 0.00, 46.74, 881.58, 554.06, 0.00, -0.00
10.795900583267212, -3.08, -0.29, 0.96, 0.53, 1.42, -176.52, -16.70, 54.95, 30.31, 81.47, -1.62, -17.36, -0.00, 0.00, 0.00, 27.84, 623.82, 408.63, 0.00, -0.00
10.833420991897583, -3.09, -0.36, 0.96, 0.53, 1.42, -176.87, -20.62, 54.95, 30.31, 81.47, -1.46, -16.42, -0.00, 0.00, 0.00, 15.25, 390.45, 285.83, 0.00, -0.00
10.870944023132324, -3.09, -0.44, 0.96, 0.53, 1.42, -177.18, -25.00, 54.95, 30.31, 81.47, -1.31, -18.35, 0.00, -0.00, 0.00, 6.81, -863.02, -268.07, -0.00, -0.00
10.90594482421875, -3.10, -0.51, 0.96, 0.53, 1.42, -177.46, -29.23, 54.95, 30.31, 81.47, -1.18, -17.70, -0.00, 0.00, 0.00, 0.12, 261.41, 244.30, 0.00, -0.00
10.942944049835205, -3.10, -0.58, 0.96, 0.53, 1.42, -177.72, -33.41, 54.95, 30.31, 81.47, -1.06, -17.52, -0.00, 0.00, 0.00, -4.77, 62.88, 149.18, 0.00, -0.00
10.982944011688232, -3.11, -0.66, 0.96, 0.53, 1.42, -177.94, -37.55, 54.95, 30.31, 81.47, -0.96, -17.35, -0.00, 0.00, 0.00, -7.99, 57.00, 144.02, 0.00, 0.00
11.023944616317749, -3.11, -0.73, 0.96, 0.53, 1.42, -178.15, -41.76, 54.95, 30.31, 81.47, -0.86, -17.60, 0.00, -0.00, 0.00, -9.85, -121.84, 64.57, -0.00, 0.00
11.07549238204956, -3.11, -0.80, 0.96, 0.53, 1.42, -178.33, -45.73, 54.95, 30.31, 81.47, -0.78, -16.64, -0.00, 0.00, 0.00, -11.00, 411.00, 298.01, 0.00, 0.00
11.121490478515625, -3.12, -0.86, 0.96, 0.53, 1.42, -178.50, -49.30, 54.95, 30.31, 81.47, -0.70, -14.97, -0.00, 0.00, 0.00, -10.15, 719.86, 417.90, 0.00, 0.00
11.176018238067627, -3.12, -0.92, 0.96, 0.53, 1.42, -178.65, -52.52, 54.95, 30.31, 81.47, -0.63, -13.48, -0.00, 0.00, 0.00, -8.00, 651.52, 367.06, 0.00, 0.00
11.224016427993774, -3.12, -0.97, 0.96, 0.53, 1.42, -178.79, -55.42, 54.95, 30.31, 81.47, -0.56, -12.13, -0.00, 0.00, 0.00, -5.76, 589.75, 323.14, 0.00, 0.00
11.274014711380005, -3.12, -0.97, 0.96, 0.53, 1.42, -178.91, -55.65, 54.95, 30.31, 81.47, -0.51, -1.00, 0.00, -0.00, 0.00, -3.67, 4877.41, 2159.24, 0.00, 0.00
11.375015258789062, -3.12, -0.89, 0.96, 0.53, 1.42, -179.02, -51.04, 54.95, 30.31, 81.47, -0.46, 19.34, 0.00, -0.00, 0.00, 5.56, 8917.19, 3842.76, 0.01, 0.00
11.42101502418518, -3.13, -0.73, 0.96, 0.53, 1.42, -179.11, -41.86, 54.95, 30.31, 81.47, -0.41, 38.44, 0.00, -0.00, 0.00, 16.69, 8397.25, 3771.62, 0.01, 0.00
11.491471529006958, -3.13, -0.56, 0.96, 0.53, 1.42, -179.20, -31.89, 54.95, 30.31, 81.47, -0.37, 41.74, 0.00, -0.00, 0.00, 17.90, 1545.44, 1268.51, 0.00, 0.00
11.556417226791382, -3.13, -0.37, 0.96, 0.53, 1.42, -179.28, -20.94, 54.95, 30.31, 81.47, -0.33, 45.90, 0.00, -0.00, 0.00, 7.89, 1934.30, 1545.00, 0.00, 0.00
11.640855073928833, -3.13, -0.17, 0.96, 0.53, 1.42, -179.35, -9.84, 54.95, 30.31, 81.47, -0.30, 46.47, -0.00, 0.00, 0.00, -2.50, 380.46, 1024.49, 0.00, 0.00
11.76285457611084, -3.13, 0.00, 0.96, 0.53, 1.42, -179.42, 0.14, 54.95, 30.31, 81.47, -0.27, 41.82, 0.00, -0.00, 0.00, -10.49, -1904.12, 60.73, -0.00, 0.00
11.890485525131226, -3.13, 0.16, 0.96, 0.53, 1.42, -179.48, 9.13, 54.95, 30.31, 81.47, -0.24, 37.64, 0.00, -0.00, 0.00, -12.58, -1729.94, -32.24, -0.00, 0.00
12.001481294631958, -3.13, 0.30, 0.96, 0.53, 1.42, -179.53, 17.21, 54.95, 30.31, 81.47, -0.22, 33.88, 0.00, -0.00, 0.00, -11.40, -1570.49, -99.46, -0.00, 0.00
12.110479831695557, -3.13, 0.43, 0.96, 0.53, 1.42, -179.58, 24.49, 54.95, 30.31, 81.47, -0.20, 30.49, 0.00, -0.00, 0.00, -8.73, -1424.92, -146.67, -0.00, 0.00
12.220020532608032, -3.13, 0.54, 0.96, 0.53, 1.42, -179.62, 31.04, 54.95, 30.31, 81.47, -0.18, 27.44, 0.00, -0.00, 0.00, -5.71, -1292.21, -178.44, -0.00, 0.00
12.32498049736023, -3.14, 0.64, 0.96, 0.53, 1.42, -179.66, 36.94, 54.95, 30.31, 81.47, -0.16, 24.70, 0.00, -0.00, 0.00, -2.95, -1171.34, -198.30, -0.00, 0.00
12.439024448394775, -3.14, 0.74, 0.96, 0.53, 1.42, -179.69, 42.25, 54.95, 30.31, 81.47, -0.14, 22.23, 0.00, -0.00, 0.00, -0.72, -1061.39, -209.11, -0.00, 0.00
12.560022354125977, -3.14, 0.82, 0.96, 0.53, 1.42, -179.72, 47.02, 54.95, 30.31, 81.47, -0.13, 20.00, 0.00, -0.00, 0.00, 0.93, -961.46, -213.11, -0.00, 0.00
12.683021545410156, -3.14, 0.90, 0.96, 0.53, 1.42, -179.75, 51.32, 54.95, 30.31, 81.47, -0.12, 18.00, 0.00, -0.00, 0.00, 2.06, -870.80, -212.11, -0.00, -0.00
12.815022945404053, -3.14, 0.91, 0.96, 0.53, 1.42, -179.77, 51.97, 54.95, 30.31, 81.47, -0.10, 2.71, -0.00, 0.00, 0.00, 2.76, -6695.68, -2756.28, -0.00, -0.00
12.863778352737427, -3.14, 0.85, 0.96, 0.53, 1.42, -179.80, 48.95, 54.95, 30.31, 81.47, -0.09, -12.64, -0.00, 0.00, 0.00, 3.96, -6741.95, -2906.35, -0.00, -0.00
12.89377737045288, -3.14, 0.81, 0.96, 0.53, 1.42, -179.82, 46.23, 54.95, 30.31, 81.47, -0.08, -11.38, -0.00, 0.00, 0.00, 4.76, 521.24, 289.38, 0.00, -0.00
12.925780296325684, -3.14, 0.76, 0.96, 0.53, 1.42, -179.84, 43.60, 54.95, 30.31, 81.47, -0.08, -11.03, -0.00, 0.00, 0.00, 4.22, 121.25, 104.18, 0.00, -0.00
12.959779739379883, -3.14, 0.72, 0.96, 0.53, 1.42, -179.85, 41.13, 54.95, 30.31, 81.47, -0.07, -10.33, -0.00, 0.00, 0.00, 3.77, 280.85, 169.64, 0.00, -0.00
12.99277639389038, -3.14, 0.68, 0.96, 0.53, 1.42, -179.87, 38.92, 54.95, 30.31, 81.47, -0.06, -9.29, -0.00, 0.00, 0.00, 3.32, 425.06, 225.48, 0.00, -0.00
13.037778854370117, -3.14, 0.64, 0.96, 0.53, 1.42, -179.88, 36.92, 54.95, 30.31, 81.47, -0.06, -8.36, -0.00, 0.00, 0.00, 2.88, 381.58, 198.25, 0.00, -0.00
13.07278037071228, -3.14, 0.61, 0.96, 0.53, 1.42, -179.89, 35.12, 54.95, 30.31, 81.47, -0.05, -7.53, -0.00, 0.00, 0.00, 2.49, 342.35, 174.45, 0.00, -0.00
13.104299783706665, -3.14, 0.58, 0.96, 0.53, 1.42, -179.90, 33.50, 54.95, 30.31, 81.47, -0.05, -6.77, -0.00, 0.00, 0.00, 2.14, 306.95, 153.58, 0.00, -0.00
13.137300729751587, -3.14, 0.56, 0.96, 0.53, 1.42, -179.91, 32.05, 54.95, 30.31, 81.47, -0.04, -6.10, -0.00, 0.00, 0.00, 1.85, 275.08, 135.30, 0.00, -0.00
13.169301271438599, -3.14, 0.54, 0.96, 0.53, 1.42, -179.92, 30.74, 54.95, 30.31, 81.47, -0.04, -5.49, -0.00, 0.00, 0.00, 1.59, 246.33, 119.20, 0.00, -0.00
13.204301834106445, -3.14, 0.52, 0.96, 0.53, 1.42, -179.93, 29.56, 54.95, 30.31, 81.47, -0.03, -4.94, -0.00, 0.00, 0.00, 1.37, 220.41, 105.02, 0.00, -0.00
13.24130129814148, -3.14, 0.50, 0.96, 0.53, 1.42, -179.94, 28.78, 54.95, 30.31, 81.47, -0.03, -3.25, -0.00, 0.00, 0.00, 1.18, 718.30, 317.41, 0.00, -0.00
13.28930139541626, -3.14, 0.47, 0.96, 0.53, 1.42, -179.94, 27.14, 54.95, 30.31, 81.47, -0.03, -6.90, 0.00, -0.00, 0.00, 0.97, -1612.89, -694.14, -0.00, -0.00
13.323302507400513, -3.14, 0.38, 0.96, 0.53, 1.42, -179.95, 21.58, 54.95, 30.31, 81.47, -0.02, -23.27, 0.00, -0.00, 0.00, 1.00, -7189.11, -3085.26, -0.01, -0.00
13.35630178451538, -3.14, 0.21, 0.96, 0.53, 1.42, -179.95, 12.32, 54.95, 30.31, 81.47, -0.02, -38.80, 0.00, -0.00, 0.00, 1.48, -6849.84, -2738.00, -0.00, -0.00
13.391303539276123, -3.14, 0.04, 0.96, 0.53, 1.42, -179.96, 2.09, 54.95, 30.31, 81.47, -0.02, -42.86, 0.00, -0.00, 0.00, 1.70, -1883.35, -202.80, -0.00, -0.00
13.425303220748901, -3.14, -0.12, 0.96, 0.53, 1.42, -179.96, -7.12, 54.95, 30.31, 81.47, -0.02, -38.57, 0.00, -0.00, 0.00, 1.31, 1752.42, 1500.36, 0.00, -0.00
13.45830249786377, -3.14, -0.27, 0.96, 0.53, 1.42, -179.97, -15.41, 54.95, 30.31, 81.47, -0.02, -34.72, 0.00, -0.00, 0.00, 0.73, 1589.97, 1287.54, 0.00, -0.00
13.493301153182983, -3.14, -0.40, 0.96, 0.53, 1.42, -179.97, -22.87, 54.95, 30.31, 81.47, -0.01, -31.24, -0.00, 0.00, 0.00, 0.31, 1441.74, 1108.00, 0.00, -0.00
13.52832841873169, -3.14, -0.52, 0.96, 0.53, 1.42, -179.97, -29.58, 54.95, 30.31, 81.47, -0.01, -28.12, -0.00, 0.00, 0.00, 0.05, 1306.82, 956.27, 0.00, -0.00
13.561312437057495, -3.14, -0.62, 0.96, 0.53, 1.42, -179.98, -35.62, 54.95, 30.31, 81.47, -0.01, -25.31, -0.00, 0.00, 0.00, -0.10, 1184.14, 827.63, 0.00, -0.00
13.599883794784546, -3.14, -0.72, 0.96, 0.53, 1.42, -179.98, -41.06, 54.95, 30.31, 81.47, -0.01, -22.78, -0.00, 0.00, 0.00, -0.17, 1072.68, 718.27, 0.00, -0.00
13.642821788787842, -3.14, -0.80, 0.96, 0.53, 1.42, -179.98, -45.96, 54.95, 30.31, 81.47, -0.01, -20.50, -0.00, 0.00, 0.00, -0.18, 971.46, 625.02, 0.00, 0.00
13.690547227859497, -3.14, -0.88, 0.96, 0.53, 1.42, -179.98, -50.36, 54.95, 30.31, 81.47, -0.01, -18.45, -0.00, 0.00, 0.00, -0.17, 879.69, 545.33, 0.00, 0.00
13.740964651107788, -3.14, -0.88, 0.96, 0.53, 1.42, -179.98, -50.63, 54.95, 30.31, 81.47, -0.01, -1.13, 0.00, -0.00, 0.00, -0.14, 7572.38, 3400.68, 0.01, 0.00
13.875413417816162, -3.14, -0.75, 0.96, 0.53, 1.42, -179.99, -43.20, 54.95, 30.31, 81.47, -0.01, 31.13, 0.00, -0.00, 0.00, 0.06, 14133.54, 6093.47, 0.01, 0.00
13.940403938293457, -3.14, -0.52, 0.96, 0.53, 1.42, -179.99, -29.88, 54.95, 30.31, 81.47, -0.01, 55.79, 0.00, -0.00, 0.00, 0.26, 10869.40, 5082.55, 0.01, 0.00
14.002432823181152, -3.14, -0.31, 0.96, 0.53, 1.42, -179.99, -17.89, 54.95, 30.31, 81.47, -0.01, 50.22, 0.00, -0.00, 0.00, 0.13, -2245.24, 304.89, -0.00, 0.00
14.12345576286316, -3.14, -0.12, 0.96, 0.53, 1.42, -179.99, -7.10, 54.95, 30.31, 81.47, -0.00, 45.19, 0.00, -0.00, 0.00, -0.09, -2042.93, 149.41, -0.00, 0.00
14.251458644866943, -3.14, 0.05, 0.96, 0.53, 1.42, -179.99, 2.61, 54.95, 30.31, 81.47, -0.00, 40.67, 0.00, -0.00, 0.00, -0.19, -1856.73, 33.25, -0.00, 0.00
14.3694589138031, -3.14, 0.20, 0.96, 0.53, 1.42, -179.99, 11.35, 54.95, 30.31, 81.47, -0.00, 36.61, 0.00, -0.00, 0.00, -0.21, -1686.37, -52.21, -0.00, 0.00
14.485456943511963, -3.14, 0.34, 0.96, 0.53, 1.42, -179.99, 19.21, 54.95, 30.31, 81.47, -0.00, 32.95, 0.00, -0.00, 0.00, -0.18, -1530.69, -113.66, -0.00, 0.00
14.594456911087036, -3.14, 0.46, 0.96, 0.53, 1.42, -179.99, 26.29, 54.95, 30.31, 81.47, -0.00, 29.65, 0.00, -0.00, 0.00, -0.13, -1388.62, -156.39, -0.00, 0.00
14.68945860862732, -3.14, 0.57, 0.96, 0.53, 1.42, -179.99, 32.66, 54.95, 30.31, 81.47, -0.00, 26.69, 0.00, -0.00, 0.00, -0.08, -1259.14, -184.71, -0.00, 0.00
14.79045557975769, -3.14, 0.67, 0.96, 0.53, 1.42, -179.99, 38.40, 54.95, 30.31, 81.47, -0.00, 24.02, 0.00, -0.00, 0.00, -0.04, -1141.25, -201.93, -0.00, 0.00
14.900455713272095, -3.14, 0.76, 0.96, 0.53, 1.42, -179.99, 43.56, 54.95, 30.31, 81.47, -0.00, 21.62, 0.00, -0.00, 0.00, -0.00, -1034.05, -210.76, -0.00, 0.00
15.018456220626831, -3.14, 0.84, 0.96, 0.53, 1.42, -180.00, 48.20, 54.95, 30.31, 81.47, -0.00, 19.45, 0.00, -0.00, 0.00, 0.02, -936.63, -213.27, -0.00, 0.00
15.140459537506104, -3.14, 0.91, 0.96, 0.53, 1.42, -180.00, 52.38, 54.95, 30.31, 81.47, -0.00, 17.51, 0.00, -0.00, 0.00, 0.04, -848.27, -211.18, -0.00, -0.00
15.281471014022827, -3.14, 0.98, 0.96, 0.53, 1.42, -180.00, 56.14, 54.95, 30.31, 81.47, -0.00, 15.76, 0.00, -0.00, 0.00, 0.05, -768.12, -205.74, -0.00, -0.00
15.432471990585327, -3.14, 1.04, 0.96, 0.53, 1.42, -180.00, 59.53, 54.95, 30.31, 81.47, -0.00, 14.18, 0.00, -0.00, 0.00, 0.05, -695.48, -197.97, -0.00, -0.00
15.581488370895386, -3.14, 1.09, 0.96, 0.53, 1.42, -180.00, 62.58, 54.95, 30.31, 81.47, -0.00, 12.76, 0.00, -0.00, 0.00, 0.06, -629.69, -188.63, -0.00, -0.00
15.739858388900757, -3.14, 1.14, 0.96, 0.53, 1.42, -180.00, 65.32, 54.95, 30.31, 81.47, -0.00, 11.49, 0.00, -0.00, 0.00, 0.05, -570.21, -178.38, -0.00, -0.00
15.935511112213135, -3.14, 1.18, 0.96, 0.53, 1.42, -180.00, 67.79, 54.95, 30.31, 81.47, -0.00, 10.34, 0.00, -0.00, 0.00, 0.05, -516.38, -167.60, -0.00, -0.00
16.112642526626587, -3.14, 1.22, 0.96, 0.53, 1.42, -180.00, 70.01, 54.95, 30.31, 81.47, -0.00, 9.30, 0.00, -0.00, 0.00, 0.05, -467.72, -156.68, -0.00, -0.00
16.286640405654907, -3.14, 1.26, 0.96, 0.53, 1.42, -180.00, 72.01, 54.95, 30.31, 81.47, -0.00, 8.37, 0.00, -0.00, 0.00, 0.04, -423.73, -145.82, -0.00, -0.00
16.453643321990967, -3.14, 1.29, 0.96, 0.53, 1.42, -180.00, 73.81, 54.95, 30.31, 81.47, -0.00, 7.54, 0.00, -0.00, 0.00, 0.04, -384.06, -135.28, -0.00, -0.00
16.49864172935486, -3.14, 1.32, 0.96, 0.53, 1.42, -180.00, 75.43, 54.95, 30.31, 81.47, -0.00, 6.78, 0.00, -0.00, 0.00, 0.04, -348.21, -125.12, -0.00, -0.00
16.543642282485962, -3.14, 1.34, 0.96, 0.53, 1.42, -180.00, 76.88, 54.95, 30.31, 81.47, -0.00, 6.10, 0.00, -0.00, 0.00, 0.03, -315.82, -115.42, -0.00, -0.00
16.597639560699463, -3.14, 1.36, 0.96, 0.53, 1.42, -180.00, 78.19, 54.95, 30.31, 81.47, -0.00, 5.49, 0.00, -0.00, 0.00, 0.03, -286.66, -106.31, -0.00, -0.00
16.65464162826538, -3.14, 1.39, 0.96, 0.53, 1.42, -180.00, 79.38, 54.95, 30.31, 81.47, -0.00, 4.95, 0.00, -0.00, 0.00, 0.03, -260.32, -97.73, -0.00, -0.00
16.71164107322693, -3.14, 1.40, 0.96, 0.53, 1.42, -180.00, 80.44, 54.95, 30.31, 81.47, -0.00, 4.45, 0.00, -0.00, 0.00, 0.02, -236.57, -89.73, -0.00, -0.00
16.77664279937744, -3.14, 1.42, 0.96, 0.53, 1.42, -180.00, 81.39, 54.95, 30.31, 81.47, -0.00, 4.01, -0.00, 0.00, 0.00, 0.02, -215.15, -82.31, -0.00, -0.00
16.845639944076538, -3.14, 1.44, 0.96, 0.53, 1.42, -180.00, 82.25, 54.95, 30.31, 81.47, -0.00, 3.60, 0.00, -0.00, 0.00, 0.02, -195.82, -75.42, -0.00, -0.00
16.92142939567566, -3.14, 1.45, 0.96, 0.53, 1.42, -180.00, 83.03, 54.95, 30.31, 81.47, -0.00, 3.24, 0.00, -0.00, 0.00, 0.02, -178.45, -69.11, -0.00, -0.00
17.00143265724182, -3.14, 1.46, 0.96, 0.53, 1.42, -180.00, 83.73, 54.95, 30.31, 81.47, -0.00, 2.92, 0.00, -0.00, 0.00, 0.01, -162.77, -63.29, -0.00, -0.00
17.055429458618164, -3.14, 1.47, 0.96, 0.53, 1.42, -180.00, 84.35, 54.95, 30.31, 81.47, -0.00, 2.63, -0.00, 0.00, 0.00, 0.01, -148.64, -57.95, -0.00, -0.00
17.109428644180298, -3.14, 1.48, 0.96, 0.53, 1.42, -180.00, 84.92, 54.95, 30.31, 81.47, -0.00, 2.37, 0.00, -0.00, 0.00, 0.01, -135.88, -53.05, -0.00, -0.00
17.167428016662598, -3.14, 1.49, 0.96, 0.53, 1.42, -180.00, 85.43, 54.95, 30.31, 81.47, -0.00, 2.13, 0.00, -0.00, 0.00, 0.01, -124.44, -48.61, -0.00, -0.00
17.216679573059082, -3.14, 1.50, 0.96, 0.53, 1.42, -180.00, 85.88, 54.95, 30.31, 81.47, -0.00, 1.92, 0.00, -0.00, 0.00, 0.01, -114.11, -44.55, -0.00, -0.00
17.265190601348877, -3.14, 1.51, 0.96, 0.53, 1.42, -180.00, 86.30, 54.95, 30.31, 81.47, -0.00, 1.72, -0.00, 0.00, 0.00, 0.01, -104.80, -40.85, -0.00, -0.00
17.315191507339478, -3.14, 1.51, 0.96, 0.53, 1.42, -180.00, 86.67, 54.95, 30.31, 81.47, -0.00, 1.55, 0.00, -0.00, 0.00, 0.01, -96.39, -37.46, -0.00, -0.00
17.370192289352417, -3.14, 1.52, 0.96, 0.53, 1.42, -180.00, 87.00, 54.95, 30.31, 81.47, -0.00, 1.40, 0.00, -0.00, 0.00, 0.01, -88.88, -34.43, -0.00, -0.00
17.419193029403687, -3.14, 1.52, 0.96, 0.53, 1.42, -180.00, 87.30, 54.95, 30.31, 81.47, -0.00, 1.26, 0.00, -0.00, 0.00, 0.01, -82.08, -31.66, -0.00, -0.00
17.465190172195435, -3.14, 1.53, 0.96, 0.53, 1.42, -180.00, 87.57, 54.95, 30.31, 81.47, -0.00, 1.13, -0.00, 0.00, 0.00, 0.01, -75.96, -29.14, -0.00, -0.00
17.510190725326538, -3.14, 1.53, 0.96, 0.53, 1.42, -180.00, 87.81, 54.95, 30.31, 81.47, -0.00, 1.02, -0.00, 0.00, 0.00, 0.00, -70.45, -26.86, -0.00, -0.00
17.555192232131958, -3.14, 1.54, 0.96, 0.53, 1.42, -180.00, 88.03, 54.95, 30.31, 81.47, -0.00, 0.92, 0.00, -0.00, 0.00, 0.00, -65.46, -24.78, -0.00, -0.00
17.597206592559814, -3.14, 1.54, 0.96, 0.53, 1.42, -180.00, 88.23, 54.95, 30.31, 81.47, -0.00, 0.82, 0.00, -0.00, 0.00, 0.00, -61.02, -22.94, -0.00, -0.00
17.64220380783081, -3.14, 1.54, 0.96, 0.53, 1.42, -180.00, 88.41, 54.95, 30.31, 81.47, -0.00, 0.74, 0.00, -0.00, 0.00, 0.00, -57.00, -21.25, -0.00, -0.00
17.688968181610107, -3.14, 1.55, 0.96, 0.53, 1.42, -180.00, 88.56, 54.95, 30.31, 81.47, -0.00, 0.67, -0.00, 0.00, 0.00, 0.00, -53.38, -19.73, -0.00, -0.00
17.73442506790161, -3.14, 1.55, 0.96, 0.53, 1.42, -180.00, 88.71, 54.95, 30.31, 81.47, -0.00, 0.60, -0.00, 0.00, 0.00, 0.00, -50.12, -18.35, -0.00, -0.00
17.77542519569397, -3.14, 1.55, 0.96, 0.53, 1.42, -180.00, 88.84, 54.95, 30.31, 81.47, -0.00, 0.54, -0.00, 0.00, 0.00, 0.00, -47.18, -17.11, -0.00, -0.00
17.823426485061646, -3.14, 1.55, 0.96, 0.53, 1.42, -180.00, 88.95, 54.95, 30.31, 81.47, -0.00, 0.49, 0.00, -0.00, 0.00, 0.00, -44.51, -15.97, -0.00, -0.00
17.870425939559937, -3.14, 1.55, 0.96, 0.53, 1.42, -180.00, 89.06, 54.95, 30.31, 81.47, -0.00, 0.44, 0.00, -0.00, 0.00, 0.00, -42.17, -14.98, -0.00, -0.00
17.913426399230957, -3.14, 1.56, 0.96, 0.53, 1.42, -180.00, 89.15, 54.95, 30.31, 81.47, -0.00, 0.39, 0.00, -0.00, 0.00, 0.00, -40.03, -14.06, -0.00, -0.00
17.954297304153442, -3.14, 1.56, 0.96, 0.53, 1.42, -180.00, 89.24, 54.95, 30.31, 81.47, -0.00, 0.36, 0.00, -0.00, 0.00, 0.00, -38.10, -13.24, -0.00, -0.00
17.991296768188477, -3.14, 1.56, 0.96, 0.53, 1.42, -180.00, 89.31, 54.95, 30.31, 81.47, -0.00, 0.32, -0.00, 0.00, 0.00, 0.00, -36.36, -12.49, -0.00, -0.00
18.03029727935791, -3.14, 1.56, 0.96, 0.53, 1.42, -180.00, 89.38, 54.95, 30.31, 81.47, -0.00, 0.29, -0.00, 0.00, 0.00, 0.00, -34.80, -11.82, -0.00, -0.00
18.069517850875854, -3.14, 1.56, 0.96, 0.53, 1.42, -180.00, 89.44, 54.95, 30.31, 81.47, -0.00, 0.26, -0.00, 0.00, 0.00, 0.00, -33.40, -11.22, -0.00, -0.00
18.107622146606445, -3.14, 1.56, 0.96, 0.53, 1.42, -180.00, 89.50, 54.95, 30.31, 81.47, -0.00, 0.23, -0.00, 0.00, 0.00, 0.00, -32.13, -10.68, -0.00, -0.00
18.148736238479614, -3.14, 1.56, 0.96, 0.53, 1.42, -180.00, 89.55, 54.95, 30.31, 81.47, -0.00, 0.21, 0.00, -0.00, 0.00, 0.00, -30.96, -10.17, -0.00, -0.00
18.19010639190674, -3.14, 1.56, 0.96, 0.53, 1.42, -180.00, 89.59, 54.95, 30.31, 81.47, -0.00, 0.19, 0.00, -0.00, 0.00, 0.00, -29.97, -9.74, -0.00, -0.00
18.226108074188232, -3.14, 1.56, 0.96, 0.53, 1.42, -180.00, 89.64, 54.95, 30.31, 81.47, -0.00, 0.17, 0.00, -0.00, 0.00, 0.00, -29.05, -9.35, -0.00, -0.00
18.273106336593628, -3.14, 1.57, 0.96, 0.53, 1.42, -180.00, 89.67, 54.95, 30.31, 81.47, -0.00, 0.15, 0.00, -0.00, 0.00, 0.00, -28.22, -8.99, -0.00, -0.00
18.31110906600952, -3.14, 1.57, 0.96, 0.53, 1.42, -180.00, 89.70, 54.95, 30.31, 81.47, -0.00, 0.14, 0.00, -0.00, 0.00, 0.00, -27.47, -8.66, -0.00, -0.00
18.34510564804077, -3.14, 1.57, 0.96, 0.53, 1.42, -180.00, 89.73, 54.95, 30.31, 81.47, -0.00, 0.12, 0.00, -0.00, 0.00, 0.00, -26.80, -8.37, -0.00, -0.00
18.379105806350708, -3.14, 1.57, 0.96, 0.53, 1.42, -180.00, 89.76, 54.95, 30.31, 81.47, -0.00, 0.11, -0.00, 0.00, 0.00, 0.00, -26.19, -8.11, -0.00, -0.00
18.413109064102173, -3.14, 1.57, 0.96, 0.53, 1.42, -180.00, 89.78, 54.95, 30.31, 81.47, -0.00, 0.10, -0.00, 0.00, 0.00, 0.00, -25.65, -7.87, -0.00, -0.00
18.447108268737793, -3.14, 1.57, 0.96, 0.53, 1.42, -180.00, 89.81, 54.95, 30.31, 81.47, -0.00, 0.09, -0.00, 0.00, 0.00, 0.00, -25.16, -7.66, -0.00, -0.00
18.482109546661377, -3.14, 1.57, 0.96, 0.53, 1.42, -180.00, 89.83, 54.95, 30.31, 81.47, -0.00, 0.08, -0.00, 0.00, 0.00, 0.00, -24.72, -7.47, -0.00, -0.00
18.521105766296387, -3.14, 1.57, 0.96, 0.53, 1.42, -180.00, 89.84, 54.95, 30.31, 81.47, -0.00, 0.07, -0.00, 0.00, 0.00, 0.00, -24.32, -7.30, -0.00, -0.00
18.559353828430176, -3.14, 1.57, 0.96, 0.53, 1.42, -180.00, 89.86, 54.95, 30.31, 81.47, -0.00, 0.07, -0.00, 0.00, 0.00, 0.00, -23.96, -7.14, -0.00, -0.00
18.59335160255432, -3.14, 1.57, 0.96, 0.53, 1.42, -180.00, 89.87, 54.95, 30.31, 81.47, -0.00, 0.06, -0.00, 0.00, 0.00, 0.00, -23.64, -7.00, -0.00, -0.00
18.627352237701416, -3.14, 1.57, 0.96, 0.53, 1.42, -180.00, 89.89, 54.95, 30.31, 81.47, -0.00, 0.05, -0.00, 0.00, 0.00, 0.00, -23.35, -6.88, -0.00, -0.00
18.663120985031128, -3.14, 1.57, 0.96, 0.53, 1.42, -180.00, 89.90, 54.95, 30.31, 81.47, -0.00, 0.05, -0.00, 0.00, 0.00, 0.00, -23.09, -6.76, -0.00, -0.00
18.699111700057983, -3.14, 1.57, 0.96, 0.53, 1.42, -180.00, 89.91, 54.95, 30.31, 81.47, -0.00, 0.04, -0.00, 0.00, 0.00, 0.00, -22.85, -6.66, -0.00, -0.00
18.73311185836792, -3.14, 1.57, 0.96, 0.53, 1.42, -180.00, 89.82, 54.95, 30.31, 81.47, -0.00, -0.36, 0.00, -0.00, 0.00, 0.00, -196.38, -81.53, -0.00, -0.00
18.767112016677856, -3.14, 1.57, 0.96, 0.53, 1.42, -180.00, 89.75, 54.95, 30.31, 81.47, -0.00, -0.32, -0.00, 0.00, 0.00, 0.00, -5.14, 1.02, 0.00, -0.00
18.80211043357849, -3.14, 1.56, 0.96, 0.53, 1.42, -180.00, 89.30, 54.95, 30.31, 81.47, -0.00, -1.88, -0.00, 0.00, 0.00, 0.00, -701.71, -299.55, -0.00, -0.00
18.846113204956055, -3.14, 1.54, 0.96, 0.53, 1.42, -180.00, 88.14, 54.95, 30.31, 81.47, -0.00, -4.86, 0.00, -0.00, 0.00, 0.00, -1328.97, -568.84, -0.00, -0.00
18.883596658706665, -3.14, 1.52, 0.96, 0.53, 1.42, -180.00, 86.81, 54.95, 30.31, 81.47, -0.00, -5.57, -0.00, 0.00, 0.00, 0.00, -331.08, -130.16, -0.00, -0.00
18.9205961227417, -3.14, 1.49, 0.96, 0.53, 1.42, -180.00, 85.52, 54.95, 30.31, 81.47, -0.00, -5.41, -0.00, 0.00, 0.00, 0.00, 46.46, 35.60, 0.00, -0.00
18.954704999923706, -3.14, 1.47, 0.96, 0.53, 1.42, -180.00, 84.35, 54.95, 30.31, 81.47, -0.00, -4.87, -0.00, 0.00, 0.00, 0.00, 213.28, 106.78, 0.00, -0.00
18.991702556610107, -3.14, 1.45, 0.96, 0.53, 1.42, -180.00, 83.31, 54.95, 30.31, 81.47, -0.00, -4.38, -0.00, 0.00, 0.00, 0.00, 189.89, 94.33, 0.00, -0.00
19.0297269821167, -3.14, 1.44, 0.96, 0.53, 1.42, -180.00, 82.37, 54.95, 30.31, 81.47, -0.00, -3.94, -0.00, 0.00, 0.00, 0.00, 168.78, 83.30, 0.00, -0.00
19.069737911224365, -3.14, 1.42, 0.96, 0.53, 1.42, -180.00, 81.52, 54.95, 30.31, 81.47, -0.00, -3.55, -0.00, 0.00, 0.00, 0.00, 149.76, 73.52, 0.00, -0.00
19.10972833633423, -3.14, 1.41, 0.96, 0.53, 1.42, -180.00, 80.76, 54.95, 30.31, 81.47, -0.00, -3.19, -0.00, 0.00, 0.00, 0.00, 132.60, 64.83, 0.00, -0.00
19.145413398742676, -3.14, 1.40, 0.96, 0.53, 1.42, -180.00, 80.07, 54.95, 30.31, 81.47, -0.00, -2.87, -0.00, 0.00, 0.00, 0.00, 117.20, 57.15, 0.00, -0.00
19.184303522109985, -3.14, 1.39, 0.96, 0.53, 1.42, -180.00, 79.36, 54.95, 30.31, 81.47, -0.00, -2.98, 0.00, -0.00, 0.00, 0.00, -70.31, -24.58, -0.00, -0.00
19.221304178237915, -3.14, 1.37, 0.96, 0.53, 1.42, -180.00, 78.72, 54.95, 30.31, 81.47, -0.00, -2.69, -0.00, 0.00, 0.00, 0.00, 107.83, 52.42, 0.00, -0.00
19.25930404663086, -3.14, 1.36, 0.96, 0.53, 1.42, -180.00, 78.14, 54.95, 30.31, 81.47, -0.00, -2.42, -0.00, 0.00, 0.00, 0.00, 94.98, 46.15, 0.00, -0.00
19.30242395401001, -3.14, 1.35, 0.96, 0.53, 1.42, -180.00, 77.62, 54.95, 30.31, 81.47, -0.00, -2.18, -0.00, 0.00, 0.00, 0.00, 83.32, 40.52, 0.00, -0.00
19.343421697616577, -3.14, 1.35, 0.96, 0.53, 1.42, -180.00, 77.15, 54.95, 30.31, 81.47, -0.00, -1.96, -0.00, 0.00, 0.00, 0.00, 72.79, 35.47, 0.00, -0.00
19.390937328338623, -3.14, 1.34, 0.96, 0.53, 1.42, -180.00, 76.73, 54.95, 30.31, 81.47, -0.00, -1.76, -0.00, 0.00, 0.00, 0.00, 63.27, 30.95, 0.00, -0.00
19.437453746795654, -3.14, 1.33, 0.96, 0.53, 1.42, -180.00, 76.35, 54.95, 30.31, 81.47, -0.00, -1.59, -0.00, 0.00, 0.00, 0.00, 54.77, 26.96, 0.00, -0.00
19.481452226638794, -3.14, 1.33, 0.96, 0.53, 1.42, -180.00, 76.01, 54.95, 30.31, 81.47, -0.00, -1.43, -0.00, 0.00, 0.00, 0.00, 47.08, 23.36, 0.00, -0.00
19.52496647834778, -3.14, 1.32, 0.96, 0.53, 1.42, -180.00, 75.71, 54.95, 30.31, 81.47, -0.00, -1.28, -0.00, 0.00, 0.00, 0.00, 40.13, 20.13, 0.00, -0.00
19.56749176979065, -3.14, 1.32, 0.96, 0.53, 1.42, -180.00, 75.43, 54.95, 30.31, 81.47, -0.00, -1.16, -0.00, 0.00, 0.00, 0.00, 33.93, 17.28, 0.00, -0.00
19.609493017196655, -3.14, 1.31, 0.96, 0.53, 1.42, -180.00, 75.18, 54.95, 30.31, 81.47, -0.00, -1.04, -0.00, 0.00, 0.00, 0.00, 28.30, 14.68, 0.00, -0.00
19.65001630783081, -3.14, 1.31, 0.96, 0.53, 1.42, -180.00, 74.96, 54.95, 30.31, 81.47, -0.00, -0.94, -0.00, 0.00, 0.00, 0.00, 23.28, 12.40, 0.00, -0.00
19.68701672554016, -3.14, 1.30, 0.96, 0.53, 1.42, -180.00, 74.76, 54.95, 30.31, 81.47, -0.00, -0.84, -0.00, 0.00, 0.00, 0.00, 18.70, 10.32, 0.00, -0.00
19.720537662506104, -3.14, 1.30, 0.96, 0.53, 1.42, -180.00, 74.58, 54.95, 30.31, 81.47, -0.00, -0.76, -0.00, 0.00, 0.00, 0.00, 14.65, 8.48, 0.00, -0.00
19.755534887313843, -3.14, 1.30, 0.96, 0.53, 1.42, -180.00, 74.41, 54.95, 30.31, 81.47, -0.00, -0.68, -0.00, 0.00, 0.00, 0.00, 10.94, 6.81, 0.00, -0.00
19.78953528404236, -3.14, 1.30, 0.96, 0.53, 1.42, -180.00, 74.27, 54.95, 30.31, 81.47, -0.00, -0.61, -0.00, 0.00, 0.00, 0.00, 7.63, 5.32, 0.00, -0.00
19.822537422180176, -3.14, 1.29, 0.96, 0.53, 1.42, -180.00, 74.14, 54.95, 30.31, 81.47, -0.00, -0.55, -0.00, 0.00, 0.00, 0.00, 4.65, 3.99, 0.00, -0.00
19.85654091835022, -3.14, 1.29, 0.96, 0.53, 1.42, -180.00, 74.02, 54.95, 30.31, 81.47, -0.00, -0.50, -0.00, 0.00, 0.00, 0.00, 1.93, 2.77, 0.00, -0.00
19.891536951065063, -3.14, 1.29, 0.96, 0.53, 1.42, -180.00, 73.82, 54.95, 30.31, 81.47, -0.00, -0.84, 0.00, -0.00, 0.00, 0.00, -174.04, -73.16, -0.00, -0.00
19.928046941757202, -3.14, 1.29, 0.96, 0.53, 1.42, -180.00, 73.63, 54.95, 30.31, 81.47, -0.00, -0.76, -0.00, 0.00, 0.00, 0.00, 14.52, 8.31, 0.00, -0.00
19.963048934936523, -3.14, 1.28, 0.96, 0.53, 1.42, -180.00, 73.47, 54.95, 30.31, 81.47, -0.00, -0.68, -0.00, 0.00, 0.00, 0.00, 10.98, 6.74, 0.00, -0.00
19.997562885284424, -3.14, 1.28, 0.96, 0.53, 1.42, -180.00, 73.23, 54.95, 30.31, 81.47, -0.00, -1.01, 0.00, -0.00, 0.00, 0.00, -165.94, -69.63, -0.00, -0.00
20.03356170654297, -3.14, 1.27, 0.96, 0.53, 1.42, -180.00, 73.01, 54.95, 30.31, 81.47, -0.00, -0.91, -0.00, 0.00, 0.00, 0.00, 21.83, 11.53, 0.00, -0.00
20.067561864852905, -3.14, 1.26, 0.96, 0.53, 1.42, -180.00, 72.15, 54.95, 30.31, 81.47, -0.00, -3.60, 0.00, -0.00, 0.00, 0.00, -1198.56, -515.08, -0.00, -0.00
20.10156226158142, -3.14, 1.23, 0.96, 0.53, 1.42, -180.00, 70.72, 54.95, 30.31, 81.47, -0.00, -6.02, 0.00, -0.00, 0.00, 0.00, -1082.04, -459.98, -0.00, -0.00
20.13656258583069, -3.14, 1.20, 0.96, 0.53, 1.42, -180.00, 68.95, 54.95, 30.31, 81.47, -0.00, -7.40, 0.00, -0.00, 0.00, 0.00, -630.26, -255.70, -0.00, -0.00
20.174813508987427, -3.14, 1.17, 0.96, 0.53, 1.42, -180.00, 66.89, 54.95, 30.31, 81.47, -0.00, -8.64, 0.00, -0.00, 0.00, 0.00, -571.00, -222.75, -0.00, -0.00
20.211543321609497, -3.14, 1.12, 0.96, 0.53, 1.42, -180.00, 64.27, 54.95, 30.31, 81.47, -0.00, -10.95, 0.00, -0.00, 0.00, 0.00, -1039.07, -416.77, -0.00, -0.00
20.24911117553711, -3.14, 1.07, 0.96, 0.53, 1.42, -180.00, 61.16, 54.95, 30.31, 81.47, -0.00, -13.03, 0.00, -0.00, 0.00, 0.00, -940.74, -356.14, -0.00, -0.00
20.284215211868286, -3.14, 1.01, 0.96, 0.53, 1.42, -180.00, 57.70, 54.95, 30.31, 81.47, -0.00, -14.51, 0.00, -0.00, 0.00, 0.00, -679.04, -223.19, -0.00, -0.00
20.317658185958862, -3.14, 0.94, 0.96, 0.53, 1.42, -180.00, 53.63, 54.95, 30.31, 81.47, -0.00, -17.02, 0.00, -0.00, 0.00, 0.00, -1138.12, -405.07, -0.00, -0.00
20.3541157245636, -3.14, 0.86, 0.96, 0.53, 1.42, -180.00, 49.03, 54.95, 30.31, 81.47, -0.00, -19.29, 0.00, -0.00, 0.00, 0.00, -1032.53, -327.55, -0.00, -0.00
20.390448331832886, -3.14, 0.76, 0.96, 0.53, 1.42, -180.00, 43.75, 54.95, 30.31, 81.47, -0.00, -22.12, 0.00, -0.00, 0.00, 0.00, -1285.45, -403.58, -0.00, -0.00
20.421446561813354, -3.14, 0.67, 0.96, 0.53, 1.42, -180.00, 38.23, 54.95, 30.31, 81.47, -0.00, -23.09, 0.00, -0.00, 0.00, 0.00, -473.02, -5.73, -0.00, -0.00
20.455448150634766, -3.14, 0.57, 0.96, 0.53, 1.42, -180.00, 32.71, 54.95, 30.31, 81.47, -0.00, -23.16, 0.00, -0.00, 0.00, 0.00, -85.08, 178.87, -0.00, -0.00
20.50544834136963, -3.14, 0.48, 0.96, 0.53, 1.42, -180.00, 27.45, 54.95, 30.31, 81.47, -0.00, -22.03, -0.00, 0.00, 0.00, 0.00, 440.11, 406.30, 0.00, -0.00
20.545960903167725, -3.14, 0.39, 0.96, 0.53, 1.42, -180.00, 22.24, 54.95, 30.31, 81.47, -0.00, -21.81, -0.00, 0.00, 0.00, 0.00, 47.98, 215.95, 0.00, -0.00
20.578962802886963, -3.14, 0.30, 0.96, 0.53, 1.42, -180.00, 17.27, 54.95, 30.31, 81.47, -0.00, -20.82, -0.00, 0.00, 0.00, 0.00, 387.85, 358.24, 0.00, -0.00
20.613965034484863, -3.14, 0.21, 0.96, 0.53, 1.42, -180.00, 12.13, 54.95, 30.31, 81.47, -0.00, -21.52, 0.00, -0.00, 0.00, 0.00, -346.27, 23.88, -0.00, -0.00
20.647488355636597, -3.14, 0.12, 0.96, 0.53, 1.42, -180.00, 6.94, 54.95, 30.31, 81.47, -0.00, -21.75, 0.00, -0.00, 0.00, 0.00, -142.43, 123.43, -0.00, -0.00
20.68249011039734, -3.14, 0.03, 0.96, 0.53, 1.42, -180.00, 1.79, 54.95, 30.31, 81.47, -0.00, -21.56, -0.00, 0.00, 0.00, 0.00, 42.26, 206.76, 0.00, -0.00
20.722488164901733, -3.14, -0.06, 0.96, 0.53, 1.42, -180.00, -3.60, 54.95, 30.31, 81.47, -0.00, -22.58, 0.00, -0.00, 0.00, 0.00, -484.68, -24.21, -0.00, -0.00
20.756486654281616, -3.14, -0.16, 0.96, 0.53, 1.42, -180.00, -9.30, 54.95, 30.31, 81.47, -0.00, -23.89, 0.00, -0.00, 0.00, 0.00, -614.80, -62.36, -0.00, -0.00
20.790487051010132, -3.14, -0.26, 0.96, 0.53, 1.42, -180.00, -15.00, 54.95, 30.31, 81.47, -0.00, -23.88, 0.00, -0.00, 0.00, 0.00, -37.72, 211.26, -0.00, -0.00
20.82648754119873, -3.14, -0.36, 0.96, 0.53, 1.42, -180.00, -20.61, 54.95, 30.31, 81.47, -0.00, -23.48, -0.00, 0.00, 0.00, 0.00, 137.74, 286.56, 0.00, -0.00
20.861006498336792, -3.14, -0.46, 0.96, 0.53, 1.42, -180.00, -26.32, 54.95, 30.31, 81.47, -0.00, -23.91, 0.00, -0.00, 0.00, 0.00, -223.77, 122.70, -0.00, -0.00
20.89452314376831, -3.14, -0.56, 0.96, 0.53, 1.42, -180.00, -32.02, 54.95, 30.31, 81.47, -0.00, -23.90, 0.00, -0.00, 0.00, -0.00, -30.36, 214.31, -0.00, -0.00
20.93303918838501, -3.14, -0.66, 0.96, 0.53, 1.42, -180.00, -37.53, 54.95, 30.31, 81.47, -0.00, -23.10, -0.00, 0.00, 0.00, -0.00, 318.75, 364.67, 0.00, -0.00
20.975037336349487, -3.14, -0.75, 0.96, 0.53, 1.42, -180.00, -42.78, 54.95, 30.31, 81.47, -0.00, -21.98, -0.00, 0.00, 0.00, -0.00, 461.94, 411.11, 0.00, -0.00
21.01685118675232, -3.14, -0.83, 0.96, 0.53, 1.42, -180.00, -47.50, 54.95, 30.31, 81.47, -0.00, -19.78, -0.00, 0.00, 0.00, -0.00, 939.31, 596.59, 0.00, 0.00
21.063549518585205, -3.14, -0.90, 0.96, 0.53, 1.42, -180.00, -51.75, 54.95, 30.31, 81.47, -0.00, -17.80, -0.00, 0.00, 0.00, -0.00, 850.52, 520.95, 0.00, 0.00
21.11654829978943, -3.14, -0.97, 0.96, 0.53, 1.42, -180.00, -55.58, 54.95, 30.31, 81.47, -0.00, -16.02, -0.00, 0.00, 0.00, -0.00, 770.05, 456.04, 0.00, 0.00
21.16980266571045, -3.14, -1.03, 0.96, 0.53, 1.42, -180.00, -59.02, 54.95, 30.31, 81.47, -0.00, -14.42, -0.00, 0.00, 0.00, -0.00, 697.16, 400.17, 0.00, 0.00
21.2321195602417, -3.14, -1.08, 0.96, 0.53, 1.42, -180.00, -62.12, 54.95, 30.31, 81.47, -0.00, -12.98, -0.00, 0.00, 0.00, -0.00, 631.16, 351.94, 0.00, 0.00
21.285117864608765, -3.14, -1.13, 0.96, 0.53, 1.42, -180.00, -64.91, 54.95, 30.31, 81.47, -0.00, -11.68, -0.00, 0.00, 0.00, -0.00, 571.51, 310.24, 0.00, 0.00
21.343642473220825, -3.14, -1.18, 0.96, 0.53, 1.42, -180.00, -67.42, 54.95, 30.31, 81.47, -0.00, -10.51, -0.00, 0.00, 0.00, -0.00, 517.54, 274.04, 0.00, 0.00
21.407641410827637, -3.14, -1.22, 0.96, 0.53, 1.42, -180.00, -69.67, 54.95, 30.31, 81.47, -0.00, -9.46, -0.00, 0.00, 0.00, 0.00, 468.76, 242.55, 0.00, 0.00
21.46563959121704, -3.14, -1.25, 0.96, 0.53, 1.42, -180.00, -71.71, 54.95, 30.31, 81.47, -0.00, -8.51, -0.00, 0.00, 0.00, 0.00, 424.66, 215.09, 0.00, 0.00
21.523159980773926, -3.14, -1.28, 0.96, 0.53, 1.42, -180.00, -73.54, 54.95, 30.31, 81.47, -0.00, -7.66, -0.00, 0.00, 0.00, 0.00, 384.89, 191.12, 0.00, 0.00
21.595810651779175, -3.14, -1.30, 0.96, 0.53, 1.42, -180.00, -74.42, 54.95, 30.31, 81.47, -0.00, -3.72, 0.00, -0.00, 0.00, 0.00, 1738.93, 769.88, 0.00, 0.00
21.851800680160522, -3.14, -1.23, 0.96, 0.53, 1.42, -180.00, -70.39, 54.95, 30.31, 81.47, -0.00, 16.89, 0.00, -0.00, 0.00, 0.00, 9040.48, 3902.12, 0.01, 0.00
21.898799657821655, -3.14, -0.97, 0.96, 0.53, 1.42, -180.00, -55.59, 54.95, 30.31, 81.47, -0.00, 62.02, 0.00, -0.00, 0.00, 0.00, 19797.92, 8655.08, 0.01, 0.00
21.95380139350891, -3.14, -0.72, 0.96, 0.53, 1.42, -180.00, -41.22, 54.95, 30.31, 81.47, -0.00, 60.19, 0.00, -0.00, 0.00, 0.00, -551.90, 1337.61, -0.00, 0.00
22.013351440429688, -3.14, -0.49, 0.96, 0.53, 1.42, -180.00, -28.10, 54.95, 30.31, 81.47, -0.00, 54.96, 0.00, -0.00, 0.00, 0.00, -2055.40, 596.38, -0.00, 0.00
22.085351705551147, -3.14, -0.28, 0.96, 0.53, 1.42, -180.00, -16.29, 54.95, 30.31, 81.47, -0.00, 49.47, 0.00, -0.00, 0.00, 0.00, -2216.11, 279.77, -0.00, 0.00
22.218347787857056, -3.14, -0.10, 0.96, 0.53, 1.42, -180.00, -5.66, 54.95, 30.31, 81.47, -0.00, 44.52, 0.00, -0.00, 0.00, -0.00, -2015.41, 130.72, -0.00, 0.00
22.343348503112793, -3.14, 0.07, 0.96, 0.53, 1.42, -180.00, 3.91, 54.95, 30.31, 81.47, -0.00, 40.07, 0.00, -0.00, 0.00, -0.00, -1831.54, 19.39, -0.00, 0.00
22.454349517822266, -3.14, 0.22, 0.96, 0.53, 1.42, -180.00, 12.52, 54.95, 30.31, 81.47, -0.00, 36.06, 0.00, -0.00, 0.00, -0.00, -1663.33, -62.29, -0.00, 0.00
22.562098264694214, -3.14, 0.35, 0.96, 0.53, 1.42, -180.00, 20.27, 54.95, 30.31, 81.47, -0.00, 32.46, 0.00, -0.00, 0.00, -0.00, -1509.66, -120.77, -0.00, 0.00
22.673301458358765, -3.14, 0.48, 0.96, 0.53, 1.42, -180.00, 27.24, 54.95, 30.31, 81.47, -0.00, 29.21, 0.00, -0.00, 0.00, -0.00, -1369.44, -161.21, -0.00, 0.00
22.780304431915283, -3.14, 0.58, 0.96, 0.53, 1.42, -180.00, 33.52, 54.95, 30.31, 81.47, -0.00, 26.29, 0.00, -0.00, 0.00, -0.00, -1241.67, -187.77, -0.00, 0.00
22.885312795639038, -3.14, 0.68, 0.96, 0.53, 1.42, -180.00, 39.16, 54.95, 30.31, 81.47, -0.00, 23.66, 0.00, -0.00, 0.00, -0.00, -1125.36, -203.65, -0.00, 0.00
22.98631525039673, -3.14, 0.77, 0.96, 0.53, 1.42, -180.00, 44.25, 54.95, 30.31, 81.47, -0.00, 21.29, 0.00, -0.00, 0.00, 0.00, -1019.60, -211.46, -0.00, 0.00
23.097313165664673, -3.14, 0.85, 0.95, 0.53, 1.42, -180.00, 48.82, 54.57, 30.31, 81.47, -0.00, 19.16, -1.59, -0.00, 0.00, 0.00, -1223.34, -403.66, -0.00, 0.00
23.233312845230103, -3.14, 0.92, 0.90, 0.53, 1.42, -180.00, 52.94, 51.76, 30.31, 81.47, -0.00, 17.25, -11.75, 0.00, 0.00, 0.00, -2742.43, -1432.51, -0.00, -0.00
23.265313863754272, -3.14, 0.99, 0.80, 0.53, 1.42, -180.00, 56.65, 46.02, 30.31, 81.47, -0.00, 15.52, -24.06, 0.00, 0.00, 0.00, -3072.91, -1702.21, -0.00, -0.00
23.295313596725464, -3.14, 1.05, 0.70, 0.53, 1.42, -180.00, 59.98, 40.19, 30.31, 81.47, -0.00, 13.97, -24.44, 0.00, 0.00, 0.00, -758.92, -283.01, -0.00, -0.00
23.332594871520996, -3.14, 1.10, 0.60, 0.53, 1.42, -180.00, 62.98, 34.65, 30.31, 81.47, -0.00, 12.58, -23.18, 0.00, 0.00, 0.00, -403.23, -92.12, -0.00, -0.00
23.363592386245728, -3.14, 1.15, 0.51, 0.53, 1.42, -180.00, 65.69, 29.20, 30.31, 81.47, -0.00, 11.32, -22.85, 0.00, 0.00, 0.00, -559.96, -199.24, -0.00, -0.00
23.395593881607056, -3.14, 1.19, 0.42, 0.53, 1.42, -180.00, 68.12, 23.81, 30.31, 81.47, -0.00, 10.19, -22.55, 0.00, 0.00, 0.00, -531.03, -196.20, -0.00, -0.00
23.426594734191895, -3.14, 1.23, 0.33, 0.53, 1.42, -180.00, 70.31, 18.78, 30.31, 81.47, -0.00, 9.17, -21.09, 0.00, 0.00, 0.00, -228.27, -48.56, 0.00, -0.00
23.45659852027893, -3.14, 1.26, 0.25, 0.53, 1.42, -180.00, 72.28, 14.06, 30.31, 81.47, -0.00, 8.26, -19.77, 0.00, 0.00, 0.00, -208.02, -52.42, 0.00, -0.00
23.48759627342224, -3.14, 1.29, 0.17, 0.53, 1.42, -180.00, 74.06, 9.53, 30.31, 81.47, -0.00, 7.44, -18.98, 0.00, 0.00, 0.00, -281.34, -100.63, -0.00, -0.00
23.51759624481201, -3.14, 1.32, 0.09, 0.53, 1.42, -180.00, 75.66, 5.16, 30.31, 81.47, -0.00, 6.70, -18.28, 0.00, 0.00, 0.00, -259.93, -97.28, -0.00, -0.00
23.551595211029053, -3.14, 1.35, 0.01, 0.53, 1.42, -180.00, 77.10, 0.76, 30.31, 81.47, -0.00, 6.05, -18.43, 0.00, 0.00, 0.00, -417.42, -183.00, -0.00, -0.00
23.592596769332886, -3.14, 1.37, -0.06, 0.53, 1.42, -180.00, 78.40, -3.48, 30.31, 81.47, -0.00, 5.42, -17.78, 0.00, 0.00, 0.00, -206.35, -81.52, 0.00, -0.00
23.62959337234497, -3.14, 1.39, -0.13, 0.53, 1.42, -180.00, 79.56, -7.59, 30.31, 81.47, -0.00, 4.88, -17.19, 0.00, 0.00, 0.00, -175.39, -71.59, 0.00, -0.00
23.679595470428467, -3.14, 1.41, -0.20, 0.53, 1.42, -180.00, 80.60, -11.37, 30.31, 81.47, -0.00, 4.37, -15.87, 0.00, 0.00, 0.00, 25.83, 25.58, 0.00, -0.00
23.73359704017639, -3.14, 1.42, -0.26, 0.53, 1.42, -180.00, 81.55, -15.07, 30.31, 81.47, -0.00, 3.95, -15.47, 0.00, 0.00, 0.00, -146.51, -64.91, -0.00, -0.00
23.78859305381775, -3.14, 1.44, -0.33, 0.53, 1.42, -180.00, 82.40, -18.77, 30.31, 81.47, -0.00, 3.56, -15.51, 0.00, 0.00, 0.00, -227.82, -109.14, -0.00, -0.00
23.842596530914307, -3.14, 1.45, -0.39, 0.53, 1.42, -180.00, 83.16, -22.30, 30.31, 81.47, -0.00, 3.19, -14.76, 0.00, 0.00, 0.00, -21.96, -7.16, 0.00, -0.00
23.897595167160034, -3.14, 1.46, -0.44, 0.53, 1.42, -180.00, 83.84, -25.47, 30.31, 81.47, -0.00, 2.86, -13.28, 0.00, 0.00, 0.00, 169.05, 90.24, 0.00, -0.00
23.95463991165161, -3.14, 1.47, -0.50, 0.53, 1.42, -180.00, 84.45, -28.41, 30.31, 81.47, -0.00, 2.58, -12.35, 0.00, 0.00, 0.00, 63.87, 36.37, 0.00, -0.00
24.023640394210815, -3.14, 1.48, -0.54, 0.53, 1.42, -180.00, 85.01, -31.07, 30.31, 81.47, -0.00, 2.32, -11.11, 0.00, 0.00, 0.00, 142.88, 79.20, 0.00, -0.00
24.086637496948242, -3.14, 1.49, -0.61, 0.53, 1.42, -180.00, 85.51, -34.69, 30.31, 81.47, -0.00, 2.10, -15.16, 0.00, 0.00, 0.00, -1016.40, -543.89, -0.00, -0.00
24.148151397705078, -3.14, 1.50, -0.67, 0.53, 1.42, -180.00, 85.96, -38.61, 30.31, 81.47, -0.00, 1.88, -16.42, 0.00, 0.00, 0.00, -363.84, -210.24, -0.00, -0.00
24.21414875984192, -3.14, 1.51, -0.75, 0.53, 1.42, -180.00, 86.37, -42.89, 30.31, 81.47, -0.00, 1.69, -17.96, 0.00, 0.00, 0.00, -380.84, -234.85, -0.00, -0.00
24.28114938735962, -3.14, 1.51, -0.83, 0.53, 1.42, -180.00, 86.73, -47.51, 30.31, 81.47, -0.00, 1.52, -19.33, 0.00, 0.00, 0.00, -304.91, -211.34, -0.00, -0.00
24.364149570465088, -3.14, 1.52, -0.90, 0.53, 1.42, -180.00, 87.06, -51.76, 30.31, 81.47, -0.00, 1.37, -17.80, 0.00, 0.00, 0.00, 327.86, 143.26, 0.00, -0.00
24.442148685455322, -3.14, 1.52, -0.97, 0.53, 1.42, -180.00, 87.35, -55.58, 30.31, 81.47, -0.00, 1.23, -16.02, 0.00, 0.00, 0.00, 364.58, 177.71, 0.00, -0.00
24.532148361206055, -3.14, 1.53, -1.03, 0.53, 1.42, -180.00, 87.62, -59.03, 30.31, 81.47, -0.00, 1.11, -14.42, 0.00, 0.00, 0.00, 313.03, 160.89, 0.00, -0.00
24.623149871826172, -3.14, 1.53, -1.08, 0.53, 1.42, -180.00, 87.85, -62.12, 30.31, 81.47, -0.00, 1.00, -12.98, 0.00, 0.00, 0.00, 267.93, 145.64, 0.00, 0.00
24.7601957321167, -3.14, 1.54, -1.13, 0.53, 1.42, -180.00, 88.07, -64.91, 30.31, 81.47, -0.00, 0.90, -11.68, 0.00, 0.00, 0.00, 228.80, 131.78, 0.00, 0.00
24.90860152244568, -3.14, 1.54, -1.18, 0.53, 1.42, -180.00, 88.26, -67.42, 30.31, 81.47, -0.00, 0.81, -10.51, 0.00, 0.00, 0.00, 195.00, 119.17, 0.00, 0.00
25.149738788604736, -3.14, 1.54, -1.19, 0.53, 1.42, -180.00, 88.44, -68.45, 30.31, 81.47, -0.00, 0.73, -4.30, 0.00, 0.00, 0.00, 1022.77, 726.81, 0.00, 0.00
25.31865406036377, -3.14, 1.55, -1.12, 0.53, 1.42, -180.00, 88.59, -64.44, 30.31, 81.47, -0.00, 0.66, 16.77, 0.00, 0.00, 0.00, 3415.33, 2512.07, 0.01, 0.00
25.35965609550476, -3.14, 1.55, -1.01, 0.53, 1.42, -180.00, 88.73, -57.90, 30.31, 81.47, -0.00, 0.59, 27.39, 0.00, 0.00, 0.00, 1921.37, 1262.99, 0.00, 0.00
25.40540599822998, -3.14, 1.55, -0.90, 0.53, 1.42, -180.00, 88.86, -51.55, 30.31, 81.47, -0.00, 0.53, 26.64, 0.00, 0.00, -0.00, 160.66, -98.14, -0.00, 0.00
25.45140552520752, -3.14, 1.55, -0.78, 0.53, 1.42, -180.00, 88.97, -44.88, 30.31, 81.47, -0.00, 0.48, 27.94, 0.00, 0.00, 0.00, 511.17, 148.19, 0.00, 0.00
25.533405780792236, -3.14, 1.55, -0.66, 0.53, 1.42, -180.00, 89.08, -38.02, 30.31, 81.47, -0.00, 0.43, 28.72, -0.00, 0.00, 0.00, 414.82, 85.23, 0.00, 0.00
25.627952337265015, -3.14, 1.56, -0.53, 0.53, 1.42, -180.00, 89.17, -30.14, 30.31, 81.47, -0.00, 0.38, 32.99, -0.00, 0.00, 0.00, 1148.42, 503.74, 0.00, 0.00
25.731225967407227, -3.14, 1.56, -0.37, 0.53, 1.42, -180.00, 89.25, -21.26, 30.31, 81.47, -0.00, 0.33, 37.23, -0.00, 0.00, 0.00, 1201.79, 501.01, 0.00, 0.00
25.827954053878784, -3.14, 1.56, -0.21, 0.53, 1.42, -180.00, 89.32, -12.12, 30.31, 81.47, -0.00, 0.30, 38.27, -0.00, 0.00, 0.00, 483.61, 122.56, 0.00, 0.00
25.92853283882141, -3.14, 1.56, -0.05, 0.53, 1.42, -180.00, 89.39, -3.14, 30.31, 81.47, -0.00, 0.29, 37.62, 0.00, 0.00, 0.00, 2.09, -74.78, -0.00, 0.00
26.02604103088379, -3.14, 1.56, 0.10, 0.53, 1.42, -180.00, 89.45, 5.51, 30.31, 81.47, -0.00, 0.29, 36.24, -0.00, 0.00, 0.00, -285.83, -160.20, -0.00, 0.00
26.122043132781982, -3.14, 1.56, 0.24, 0.53, 1.42, -180.00, 89.52, 13.87, 30.31, 81.47, -0.00, 0.26, 34.99, -0.00, 0.00, 0.00, -369.80, -150.01, -0.00, 0.00
26.218043088912964, -3.14, 1.56, 0.37, 0.53, 1.42, -180.00, 89.58, 21.48, 30.31, 81.47, -0.00, 0.26, 31.89, -0.00, 0.00, 0.00, -882.26, -369.19, -0.00, 0.00
26.310288190841675, -3.14, 1.56, 0.49, 0.53, 1.42, -180.00, 89.63, 28.33, 30.31, 81.47, -0.00, 0.21, 28.70, -0.00, 0.00, 0.00, -956.82, -392.35, -0.00, 0.00
26.420289278030396, -3.14, 1.57, 0.60, 0.53, 1.42, -180.00, 89.67, 34.50, 30.31, 81.47, -0.00, 0.17, 25.83, -0.00, 0.00, 0.00, -874.11, -353.62, -0.00, -0.00
26.543301343917847, -3.14, 1.57, 0.70, 0.53, 1.42, -180.00, 89.71, 40.05, 30.31, 81.47, -0.00, 0.14, 23.25, -0.00, 0.00, 0.00, -780.21, -316.81, -0.00, -0.00
26.705305814743042, -3.14, 1.57, 0.79, 0.53, 1.42, -180.00, 89.74, 45.04, 30.31, 81.47, -0.00, 0.13, 20.92, -0.00, 0.00, 0.00, -689.61, -284.58, -0.00, -0.00
26.885100841522217, -3.14, 1.57, 0.86, 0.53, 1.42, -180.00, 89.76, 49.54, 30.31, 81.47, -0.00, 0.11, 18.83, -0.00, 0.00, 0.00, -605.61, -256.17, -0.00, -0.00
27.090494871139526, -3.14, 1.57, 0.94, 0.53, 1.42, -180.00, 89.79, 53.59, 30.31, 81.47, -0.00, 0.10, 16.95, -0.00, 0.00, 0.00, -529.37, -230.81, -0.00, -0.00
27.322225332260132, -3.14, 1.57, 0.96, 0.53, 1.42, -180.00, 89.81, 54.86, 30.31, 81.47, -0.00, 0.09, 5.33, -0.00, 0.00, 0.00, -2358.35, -1398.45, -0.00, -0.00
27.422253608703613, -3.14, 1.57, 0.90, 0.53, 1.42, -180.00, 89.83, 51.74, 30.31, 81.47, -0.00, 0.08, -13.06, -0.00, 0.00, 0.00, -3513.28, -2213.97, -0.01, -0.00
27.458609104156494, -3.14, 1.57, 0.79, 0.53, 1.42, -180.00, 89.84, 45.34, 30.31, 81.47, -0.00, 0.07, -26.83, -0.00, 0.00, 0.00, -2770.29, -1662.52, -0.00, -0.00
27.495952367782593, -3.14, 1.57, 0.68, 0.53, 1.42, -180.00, 89.86, 39.00, 30.31, 81.47, -0.00, 0.07, -26.53, -0.00, 0.00, 0.00, -231.68, 19.93, 0.00, -0.00
27.529948472976685, -3.14, 1.57, 0.57, 0.53, 1.42, -180.00, 89.87, 32.92, 30.31, 81.47, -0.00, 0.06, -25.46, -0.00, 0.00, 0.00, -32.46, 111.19, 0.00, -0.00
27.562464714050293, -3.14, 1.57, 0.47, 0.53, 1.42, -180.00, 89.89, 27.17, 30.31, 81.47, -0.00, 0.05, -24.11, 0.00, 0.00, 0.00, 84.25, 145.82, 0.00, -0.00
27.59546399116516, -3.14, 1.57, 0.38, 0.53, 1.42, -180.00, 89.90, 21.80, 30.31, 81.47, -0.00, 0.04, -22.49, 0.00, 0.00, 0.00, 194.54, 176.99, 0.00, -0.00
27.62946653366089, -3.14, 1.57, 0.29, 0.53, 1.42, -180.00, 89.91, 16.78, 30.31, 81.47, -0.00, 0.04, -21.04, 0.00, 0.00, 0.00, 204.34, 158.09, 0.00, -0.00
27.661469221115112, -3.14, 1.57, 0.21, 0.53, 1.42, -180.00, 89.91, 11.97, 30.31, 81.47, -0.00, 0.03, -20.12, 0.00, 0.00, 0.00, 115.53, 94.60, 0.00, -0.00
27.6914644241333, -3.14, 1.57, 0.13, 0.53, 1.42, -180.00, 89.92, 7.65, 30.31, 81.47, -0.00, 0.01, -18.11, 0.00, 0.00, 0.00, 388.31, 221.05, 0.00, -0.00
27.725464820861816, -3.14, 1.57, 0.06, 0.53, 1.42, -180.00, 89.92, 3.57, 30.31, 81.47, -0.00, 0.02, -17.09, 0.00, 0.00, 0.00, 195.01, 111.15, 0.00, -0.00
27.759466648101807, -3.14, 1.57, -0.00, 0.53, 1.42, -180.00, 89.92, -0.10, 30.31, 81.47, -0.00, -0.00, -15.38, 0.00, 0.00, 0.00, 358.50, 187.09, 0.00, -0.00
27.79046654701233, -3.14, 1.57, -0.06, 0.53, 1.42, -180.00, 89.92, -3.41, 30.31, 81.47, -0.00, -0.00, -13.85, 0.00, 0.00, 0.00, 339.69, 172.20, 0.00, -0.00
27.82246470451355, -3.14, 1.57, -0.11, 0.53, 1.42, -180.00, 89.92, -6.38, 30.31, 81.47, -0.00, 0.00, -12.46, 0.00, 0.00, 0.00, 310.43, 154.90, 0.00, -0.00
27.858489751815796, -3.14, 1.57, -0.16, 0.53, 1.42, -180.00, 89.92, -9.06, 30.31, 81.47, -0.00, 0.01, -11.21, 0.00, 0.00, 0.00, 280.61, 138.85, 0.00, -0.00
27.889825582504272, -3.14, 1.57, -0.20, 0.53, 1.42, -180.00, 89.92, -11.47, 30.31, 81.47, -0.00, 0.01, -10.09, 0.00, 0.00, 0.00, 251.70, 124.18, 0.00, -0.00
27.922823429107666, -3.14, 1.57, -0.24, 0.53, 1.42, -180.00, 89.93, -13.64, 30.31, 81.47, -0.00, 0.01, -9.08, 0.00, 0.00, 0.00, 224.41, 110.86, 0.00, -0.00
27.957822799682617, -3.14, 1.57, -0.27, 0.53, 1.42, -180.00, 89.93, -15.59, 30.31, 81.47, -0.00, 0.02, -8.18, 0.00, 0.00, 0.00, 199.12, 98.81, 0.00, -0.00
27.99982213973999, -3.14, 1.57, -0.30, 0.53, 1.42, -180.00, 89.94, -17.35, 30.31, 81.47, -0.00, 0.02, -7.36, 0.00, 0.00, 0.00, 175.99, 87.96, 0.00, -0.00
28.03865361213684, -3.14, 1.57, -0.33, 0.53, 1.42, -180.00, 89.94, -18.93, 30.31, 81.47, -0.00, 0.02, -6.62, 0.00, 0.00, 0.00, 155.03, 78.20, 0.00, -0.00
28.092638731002808, -3.14, 1.57, -0.36, 0.53, 1.42, -180.00, 89.94, -20.35, 30.31, 81.47, -0.00, 0.02, -5.96, 0.00, 0.00, 0.00, 136.15, 69.44, 0.00, -0.00
28.14363670349121, -3.14, 1.57, -0.38, 0.53, 1.42, -180.00, 89.95, -21.63, 30.31, 81.47, -0.00, 0.02, -5.36, 0.00, 0.00, 0.00, 119.21, 61.58, 0.00, -0.00
28.193636417388916, -3.14, 1.57, -0.40, 0.53, 1.42, -180.00, 89.95, -22.79, 30.31, 81.47, -0.00, 0.02, -4.83, 0.00, 0.00, 0.00, 104.05, 54.52, 0.00, -0.00
28.242637395858765, -3.14, 1.57, -0.42, 0.53, 1.42, -180.00, 89.96, -23.82, 30.31, 81.47, -0.00, 0.02, -4.34, 0.00, 0.00, 0.00, 90.52, 48.18, 0.00, -0.00
28.304638862609863, -3.14, 1.57, -0.43, 0.53, 1.42, -180.00, 89.96, -24.76, 30.31, 81.47, -0.00, 0.02, -3.91, 0.00, 0.00, 0.00, 78.43, 42.49, 0.00, -0.00
28.357677936553955, -3.14, 1.57, -0.45, 0.53, 1.42, -180.00, 89.96, -25.60, 30.31, 81.47, -0.00, 0.01, -3.52, 0.00, 0.00, 0.00, 67.66, 37.38, 0.00, -0.00
28.40138292312622, -3.14, 1.57, -0.46, 0.53, 1.42, -180.00, 89.97, -26.35, 30.31, 81.47, -0.00, 0.01, -3.17, 0.00, 0.00, 0.00, 58.05, 32.78, 0.00, -0.00
28.44236660003662, -3.14, 1.57, -0.47, 0.53, 1.42, -180.00, 89.97, -27.03, 30.31, 81.47, -0.00, 0.01, -2.85, 0.00, 0.00, 0.00, 49.48, 28.65, 0.00, -0.00
28.484384536743164, -3.14, 1.57, -0.48, 0.53, 1.42, -180.00, 89.97, -27.65, 30.31, 81.47, -0.00, 0.01, -2.57, 0.00, 0.00, 0.00, 41.83, 24.94, 0.00, -0.00
28.520381450653076, -3.14, 1.57, -0.49, 0.51, 1.42, -180.00, 89.98, -28.20, 29.46, 81.47, -0.00, 0.01, -2.31, -3.57, 0.00, 0.00, 35.01, 21.60, -0.00, -0.00
28.560145616531372, -3.14, 1.57, -0.50, 0.48, 1.42, -180.00, 89.98, -28.69, 27.55, 81.47, -0.00, 0.01, -2.08, -7.97, 0.00, 0.00, 28.92, 18.59, -0.00, -0.00
28.59916114807129, -3.14, 1.57, -0.51, 0.42, 1.42, -180.00, 89.98, -29.14, 24.23, 81.47, -0.00, 0.01, -1.87, -13.92, 0.00, 0.00, 23.48, 15.89, -0.00, -0.00
28.63615846633911, -3.14, 1.57, -0.52, 0.36, 1.42, -180.00, 89.98, -29.54, 20.48, 81.47, -0.00, 0.01, -1.68, -15.71, 0.00, 0.00, 18.63, 13.46, -0.00, -0.00
28.670159339904785, -3.14, 1.57, -0.52, 0.29, 1.42, -180.00, 89.98, -29.90, 16.82, 81.47, -0.00, 0.01, -1.52, -15.32, 0.00, 0.00, 14.29, 11.27, 0.00, -0.00
28.707158088684082, -3.14, 1.57, -0.53, 0.23, 1.42, -180.00, 89.99, -30.23, 13.06, 81.47, -0.00, 0.01, -1.36, -15.78, 0.00, 0.00, 10.36, 9.29, -0.00, -0.00
28.74567985534668, -3.14, 1.57, -0.53, 0.16, 1.42, -180.00, 89.99, -30.52, 9.38, 81.47, -0.00, 0.01, -1.23, -15.39, 0.00, 0.00, 6.91, 7.53, 0.00, -0.00
28.782195568084717, -3.14, 1.57, -0.54, 0.11, 1.42, -180.00, 89.99, -30.79, 6.08, 81.47, -0.00, 0.01, -1.10, -13.85, 0.00, 0.00, 3.80, 5.94, 0.00, -0.00
28.81519603729248, -3.14, 1.57, -0.54, 0.05, 1.42, -180.00, 89.99, -31.02, 3.10, 81.47, -0.00, 0.00, -0.99, -12.47, 0.00, 0.00, 1.01, 4.50, 0.00, 0.00
28.850263357162476, -3.14, 1.57, -0.55, 0.00, 1.42, -180.00, 89.99, -31.24, 0.14, 81.47, -0.00, 0.00, -0.89, -12.41, 0.00, 0.00, -1.22, 3.36, 0.00, -0.00
28.888258695602417, -3.14, 1.57, -0.55, -0.05, 1.42, -180.00, 89.99, -31.43, -2.91, 81.47, -0.00, 0.00, -0.80, -12.76, 0.00, 0.00, -3.72, 2.05, -0.00, -0.00
28.922258377075195, -3.14, 1.57, -0.55, -0.10, 1.42, -180.00, 89.99, -31.60, -5.65, 81.47, -0.00, 0.00, -0.72, -11.48, 0.00, 0.00, -5.72, 1.01, 0.00, -0.00
28.95619010925293, -3.14, 1.57, -0.55, -0.14, 1.42, -180.00, 89.99, -31.76, -8.12, 81.47, -0.00, 0.00, -0.65, -10.33, 0.00, 0.00, -7.51, 0.07, 0.00, -0.00
28.990190505981445, -3.14, 1.57, -0.56, -0.18, 1.42, -180.00, 89.99, -31.90, -10.43, 81.47, -0.00, 0.00, -0.59, -9.70, 0.00, 0.00, -9.12, -0.77, 0.00, -0.00
29.025190591812134, -3.14, 1.57, -0.56, -0.22, 1.42, -180.00, 89.99, -32.02, -12.51, 81.47, -0.00, 0.00, -0.53, -8.73, 0.00, 0.00, -10.57, -1.54, 0.00, -0.00
29.06438112258911, -3.14, 1.57, -0.56, -0.25, 1.42, -180.00, 90.00, -32.14, -14.39, 81.47, -0.00, 0.00, -0.47, -7.85, 0.00, 0.00, -11.85, -2.21, 0.00, -0.00
29.101322412490845, -3.14, 1.57, -0.56, -0.28, 1.42, -180.00, 90.00, -32.24, -16.08, 81.47, -0.00, 0.00, -0.43, -7.07, 0.00, 0.00, -13.04, -2.84, 0.00, -0.00
29.139188766479492, -3.14, 1.57, -0.56, -0.31, 1.42, -180.00, 90.00, -32.33, -17.60, 81.47, -0.00, 0.00, -0.38, -6.36, 0.00, 0.00, -14.06, -3.38, 0.00, -0.00
29.180936098098755, -3.14, 1.57, -0.57, -0.33, 1.42, -180.00, 90.00, -32.41, -18.96, 81.47, -0.00, 0.00, -0.35, -5.73, 0.00, 0.00, -15.00, -3.88, 0.00, -0.00
29.214486837387085, -3.14, 1.57, -0.57, -0.35, 1.42, -180.00, 90.00, -32.49, -20.19, 81.47, -0.00, 0.00, -0.31, -5.15, 0.00, 0.00, -15.87, -4.34, 0.00, -0.00
29.24848484992981, -3.14, 1.57, -0.57, -0.37, 1.42, -180.00, 90.00, -32.55, -21.30, 81.47, -0.00, 0.00, -0.28, -4.64, 0.00, 0.00, -16.60, -4.73, 0.00, -0.00
29.281485557556152, -3.14, 1.57, -0.57, -0.38, 1.42, -180.00, 90.00, -32.61, -21.63, 81.47, -0.00, 0.00, -0.25, -1.40, 0.00, 0.00, -17.28, -5.10, 0.00, -0.00
29.316486597061157, -3.14, 1.57, -0.57, -0.35, 1.42, -180.00, 90.00, -32.67, -20.23, 81.47, -0.00, 0.00, -0.23, 5.89, 0.00, 0.00, -17.89, -5.42, 0.00, -0.00
29.35048532485962, -3.14, 1.57, -0.57, -0.31, 1.42, -180.00, 90.00, -32.72, -17.92, 81.47, -0.00, 0.00, -0.20, 9.66, 0.00, 0.00, -18.44, -5.72, 0.00, 0.00
29.385486364364624, -3.14, 1.57, -0.57, -0.26, 1.42, -180.00, 90.00, -32.76, -15.09, 81.47, -0.00, 0.00, -0.18, 11.87, 0.00, 0.00, -18.94, -5.98, 0.00, 0.00
29.42048692703247, -3.14, 1.57, -0.57, -0.20, 1.42, -180.00, 90.00, -32.80, -11.49, 81.47, -0.00, 0.00, -0.17, 15.05, 0.00, 0.00, -19.39, -6.22, 0.00, 0.00
29.45534920692444, -3.14, 1.57, -0.57, -0.13, 1.42, -180.00, 90.00, -32.84, -7.22, 81.47, -0.00, 0.00, -0.15, 17.91, 0.00, 0.00, -19.79, -6.44, 0.00, 0.00
29.489768505096436, -3.14, 1.57, -0.57, -0.05, 1.42, -180.00, 90.00, -32.87, -2.90, 81.47, -0.00, 0.00, -0.13, 18.10, 0.00, 0.00, -20.17, -6.65, 0.00, 0.00
29.525319814682007, -3.14, 1.57, -0.57, 0.03, 1.42, -180.00, 90.00, -32.90, 1.85, 81.47, -0.00, 0.00, -0.12, 19.86, 0.00, 0.00, -20.47, -6.80, 0.00, 0.00
29.559300184249878, -3.14, 1.57, -0.57, 0.12, 1.42, -180.00, 90.00, -32.92, 6.97, 81.47, -0.00, 0.00, -0.11, 21.45, 0.00, 0.00, -20.76, -6.96, 0.00, 0.00
29.594155073165894, -3.14, 1.57, -0.58, 0.21, 1.42, -180.00, 90.00, -32.95, 12.24, 81.47, -0.00, 0.00, -0.10, 22.08, 0.00, 0.00, -21.02, -7.10, 0.00, 0.00
29.628154516220093, -3.14, 1.57, -0.58, 0.31, 1.42, -180.00, 90.00, -32.97, 17.74, 81.47, -0.00, 0.00, -0.09, 23.05, 0.00, 0.00, -21.26, -7.23, 0.00, 0.00
29.66615605354309, -3.14, 1.57, -0.58, 0.40, 1.42, -180.00, 90.00, -32.99, 22.98, 81.47, -0.00, 0.00, -0.08, 21.93, 0.00, 0.00, -21.47, -7.34, -0.00, 0.00
29.70315647125244, -3.14, 1.57, -0.58, 0.48, 1.42, -180.00, 90.00, -33.00, 27.69, 81.47, -0.00, 0.00, -0.07, 19.74, 0.00, -0.00, -21.66, -7.45, -0.00, 0.00
29.745157718658447, -3.14, 1.57, -0.58, 0.56, 1.42, -180.00, 90.00, -33.02, 31.93, 81.47, -0.00, 0.00, -0.06, 17.77, 0.00, -0.00, -21.83, -7.54, -0.00, 0.00
29.779155492782593, -3.14, 1.57, -0.58, 0.62, 1.42, -180.00, 90.00, -33.03, 35.65, 81.47, -0.00, 0.00, -0.06, 15.59, 0.00, -0.00, -21.99, -7.62, -0.00, 0.00
29.816154718399048, -3.14, 1.57, -0.58, 0.65, 1.42, -180.00, 90.00, -33.05, 37.01, 81.47, -0.00, 0.00, -0.05, 5.70, 0.00, -0.00, -22.13, -7.70, -0.00, 0.00
29.852152824401855, -3.14, 1.57, -0.58, 0.62, 1.42, -180.00, 90.00, -33.06, 35.78, 81.47, -0.00, 0.00, -0.05, -5.19, 0.00, -0.00, -22.25, -7.77, -0.00, 0.00
29.885671138763428, -3.14, 1.57, -0.58, 0.57, 1.42, -180.00, 90.00, -33.07, 32.58, 81.47, -0.00, 0.00, -0.04, -13.40, 0.00, -0.00, -22.36, -7.83, -0.00, -0.00
29.919668912887573, -3.14, 1.57, -0.58, 0.50, 1.42, -180.00, 90.00, -33.08, 28.47, 81.47, -0.00, 0.00, -0.04, -17.22, 0.00, -0.00, -22.46, -7.88, -0.00, -0.00
29.953500270843506, -3.14, 1.57, -0.58, 0.41, 1.42, -180.00, 90.00, -33.08, 23.54, 81.47, -0.00, 0.00, -0.03, -20.65, 0.00, -0.00, -22.56, -7.93, -0.00, -0.00
29.988499641418457, -3.14, 1.57, -0.58, 0.31, 1.42, -180.00, 90.00, -33.09, 17.87, 81.47, -0.00, 0.00, -0.03, -23.75, 0.00, -0.00, -22.64, -7.97, -0.00, -0.00
30.025497674942017, -3.14, 1.57, -0.58, 0.21, 1.42, -180.00, 90.00, -33.10, 12.10, 81.47, -0.00, 0.00, -0.03, -24.15, 0.00, -0.00, -22.71, -8.01, -0.00, -0.00
30.06068468093872, -3.14, 1.57, -0.58, 0.11, 1.42, -180.00, 90.00, -33.10, 6.25, 81.47, -0.00, 0.00, -0.02, -24.51, 0.00, -0.00, -22.78, -8.05, -0.00, -0.00
30.09468722343445, -3.14, 1.57, -0.58, 0.02, 1.42, -180.00, 90.00, -33.11, 0.98, 81.47, -0.00, 0.00, -0.02, -22.06, 0.00, -0.00, -22.83, -8.08, 0.00, -0.00
30.128685474395752, -3.14, 1.57, -0.58, -0.07, 1.42, -180.00, 90.00, -33.11, -3.76, 81.47, -0.00, 0.00, -0.02, -19.86, 0.00, -0.00, -22.89, -8.11, 0.00, -0.00
30.165687322616577, -3.14, 1.57, -0.58, -0.14, 1.42, -180.00, 90.00, -33.12, -8.02, 81.47, -0.00, 0.00, -0.02, -17.87, 0.00, -0.00, -22.94, -8.14, 0.00, -0.00
30.20468521118164, -3.14, 1.57, -0.58, -0.18, 1.42, -180.00, 90.00, -33.12, -10.44, 81.47, -0.00, 0.00, -0.02, -10.13, 0.00, -0.00, -22.98, -8.16, 0.00, -0.00
30.23968529701233, -3.14, 1.57, -0.58, -0.15, 1.42, -180.00, 90.00, -33.13, -8.83, 81.47, -0.00, 0.00, -0.01, 6.76, 0.00, -0.00, -23.01, -8.18, 0.01, -0.00
30.273686408996582, -3.14, 1.57, -0.58, -0.07, 1.42, -180.00, 90.00, -33.13, -3.97, 81.47, -0.00, 0.00, -0.01, 20.37, 0.00, -0.00, -23.05, -8.20, 0.00, 0.00
30.30868625640869, -3.14, 1.57, -0.58, 0.05, 1.42, -180.00, 90.00, -33.13, 3.06, 81.47, -0.00, 0.00, -0.01, 29.44, 0.00, -0.00, -23.08, -8.21, 0.00, 0.00
30.3436861038208, -3.14, 1.57, -0.58, 0.18, 1.42, -180.00, 90.00, -33.13, 10.14, 81.47, -0.00, 0.00, -0.01, 29.67, 0.00, -0.00, -23.12, -8.23, 0.00, 0.00
30.375683546066284, -3.14, 1.57, -0.58, 0.29, 1.42, -180.00, 90.00, -33.14, 16.61, 81.47, -0.00, 0.00, -0.01, 27.10, 0.00, -0.00, -23.14, -8.25, -0.00, 0.00
30.414685487747192, -3.14, 1.57, -0.58, 0.39, 1.42, -180.00, 90.00, -33.14, 22.44, 81.47, -0.00, 0.00, -0.01, 24.39, 0.00, -0.00, -23.17, -8.26, -0.00, 0.00
30.451685428619385, -3.14, 1.57, -0.58, 0.48, 1.42, -180.00, 90.00, -33.14, 27.68, 81.47, -0.00, 0.00, -0.01, 21.95, 0.00, -0.00, -23.19, -8.27, -0.00, 0.00
30.48968529701233, -3.14, 1.57, -0.58, 0.53, 1.42, -180.00, 90.00, -33.14, 30.31, 81.47, -0.00, 0.00, -0.01, 11.03, 0.00, -0.00, -23.21, -8.28, -0.00, 0.00
30.535686254501343, -3.14, 1.57, -0.58, 0.49, 1.42, -180.00, 90.00, -33.14, 27.94, 81.47, -0.00, 0.00, -0.01, -9.92, 0.00, -0.00, -23.23, -8.30, -0.01, 0.00
30.576685905456543, -3.14, 1.57, -0.58, 0.41, 1.42, -180.00, 90.00, -33.14, 23.35, 81.47, -0.00, 0.00, -0.01, -19.24, 0.00, -0.00, -23.24, -8.30, -0.00, -0.00
30.60820508003235, -3.14, 1.57, -0.58, 0.33, 1.42, -180.00, 90.00, -33.15, 19.02, 81.47, -0.00, 0.00, -0.01, -18.11, 0.00, -0.00, -23.25, -8.31, 0.00, -0.00
30.6422061920166, -3.14, 1.57, -0.58, 0.26, 1.42, -180.00, 90.00, -33.15, 15.13, 81.47, -0.00, 0.00, -0.00, -16.30, 0.00, -0.00, -23.26, -8.31, 0.00, -0.00
30.680718898773193, -3.14, 1.57, -0.58, 0.23, 1.42, -180.00, 90.00, -33.15, 13.43, 81.47, -0.00, 0.00, -0.00, -7.13, 0.00, -0.00, -23.27, -8.32, 0.00, -0.00
30.714720249176025, -3.14, 1.57, -0.58, 0.26, 1.42, -180.00, 90.00, -33.15, 14.74, 81.47, -0.00, 0.00, -0.00, 5.49, 0.00, -0.00, -23.28, -8.32, 0.00, -0.00
30.751762866973877, -3.14, 1.57, -0.58, 0.31, 1.42, -180.00, 90.00, -33.15, 17.62, 81.47, -0.00, 0.00, -0.00, 12.08, 0.00, -0.00, -23.29, -8.33, 0.00, 0.00
30.787761926651, -3.14, 1.57, -0.58, 0.35, 1.42, -180.00, 90.00, -33.15, 20.22, 81.47, -0.00, 0.00, -0.00, 10.87, 0.00, -0.00, -23.30, -8.33, -0.00, 0.00
30.82380485534668, -3.14, 1.57, -0.58, 0.39, 1.42, -180.00, 90.00, -33.15, 22.27, 81.47, -0.00, 0.00, -0.00, 8.59, 0.00, -0.00, -23.31, -8.34, -0.00, 0.00
30.85800862312317, -3.14, 1.57, -0.58, 0.37, 1.42, -180.00, 90.00, -33.15, 20.99, 81.47, -0.00, 0.00, -0.00, -5.36, 0.00, -0.00, -23.32, -8.34, -0.00, 0.00
30.893022537231445, -3.14, 1.57, -0.58, 0.27, 1.42, -180.00, 90.00, -33.15, 15.20, 81.47, -0.00, 0.00, -0.00, -24.27, 0.00, -0.00, -23.33, -8.35, -0.01, -0.00
30.92740225791931, -3.14, 1.57, -0.58, 0.16, 1.42, -180.00, 90.00, -33.15, 9.32, 81.47, -0.00, 0.00, -0.00, -24.62, 0.00, -0.00, -23.32, -8.35, -0.00, -0.00
30.965710163116455, -3.14, 1.57, -0.58, 0.07, 1.42, -180.00, 90.00, -33.15, 4.03, 81.47, -0.00, 0.00, -0.00, -22.16, 0.00, -0.00, -23.33, -8.35, 0.00, -0.00
30.9981427192688, -3.14, 1.57, -0.58, 0.03, 1.42, -180.00, 90.00, -33.15, 1.45, 81.47, -0.00, 0.00, -0.00, -10.81, 0.00, -0.00, -23.33, -8.35, 0.00, -0.00
31.037142992019653, -3.14, 1.57, -0.58, 0.03, 1.42, -180.00, 90.00, -33.15, 1.59, 81.47, -0.00, 0.00, -0.00, 0.58, 0.00, -0.00, -23.33, -8.35, 0.00, -0.00
31.070141553878784, -3.14, 1.57, -0.58, 0.04, 1.42, -180.00, 90.00, -33.15, 2.37, 81.47, -0.00, 0.00, -0.00, 3.30, 0.00, -0.00, -23.34, -8.35, 0.00, 0.00
31.10814332962036, -3.14, 1.57, -0.58, 0.05, 1.42, -180.00, 90.00, -33.15, 3.08, 81.47, -0.00, 0.00, -0.00, 2.97, 0.00, -0.00, -23.34, -8.36, -0.00, 0.00
31.143144369125366, -3.14, 1.57, -0.58, 0.04, 1.42, -180.00, 90.00, -33.15, 2.30, 81.47, -0.00, 0.00, -0.00, -3.28, 0.00, -0.00, -23.35, -8.36, -0.00, 0.00
31.18314218521118, -3.14, 1.57, -0.58, 0.01, 1.42, -180.00, 90.00, -33.15, 0.46, 81.47, -0.00, 0.00, -0.00, -7.71, 0.00, -0.00, -23.35, -8.36, -0.00, -0.00
31.218143224716187, -3.14, 1.57, -0.58, -0.02, 1.42, -180.00, 90.00, -33.15, -1.20, 81.47, -0.00, 0.00, -0.00, -6.94, 0.00, -0.00, -23.35, -8.36, 0.00, -0.00
31.252144813537598, -3.14, 1.57, -0.58, -0.02, 1.42, -180.00, 90.00, -33.16, -1.36, 81.47, -0.00, 0.00, -0.00, -0.69, 0.00, -0.00, -23.35, -8.36, 0.00, -0.00
31.293232917785645, -3.14, 1.57, -0.58, 0.02, 1.42, -180.00, 90.00, -33.16, 0.86, 81.47, -0.00, 0.00, -0.00, 9.30, 0.00, -0.00, -23.35, -8.36, 0.00, -0.00
31.33301591873169, -3.14, 1.57, -0.58, 0.08, 1.42, -180.00, 90.00, -33.16, 4.66, 81.47, -0.00, 0.00, -0.00, 15.91, 0.00, -0.00, -23.35, -8.36, 0.00, 0.00
31.367621898651123, -3.14, 1.57, -0.58, 0.14, 1.42, -180.00, 90.00, -33.16, 8.08, 81.47, -0.00, 0.00, -0.00, 14.32, 0.00, -0.00, -23.36, -8.37, -0.00, 0.00
31.406707525253296, -3.14, 1.57, -0.58, 0.19, 1.42, -180.00, 90.00, -33.16, 11.15, 81.47, -0.00, 0.00, -0.00, 12.89, 0.00, -0.00, -23.36, -8.37, -0.00, 0.00
31.44225287437439, -3.14, 1.57, -0.58, 0.24, 1.42, -180.00, 90.00, -33.16, 13.92, 81.47, -0.00, 0.00, -0.00, 11.60, 0.00, -0.00, -23.36, -8.37, -0.00, 0.00
31.47625207901001, -3.14, 1.57, -0.58, 0.29, 1.42, -180.00, 90.00, -33.16, 16.41, 81.47, -0.00, 0.00, -0.00, 10.44, 0.00, -0.00, -23.36, -8.37, -0.00, 0.00
31.511250495910645, -3.14, 1.57, -0.58, 0.33, 1.42, -180.00, 90.00, -33.16, 18.66, 81.47, -0.00, 0.00, -0.00, 9.39, 0.00, -0.00, -23.36, -8.37, -0.00, 0.00
31.54525089263916, -3.14, 1.57, -0.58, 0.36, 1.42, -180.00, 90.00, -33.16, 20.68, 81.47, -0.00, 0.00, -0.00, 8.45, 0.00, -0.00, -23.36, -8.37, -0.00, 0.00
31.579251050949097, -3.14, 1.57, -0.58, 0.39, 1.42, -180.00, 90.00, -33.16, 22.49, 81.47, -0.00, 0.00, -0.00, 7.61, 0.00, -0.00, -23.36, -8.37, -0.00, 0.00
31.61337900161743, -3.14, 1.57, -0.58, 0.42, 1.42, -180.00, 90.00, -33.16, 24.13, 81.47, -0.00, 0.00, -0.00, 6.85, 0.00, -0.00, -23.37, -8.37, -0.00, 0.00
31.647379636764526, -3.14, 1.57, -0.58, 0.45, 1.42, -180.00, 90.00, -33.16, 25.60, 81.47, -0.00, 0.00, -0.00, 6.16, 0.00, -0.00, -23.37, -8.37, -0.00, 0.00
31.684003114700317, -3.14, 1.57, -0.58, 0.47, 1.42, -180.00, 90.00, -33.16, 26.92, 81.47, -0.00, 0.00, -0.00, 5.55, 0.00, -0.00, -23.37, -8.37, -0.00, 0.00
31.718005895614624, -3.14, 1.57, -0.58, 0.49, 1.42, -180.00, 90.00, -33.16, 28.11, 81.47, -0.00, 0.00, -0.00, 4.99, 0.00, -0.00, -23.37, -8.37, -0.00, 0.00
31.7530038356781, -3.14, 1.57, -0.58, 0.51, 1.42, -180.00, 90.00, -33.16, 29.19, 81.47, -0.00, 0.00, -0.00, 4.49, 0.00, -0.00, -23.37, -8.37, -0.00, 0.00
31.79151940345764, -3.14, 1.57, -0.58, 0.53, 1.42, -180.00, 90.00, -33.16, 30.15, 81.47, -0.00, 0.00, -0.00, 4.04, 0.00, -0.00, -23.37, -8.37, -0.00, 0.00
31.82651996612549, -3.14, 1.57, -0.58, 0.54, 1.42, -180.00, 90.00, -33.16, 31.02, 81.47, -0.00, 0.00, -0.00, 3.64, 0.00, -0.00, -23.37, -8.37, -0.00, 0.00
31.8590350151062, -3.14, 1.57, -0.58, 0.56, 1.42, -180.00, 90.00, -33.16, 31.80, 81.47, -0.00, 0.00, -0.00, 3.28, 0.00, -0.00, -23.37, -8.37, -0.00, 0.00
31.89403462409973, -3.14, 1.57, -0.58, 0.57, 1.42, -180.00, 90.00, -33.16, 32.51, 81.47, -0.00, 0.00, -0.00, 2.95, 0.00, -0.00, -23.37, -8.37, -0.00, 0.00
31.929033994674683, -3.14, 1.57, -0.58, 0.58, 1.42, -180.00, 90.00, -33.16, 33.14, 81.47, -0.00, 0.00, -0.00, 2.65, 0.00, -0.00, -23.37, -8.37, -0.00, 0.00
31.96505308151245, -3.14, 1.57, -0.58, 0.59, 1.42, -180.00, 90.00, -33.16, 33.71, 81.47, -0.00, 0.00, -0.00, 2.39, 0.00, -0.00, -23.37, -8.37, -0.00, 0.00
32.00304937362671, -3.14, 1.57, -0.58, 0.60, 1.42, -180.00, 90.00, -33.16, 34.22, 81.47, -0.00, 0.00, -0.00, 2.15, 0.00, -0.00, -23.37, -8.37, -0.00, 0.00
32.03731322288513, -3.14, 1.57, -0.58, 0.61, 1.42, -180.00, 90.00, -33.16, 34.69, 81.47, -0.00, 0.00, -0.00, 1.93, 0.00, -0.00, -23.37, -8.37, -0.00, 0.00
32.07231402397156, -3.14, 1.57, -0.58, 0.61, 1.42, -180.00, 90.00, -33.16, 35.10, 81.47, -0.00, 0.00, -0.00, 1.74, 0.00, -0.00, -23.37, -8.37, -0.00, 0.00
32.10731601715088, -3.14, 1.57, -0.58, 0.62, 1.42, -180.00, 90.00, -33.16, 35.48, 81.47, -0.00, 0.00, -0.00, 1.57, 0.00, -0.00, -23.37, -8.37, -0.00, 0.00
32.15029239654541, -3.14, 1.57, -0.58, 0.63, 1.43, -180.00, 90.00, -33.16, 35.81, 82.04, -0.00, 0.00, -0.00, 1.41, 2.38, -0.00, -23.37, -8.37, -0.00, 0.00
32.19229173660278, -3.14, 1.57, -0.58, 0.63, 1.44, -180.00, 90.00, -33.16, 36.11, 82.55, -0.00, 0.00, -0.00, 1.27, 2.14, -0.00, -23.37, -8.37, -0.00, -0.00
32.225292444229126, -3.14, 1.57, -0.58, 0.64, 1.43, -180.00, 90.00, -33.16, 36.39, 82.07, -0.00, 0.00, -0.00, 1.14, -2.04, 0.00, -23.37, -8.37, -0.00, -0.00
32.26029348373413, -3.14, 1.57, -0.58, 0.64, 1.41, -180.00, 90.00, -33.16, 36.63, 80.68, -0.00, 0.00, -0.00, 1.03, -5.80, 0.00, -23.37, -8.37, -0.00, -0.00
32.29329252243042, -3.14, 1.57, -0.58, 0.64, 1.34, -180.00, 90.00, -33.16, 36.85, 76.78, -0.00, 0.00, -0.00, 0.93, -16.34, 0.00, -23.37, -8.37, -0.00, -0.00
32.32681393623352, -3.14, 1.57, -0.58, 0.65, 1.24, -180.00, 90.00, -33.16, 37.05, 71.09, -0.00, 0.00, -0.00, 0.83, -23.83, 0.00, -23.37, -8.37, -0.00, -0.00
32.36081624031067, -3.14, 1.57, -0.58, 0.65, 1.12, -180.00, 90.00, -33.16, 37.23, 64.08, -0.00, 0.00, -0.00, 0.75, -29.38, 0.00, -23.37, -8.37, -0.00, -0.00
32.394813537597656, -3.14, 1.57, -0.58, 0.65, 0.97, -180.00, 90.00, -33.16, 37.39, 55.59, -0.00, 0.00, -0.00, 0.67, -35.57, 0.00, -23.37, -8.37, -0.00, -0.00
32.42881417274475, -3.14, 1.57, -0.58, 0.66, 0.80, -180.00, 90.00, -33.16, 37.54, 45.95, -0.00, 0.00, -0.00, 0.61, -40.35, 0.00, -23.37, -8.37, -0.00, -0.00
32.46781587600708, -3.14, 1.57, -0.58, 0.66, 0.63, -180.00, 90.00, -33.16, 37.67, 36.05, -0.00, 0.00, -0.00, 0.55, -41.47, 0.00, -23.37, -8.37, -0.00, -0.00
32.50381517410278, -3.14, 1.57, -0.58, 0.66, 0.46, -180.00, 90.00, -33.16, 37.79, 26.20, -0.00, 0.00, -0.00, 0.49, -41.29, 0.00, -23.37, -8.37, -0.00, -0.00
32.53781461715698, -3.14, 1.57, -0.58, 0.66, 0.28, -180.00, 90.00, -33.16, 37.89, 16.28, -0.00, 0.00, -0.00, 0.44, -41.53, 0.00, -23.37, -8.37, -0.00, -0.00
32.57281565666199, -3.14, 1.57, -0.58, 0.66, 0.12, -180.00, 90.00, -33.16, 37.99, 6.98, -0.00, 0.00, -0.00, 0.40, -38.96, -0.00, -23.37, -8.37, -0.00, 0.00
32.60682225227356, -3.14, 1.57, -0.58, 0.66, -0.02, -180.00, 90.00, -33.16, 38.07, -1.39, -0.00, 0.00, -0.00, 0.36, -35.07, -0.00, -23.37, -8.37, -0.00, 0.00
32.66533136367798, -3.14, 1.57, -0.58, 0.67, -0.16, -180.00, 90.00, -33.16, 38.15, -8.93, -0.00, 0.00, -0.00, 0.32, -31.56, -0.00, -23.37, -8.37, -0.00, 0.00
32.70433044433594, -3.14, 1.57, -0.58, 0.67, -0.27, -180.00, 90.00, -33.16, 38.22, -15.71, -0.00, 0.00, -0.00, 0.29, -28.40, -0.00, -23.37, -8.37, -0.00, 0.00
32.74033069610596, -3.14, 1.57, -0.58, 0.67, -0.38, -180.00, 90.00, -33.16, 38.28, -21.81, -0.00, 0.00, -0.00, 0.26, -25.56, -0.00, -23.37, -8.37, -0.00, 0.00
32.77333331108093, -3.14, 1.57, -0.58, 0.67, -0.47, -180.00, 90.00, -33.16, 38.34, -26.83, -0.00, 0.00, -0.00, 0.24, -21.02, -0.00, -23.37, -8.37, -0.00, 0.00
