sulimanbadour1/Project_S/control/InverseKinematics/robot_joint_data.csv
Time, Joint 1 Angle (Rad), Joint 2 Angle (Rad), Joint 3 Angle (Rad), Joint 4 Angle (Rad), Joint 5 Angle (Rad), Joint 1 Angle (Deg), Joint 2 Angle (Deg), Joint 3 Angle (Deg), Joint 4 Angle (Deg), Joint 5 Angle (Deg), Joint 1 Vel, Joint 2 Vel, Joint 3 Vel, Joint 4 Vel, Joint 5 Vel, Joint 1 Eff, Joint 2 Eff, Joint 3 Eff, Joint 4 Eff, Joint 5 Eff
0.0, -3.14, 1.57, 0.96, 0.53, 1.42, -180.02, 90.01, 54.95, 30.31, 81.48, 0.02, -0.01, 0.01, -0.01, 0.01, -49.53, -0.66, -3.49, -0.22, 0.00
0.07146692276000977, -3.14, 1.57, 0.96, 0.53, 1.42, -180.01, 90.01, 54.95, 30.31, 81.48, 0.02, -0.01, 0.01, -0.00, 0.00, -20.21, -3.36, -3.87, -0.39, -0.00
0.12619638442993164, -3.14, 1.57, 0.96, 0.53, 1.42, -180.01, 90.01, 54.95, 30.31, 81.48, 0.01, -0.01, 0.00, -0.00, 0.00, -16.17, -3.16, -3.40, -0.22, -0.00
0.18419694900512695, -3.14, 1.57, 0.96, 0.53, 1.42, -180.01, 90.00, 54.95, 30.31, 81.48, 0.01, -0.00, 0.00, -0.00, 0.00, -12.93, -3.40, -3.40, -0.22, -0.00
0.2371973991394043, -3.14, 1.57, 0.96, 0.53, 1.42, -180.01, 90.00, 54.95, 30.31, 81.48, 0.01, -0.00, 0.00, -0.00, 0.00, -10.35, -3.60, -3.40, -0.22, 0.00
0.2931962013244629, -3.14, 1.57, 0.96, 0.53, 1.42, -180.01, 90.00, 54.95, 30.31, 81.48, 0.01, -0.00, 0.00, -0.00, 0.00, -8.28, -3.77, -3.41, -0.22, 0.00
0.34819626808166504, -3.14, 1.57, 0.96, 0.53, 1.42, -180.00, 90.00, 54.95, 30.31, 81.48, 0.01, -0.00, 0.00, 0.00, 0.00, -6.62, -3.90, -3.41, -0.22, 0.00
0.40219640731811523, -3.14, 1.57, 0.96, 0.53, 1.42, -180.00, 90.00, 54.95, 30.31, 81.48, 0.00, -0.00, -0.00, 0.00, 0.00, -5.30, -4.01, -3.42, -0.22, 0.00
0.459195613861084, -3.14, 1.57, 0.96, 0.53, 1.42, -180.00, 90.00, 54.95, 30.31, 81.48, 0.00, -0.00, -0.00, 0.00, -0.00, -4.24, -4.09, -3.42, -0.22, 0.00
0.5146455764770508, -3.14, 1.57, 0.96, 0.53, 1.42, -180.00, 90.00, 54.95, 30.31, 81.48, 0.00, -0.00, -0.00, 0.00, -0.00, -3.39, -4.16, -3.42, -0.22, 0.00
0.5638868808746338, -3.14, 1.57, 0.96, 0.53, 1.42, -180.00, 90.00, 54.95, 30.31, 81.48, 0.00, -0.00, -0.00, 0.00, -0.00, -2.71, -4.22, -3.43, -0.23, 0.00
0.6207966804504395, -3.14, 1.57, 0.96, 0.53, 1.42, -180.00, 90.00, 54.95, 30.31, 81.48, 0.00, -0.00, -0.00, 0.00, -0.00, -2.17, -4.26, -3.43, -0.23, 0.00
0.6818549633026123, -3.14, 1.57, 0.96, 0.53, 1.42, -180.00, 90.00, 54.95, 30.31, 81.48, 0.00, -0.00, -0.00, 0.00, -0.00, -1.74, -4.30, -3.43, -0.23, 0.00
0.7368154525756836, -3.14, 1.57, 0.96, 0.53, 1.42, -180.00, 90.00, 54.95, 30.31, 81.48, 0.00, -0.00, -0.00, 0.00, -0.00, -1.39, -4.32, -3.43, -0.23, 0.00
0.7872130870819092, -3.14, 1.57, 0.96, 0.53, 1.42, -180.00, 90.00, 54.95, 30.31, 81.48, 0.00, -0.00, -0.00, 0.00, -0.00, -1.11, -4.35, -3.44, -0.23, 0.00
0.8509082794189453, -3.14, 1.57, 0.96, 0.53, 1.42, -180.00, 90.00, 54.95, 30.31, 81.48, 0.00, -0.00, -0.00, 0.00, -0.00, -0.89, -4.37, -3.44, -0.23, 0.00
0.9028277397155762, -3.14, 1.57, 0.96, 0.53, 1.42, -180.00, 90.00, 54.95, 30.31, 81.48, 0.00, -0.00, -0.00, 0.00, -0.00, -0.71, -4.38, -3.44, -0.23, 0.00
0.9578285217285156, -3.14, 1.57, 0.96, 0.53, 1.42, -180.00, 90.00, 54.95, 30.31, 81.48, 0.00, -0.00, -0.00, 0.00, -0.00, -0.57, -4.39, -3.44, -0.23, 0.00
1.021651029586792, -3.14, 1.57, 0.96, 0.53, 1.42, -180.00, 90.00, 54.95, 30.31, 81.48, 0.00, -0.00, -0.00, 0.00, -0.00, -0.46, -4.40, -3.44, -0.23, 0.00
1.0846514701843262, -3.14, 1.57, 0.96, 0.53, 1.42, -180.00, 90.00, 54.95, 30.31, 81.48, 0.00, -0.00, -0.00, 0.00, -0.00, -0.36, -4.41, -3.44, -0.23, 0.00
1.1496500968933105, -3.14, 1.57, 0.96, 0.53, 1.42, -180.00, 90.00, 54.95, 30.31, 81.48, 0.00, -0.00, -0.00, 0.00, -0.00, -0.29, -4.42, -3.44, -0.23, 0.00
1.2092382907867432, -3.14, 1.57, 0.96, 0.53, 1.42, -180.00, 90.00, 54.95, 30.31, 81.48, 0.00, -0.00, -0.00, 0.00, -0.00, -0.23, -4.42, -3.44, -0.23, 0.00
1.2582356929779053, -3.14, 1.57, 0.96, 0.53, 1.42, -180.00, 90.00, 54.95, 30.31, 81.48, 0.00, -0.00, -0.00, 0.00, -0.00, -0.19, -4.43, -3.44, -0.23, 0.00
1.3113138675689697, -3.14, 1.57, 0.96, 0.53, 1.42, -180.00, 90.00, 54.95, 30.31, 81.48, 0.00, -0.00, -0.00, 0.00, -0.00, -0.15, -4.43, -3.44, -0.23, 0.00
1.3635778427124023, -3.14, 1.57, 0.96, 0.53, 1.42, -180.00, 90.00, 54.95, 30.31, 81.48, 0.00, -0.00, -0.00, 0.00, -0.00, -0.12, -4.43, -3.44, -0.23, 0.00
1.418511152267456, -3.14, 1.57, 0.96, 0.53, 1.42, -180.00, 90.00, 54.95, 30.31, 81.48, 0.00, -0.00, -0.00, 0.00, -0.00, -0.10, -4.43, -3.44, -0.23, 0.00
1.4753403663635254, -3.14, 1.57, 0.96, 0.53, 1.42, -180.00, 90.00, 54.95, 30.31, 81.48, 0.00, -0.00, -0.00, 0.00, -0.00, -0.08, -4.44, -3.44, -0.23, 0.00
1.5286729335784912, -3.13, 1.57, 0.96, 0.53, 1.42, -179.24, 90.00, 54.95, 30.31, 81.48, 3.17, -0.00, -0.00, 0.00, -0.00, 319.67, -4.44, -3.44, -0.23, 0.00
1.582660436630249, -3.11, 1.57, 0.96, 0.53, 1.42, -177.99, 90.00, 54.95, 30.31, 81.48, 5.24, -0.00, -0.00, 0.00, -0.00, 207.91, -1.14, -0.35, 0.96, -0.00
1.6504178047180176, -3.07, 1.57, 0.96, 0.53, 1.42, -175.92, 90.00, 54.95, 30.31, 81.48, 8.68, -0.00, -0.00, 0.00, -0.00, 347.12, 4.60, 5.03, 3.03, -0.00
1.7009384632110596, -3.01, 1.57, 0.96, 0.53, 1.42, -172.73, 90.00, 54.95, 30.31, 81.47, 13.37, -0.00, -0.01, 0.00, -0.01, 472.67, 20.44, 19.88, 8.74, -0.00
1.7569382190704346, -2.96, 1.57, 0.96, 0.53, 1.42, -169.85, 90.00, 54.94, 30.31, 81.47, 12.03, -0.00, -0.02, 0.00, -0.02, -133.16, 54.66, 51.96, 21.08, -0.00
1.8179395198822021, -2.92, 1.57, 0.96, 0.53, 1.42, -167.08, 90.00, 54.94, 30.31, 81.47, 11.62, -0.00, -0.01, 0.00, -0.01, -39.96, 44.61, 42.54, 17.47, 0.00
1.8787307739257812, -2.87, 1.57, 0.96, 0.53, 1.42, -164.20, 90.00, 54.94, 30.31, 81.47, 12.05, -0.00, -0.01, 0.00, -0.01, 43.99, 41.13, 39.28, 16.21, 0.00
1.9397289752960205, -2.81, 1.57, 0.96, 0.53, 1.42, -161.05, 90.00, 54.94, 30.31, 81.46, 13.22, -0.00, -0.01, 0.00, -0.01, 119.72, 44.29, 42.24, 17.35, 0.00
1.9937286376953125, -2.74, 1.57, 0.96, 0.53, 1.42, -157.26, 90.00, 54.93, 30.31, 81.46, 15.87, -0.00, -0.01, 0.00, -0.01, 268.00, 54.08, 51.42, 20.88, -0.00
2.0582427978515625, -2.67, 1.57, 0.96, 0.53, 1.42, -153.09, 90.00, 54.93, 30.31, 81.46, 17.46, -0.00, -0.02, 0.00, -0.02, 162.00, 79.50, 75.25, 30.05, -0.00
2.130388021469116, -2.59, 1.57, 0.96, 0.53, 1.42, -148.58, 90.00, 54.92, 30.31, 81.45, 18.89, -0.00, -0.02, 0.00, -0.02, 146.49, 97.54, 92.17, 36.56, -0.00
2.2090518474578857, -2.51, 1.57, 0.96, 0.53, 1.42, -143.95, 90.00, 54.92, 30.31, 81.45, 19.38, -0.00, -0.03, 0.00, -0.02, 52.57, 115.04, 108.56, 42.88, -0.00
2.2850921154022217, -2.42, 1.57, 0.96, 0.53, 1.42, -138.65, 90.00, 54.91, 30.31, 81.44, 22.20, -0.00, -0.03, 0.00, -0.02, 287.75, 121.70, 114.82, 45.29, 0.00
2.3599202632904053, -2.32, 1.57, 0.96, 0.53, 1.42, -133.12, 90.00, 54.90, 30.31, 81.44, 23.16, -0.00, -0.04, 0.00, -0.03, 100.20, 160.23, 150.93, 59.19, -0.00
2.4349193572998047, -2.22, 1.57, 0.96, 0.53, 1.42, -127.01, 90.00, 54.89, 30.31, 81.43, 25.60, -0.00, -0.04, 0.00, -0.03, 251.09, 175.53, 165.27, 64.71, -0.00
2.5099196434020996, -2.11, 1.57, 0.96, 0.53, 1.42, -120.75, 90.00, 54.88, 30.32, 81.42, 26.22, -0.00, -0.05, 0.00, -0.04, 67.32, 214.93, 202.21, 78.93, -0.00
2.5803399085998535, -1.98, 1.57, 0.96, 0.53, 1.42, -113.23, 90.00, 54.87, 30.32, 81.41, 31.53, -0.00, -0.04, 0.00, -0.04, 541.85, 226.51, 213.07, 83.13, 0.00
2.648397445678711, -1.84, 1.57, 0.96, 0.53, 1.42, -105.69, 90.00, 54.85, 30.32, 81.39, 31.55, -0.00, -0.07, 0.01, -0.06, 10.18, 327.09, 307.35, 119.43, -0.00
2.7267661094665527, -1.71, 1.57, 0.96, 0.53, 1.42, -97.96, 90.00, 54.84, 30.32, 81.38, 32.37, -0.00, -0.07, 0.01, -0.06, 90.62, 330.61, 310.65, 120.73, 0.00
2.7963063716888428, -1.58, 1.57, 0.96, 0.53, 1.42, -90.25, 90.00, 54.82, 30.32, 81.37, 32.31, -0.00, -0.06, 0.01, -0.06, 2.58, 347.67, 326.64, 126.91, 0.00
2.8634097576141357, -1.45, 1.57, 0.96, 0.53, 1.42, -82.93, 90.00, 54.81, 30.32, 81.36, 30.66, -0.00, -0.06, 0.01, -0.05, -157.19, 346.87, 325.89, 126.64, 0.00
2.9336204528808594, -1.32, 1.57, 0.96, 0.53, 1.42, -75.78, 90.00, 54.80, 30.32, 81.35, 29.98, -0.00, -0.04, 0.00, -0.04, -61.34, 313.03, 294.16, 114.43, 0.00
3.0002636909484863, -1.19, 1.57, 0.96, 0.53, 1.42, -68.20, 90.00, 54.79, 30.33, 81.34, 31.74, -0.00, -0.03, 0.00, -0.03, 185.62, 298.40, 280.44, 109.15, 0.00
3.067465305328369, -1.05, 1.57, 0.96, 0.53, 1.42, -60.24, 90.00, 54.78, 30.33, 81.33, 33.33, -0.00, -0.04, 0.00, -0.03, 168.46, 333.52, 313.36, 121.84, -0.00
3.1717114448547363, -0.91, 1.57, 0.96, 0.53, 1.42, -52.32, 90.00, 54.77, 30.33, 81.32, 33.17, -0.00, -0.05, 0.00, -0.04, -7.16, 368.36, 346.02, 134.44, -0.00
3.2526915073394775, -0.78, 1.57, 0.96, 0.53, 1.42, -44.63, 90.00, 54.76, 30.33, 81.31, 32.23, -0.00, -0.04, 0.00, -0.04, -85.78, 365.99, 343.79, 133.60, 0.00
3.325690269470215, -0.64, 1.57, 0.96, 0.53, 1.42, -36.56, 90.00, 54.75, 30.33, 81.31, 33.77, -0.00, -0.03, 0.00, -0.03, 164.01, 345.90, 324.96, 126.35, 0.00
3.4276931285858154, -0.49, 1.57, 0.96, 0.53, 1.42, -28.17, 90.00, 54.74, 30.33, 81.30, 35.16, -0.00, -0.04, 0.00, -0.03, 149.01, 378.46, 355.48, 138.12, -0.00
3.5187642574310303, -0.34, 1.57, 0.96, 0.53, 1.42, -19.67, 90.00, 54.73, 30.33, 81.29, 35.61, -0.00, -0.05, 0.00, -0.04, 55.54, 410.67, 385.66, 149.77, -0.00
3.6309685707092285, -0.20, 1.57, 0.96, 0.53, 1.42, -11.64, 90.00, 54.72, 30.33, 81.28, 33.64, -0.00, -0.04, 0.00, -0.04, -189.72, 422.13, 396.41, 153.93, 0.00
3.729335069656372, -0.07, 1.57, 0.95, 0.53, 1.42, -3.84, 90.00, 54.72, 30.33, 81.28, 32.65, -0.00, -0.03, 0.00, -0.02, -90.43, 377.80, 354.85, 137.93, 0.00
3.803774833679199, 0.06, 1.57, 0.95, 0.53, 1.42, 3.17, 90.00, 54.71, 30.33, 81.27, 29.39, -0.00, -0.02, 0.00, -0.01, -322.51, 355.12, 333.59, 129.74, 0.00
3.8781821727752686, 0.17, 1.57, 0.95, 0.53, 1.42, 9.86, 90.00, 54.71, 30.33, 81.27, 28.04, -0.00, 0.01, -0.00, 0.01, -130.31, 288.17, 270.84, 105.55, 0.00
3.9528136253356934, 0.28, 1.57, 0.95, 0.53, 1.42, 15.89, 90.00, 54.72, 30.33, 81.28, 25.23, -0.00, 0.01, -0.00, 0.01, -278.35, 260.71, 245.10, 95.62, 0.00
4.0311877727508545, 0.38, 1.57, 0.96, 0.53, 1.42, 21.69, 90.00, 54.72, 30.33, 81.28, 24.30, -0.00, 0.03, -0.00, 0.02, -90.32, 211.03, 198.53, 77.66, 0.00
4.112517595291138, 0.48, 1.57, 0.96, 0.53, 1.42, 27.67, 90.00, 54.73, 30.33, 81.29, 25.04, -0.00, 0.03, -0.00, 0.03, 79.39, 194.34, 182.89, 71.62, 0.00
4.1965203285217285, 0.59, 1.57, 0.96, 0.53, 1.42, 33.81, 90.00, 54.74, 30.33, 81.29, 25.71, -0.00, 0.02, -0.00, 0.02, 72.05, 205.85, 193.68, 75.77, -0.00
4.275507926940918, 0.70, 1.57, 0.96, 0.53, 1.42, 39.90, 90.00, 54.74, 30.33, 81.30, 25.52, -0.00, 0.02, -0.00, 0.02, -14.77, 217.35, 204.46, 79.92, -0.00
4.345545768737793, 0.80, 1.57, 0.96, 0.53, 1.42, 45.76, 90.00, 54.75, 30.33, 81.30, 24.56, -0.00, 0.02, -0.00, 0.02, -93.15, 214.53, 201.81, 78.90, -0.00
4.419488430023193, 0.89, 1.57, 0.96, 0.53, 1.42, 51.23, 90.00, 54.75, 30.33, 81.31, 22.90, -0.00, 0.02, -0.00, 0.02, -164.02, 198.66, 186.93, 73.16, 0.00
4.490487337112427, 0.99, 1.57, 0.96, 0.53, 1.42, 56.72, 90.00, 54.76, 30.33, 81.31, 22.99, -0.00, 0.03, -0.00, 0.02, 12.87, 172.39, 162.32, 63.67, 0.00
4.5644896030426025, 1.08, 1.57, 0.96, 0.53, 1.42, 62.03, 90.00, 54.76, 30.33, 81.32, 22.28, -0.00, 0.02, -0.00, 0.02, -68.42, 172.96, 162.85, 63.87, -0.00
4.633485555648804, 1.17, 1.57, 0.96, 0.53, 1.42, 67.01, 90.00, 54.77, 30.33, 81.32, 20.84, -0.00, 0.03, -0.00, 0.02, -141.69, 162.47, 153.02, 60.08, 0.00
4.708498239517212, 1.25, 1.57, 0.96, 0.53, 1.42, 71.87, 90.00, 54.78, 30.33, 81.33, 20.34, -0.00, 0.03, -0.00, 0.03, -47.31, 141.96, 133.79, 52.66, 0.00
4.78152322769165, 1.33, 1.57, 0.96, 0.53, 1.42, 76.43, 90.00, 54.78, 30.33, 81.33, 19.10, -0.00, 0.03, -0.00, 0.02, -122.73, 134.65, 126.94, 50.02, -0.00
4.855180025100708, 1.42, 1.57, 0.96, 0.53, 1.42, 81.10, 90.00, 54.79, 30.33, 81.34, 19.57, -0.00, 0.03, -0.00, 0.03, 50.03, 118.45, 111.75, 44.16, 0.00
4.923852920532227, 1.50, 1.57, 0.96, 0.53, 1.42, 85.68, 90.00, 54.80, 30.32, 81.35, 19.20, -0.00, 0.03, -0.00, 0.02, -34.89, 123.91, 116.88, 46.13, -0.00
4.996615171432495, 1.58, 1.57, 0.96, 0.53, 1.42, 90.57, 90.00, 54.80, 30.32, 81.35, 20.46, -0.00, 0.02, -0.00, 0.02, 129.28, 119.41, 112.66, 44.51, -0.00
5.063516616821289, 1.67, 1.57, 0.96, 0.53, 1.42, 95.53, 90.00, 54.81, 30.32, 81.35, 20.79, -0.00, 0.02, -0.00, 0.01, 36.71, 135.55, 127.78, 50.33, -0.00
5.136803865432739, 1.76, 1.57, 0.96, 0.53, 1.42, 100.57, 90.00, 54.81, 30.32, 81.36, 21.10, -0.00, 0.01, -0.00, 0.01, 33.51, 140.58, 132.50, 52.14, -0.00
5.207838773727417, 1.85, 1.57, 0.96, 0.53, 1.42, 106.05, 90.00, 54.81, 30.32, 81.36, 22.95, -0.00, 0.01, -0.00, 0.01, 190.99, 144.87, 136.52, 53.69, -0.00
5.29402232170105, 1.95, 1.57, 0.96, 0.53, 1.42, 111.93, 90.00, 54.81, 30.32, 81.36, 24.63, -0.00, 0.00, -0.00, 0.00, 172.80, 171.76, 161.73, 63.40, -0.00
5.363788366317749, 2.07, 1.57, 0.96, 0.53, 1.42, 118.36, 90.00, 54.81, 30.32, 81.36, 26.93, -0.00, -0.01, 0.00, -0.01, 236.78, 198.60, 186.89, 73.10, -0.00
5.450160503387451, 2.17, 1.57, 0.96, 0.53, 1.42, 124.52, 90.00, 54.81, 30.32, 81.35, 25.82, -0.00, -0.02, 0.00, -0.02, -106.26, 238.16, 223.97, 87.38, -0.00
5.519586563110352, 2.27, 1.57, 0.96, 0.53, 1.42, 130.07, 90.00, 54.80, 30.32, 81.35, 23.24, -0.00, -0.01, 0.00, -0.01, -255.74, 220.33, 207.26, 80.95, 0.00
5.590996742248535, 2.36, 1.57, 0.96, 0.53, 1.42, 135.06, 90.00, 54.80, 30.32, 81.35, 20.92, -0.00, 0.00, -0.00, 0.00, -230.69, 178.38, 167.93, 65.80, 0.00
5.665383338928223, 2.44, 1.57, 0.96, 0.53, 1.42, 139.56, 90.00, 54.81, 30.32, 81.36, 18.82, -0.00, 0.01, -0.00, 0.01, -208.13, 143.55, 135.29, 53.22, 0.00
5.74347710609436, 2.51, 1.57, 0.96, 0.53, 1.42, 143.60, 90.00, 54.81, 30.32, 81.36, 16.94, -0.00, 0.02, -0.00, 0.02, -187.69, 115.32, 108.83, 43.03, 0.00
5.82426381111145, 2.57, 1.57, 0.96, 0.53, 1.42, 147.24, 90.00, 54.82, 30.32, 81.37, 15.25, -0.00, 0.03, -0.00, 0.02, -169.19, 92.47, 87.40, 34.77, 0.00
5.8984856605529785, 2.63, 1.57, 0.96, 0.53, 1.42, 150.52, 90.00, 54.83, 30.32, 81.37, 13.72, -0.00, 0.03, -0.00, 0.03, -152.47, 73.97, 70.06, 28.09, 0.00
5.964620351791382, 2.68, 1.57, 0.96, 0.53, 1.42, 153.46, 90.00, 54.83, 30.32, 81.38, 12.35, -0.00, 0.03, -0.00, 0.03, -137.36, 58.99, 56.02, 22.68, 0.00
6.022841691970825, 2.72, 1.57, 0.96, 0.53, 1.42, 156.12, 90.00, 54.84, 30.32, 81.38, 11.12, -0.00, 0.03, -0.00, 0.03, -123.73, 46.86, 44.65, 18.30, 0.00
6.083842754364014, 2.77, 1.57, 0.96, 0.53, 1.42, 158.51, 90.00, 54.85, 30.32, 81.39, 10.00, -0.00, 0.03, -0.00, 0.03, -111.43, 37.05, 35.45, 14.75, -0.00
6.137373685836792, 2.80, 1.57, 0.96, 0.53, 1.42, 160.66, 90.00, 54.86, 30.32, 81.40, 9.00, -0.00, 0.03, -0.00, 0.03, -100.34, 29.10, 28.01, 11.88, -0.00
6.188734292984009, 2.84, 1.57, 0.96, 0.53, 1.42, 162.59, 90.00, 54.86, 30.32, 81.40, 8.10, -0.00, 0.03, -0.00, 0.03, -90.35, 22.68, 21.98, 9.56, -0.00
6.240370035171509, 2.87, 1.57, 0.96, 0.53, 1.42, 164.33, 90.00, 54.87, 30.32, 81.41, 7.29, -0.00, 0.03, -0.00, 0.02, -81.34, 17.48, 17.10, 7.68, -0.00
6.29414176940918, 2.90, 1.57, 0.96, 0.53, 1.42, 165.90, 90.00, 54.88, 30.32, 81.42, 6.56, -0.00, 0.03, -0.00, 0.02, -73.23, 13.27, 13.16, 6.16, -0.00
6.353853940963745, 2.92, 1.57, 0.96, 0.53, 1.42, 167.31, 90.00, 54.88, 30.32, 81.42, 5.91, -0.00, 0.03, -0.00, 0.02, -65.92, 9.87, 9.97, 4.93, -0.00
6.4168548583984375, 2.94, 1.57, 0.96, 0.53, 1.42, 168.58, 90.00, 54.89, 30.32, 81.43, 5.32, -0.00, 0.02, -0.00, 0.02, -59.34, 7.11, 7.39, 3.94, -0.00
6.477853298187256, 2.96, 1.57, 0.96, 0.53, 1.42, 169.72, 90.00, 54.89, 30.31, 81.43, 4.78, -0.00, 0.02, -0.00, 0.02, -53.41, 4.89, 5.30, 3.14, -0.00
6.529852867126465, 2.98, 1.57, 0.96, 0.53, 1.42, 170.75, 90.00, 54.90, 30.31, 81.43, 4.31, -0.00, 0.02, -0.00, 0.02, -48.08, 3.09, 3.61, 2.49, -0.00
6.58678412437439, 3.00, 1.57, 0.96, 0.53, 1.42, 171.67, 90.00, 54.90, 30.31, 81.44, 3.88, -0.00, 0.02, -0.00, 0.02, -43.27, 1.63, 2.25, 1.96, -0.00
6.642153739929199, 3.01, 1.57, 0.96, 0.53, 1.42, 172.51, 90.00, 54.91, 30.31, 81.44, 3.49, -0.00, 0.02, -0.00, 0.02, -38.95, 0.45, 1.15, 1.54, -0.00
6.70284104347229, 3.02, 1.57, 0.96, 0.53, 1.42, 173.25, 90.00, 54.91, 30.31, 81.44, 3.14, -0.00, 0.02, -0.00, 0.01, -35.06, -0.52, 0.24, 1.18, -0.00
6.756547927856445, 3.04, 1.57, 0.96, 0.53, 1.42, 173.93, 90.00, 54.92, 30.31, 81.45, 2.83, 0.00, 0.01, -0.00, 0.01, -31.55, -7.92, -0.41, 0.94, -0.00
6.809545993804932, 3.05, 1.57, 0.96, 0.53, 1.42, 174.54, 90.00, 54.92, 30.31, 81.45, 2.54, -0.00, 0.01, -0.00, 0.01, -28.40, -1.92, -1.09, 0.68, -0.00
6.859360218048096, 3.06, 1.57, 0.96, 0.53, 1.42, 175.08, 90.00, 54.92, 30.31, 81.45, 2.29, -0.00, 0.01, -0.00, 0.01, -25.56, -2.38, -1.52, 0.51, -0.00
6.915554523468018, 3.06, 1.57, 0.96, 0.53, 1.42, 175.57, 90.00, 54.92, 30.31, 81.46, 2.06, -0.00, 0.01, -0.00, 0.01, -23.00, -2.79, -1.90, 0.37, -0.00
6.96288800239563, 3.07, 1.57, 0.96, 0.53, 1.42, 176.02, 90.00, 54.93, 30.31, 81.46, 1.85, -0.00, 0.01, -0.00, 0.01, -20.70, -3.11, -2.20, 0.25, -0.00
7.0128724575042725, 3.08, 1.57, 0.96, 0.53, 1.42, 176.42, 90.00, 54.93, 30.31, 81.46, 1.67, -0.00, 0.01, -0.00, 0.01, -18.63, -3.38, -2.45, 0.15, -0.00
7.068466424942017, 3.09, 1.57, 0.96, 0.53, 1.42, 176.77, 90.00, 54.93, 30.31, 81.46, 1.50, -0.00, 0.01, -0.00, 0.01, -16.77, -3.59, -2.65, 0.08, -0.00
7.121862173080444, 3.09, 1.57, 0.96, 0.53, 1.42, 177.10, 90.00, 54.93, 30.31, 81.46, 1.35, -0.00, 0.01, -0.00, 0.01, -15.09, -3.76, -2.81, 0.02, -0.00
7.179062366485596, 3.10, 1.57, 0.96, 0.53, 1.42, 177.39, 90.00, 54.93, 30.31, 81.46, 1.22, -0.00, 0.01, -0.00, 0.01, -13.58, -3.90, -2.94, -0.03, -0.00
7.232593059539795, 3.10, 1.57, 0.96, 0.53, 1.42, 177.65, 90.00, 54.94, 30.31, 81.47, 1.09, -0.00, 0.01, -0.00, 0.01, -12.23, -4.01, -3.04, -0.07, -0.00
7.279570579528809, 3.10, 1.57, 0.96, 0.53, 1.42, 177.88, 90.00, 54.94, 30.31, 81.47, 0.99, -0.00, 0.01, -0.00, 0.00, -11.00, -4.10, -3.12, -0.11, -0.00
7.3364410400390625, 3.11, 1.57, 0.96, 0.53, 1.42, 178.09, 90.00, 54.94, 30.31, 81.47, 0.89, -0.00, 0.01, -0.00, 0.00, -9.90, -4.17, -3.19, -0.13, -0.00
7.389372825622559, 3.11, 1.57, 0.96, 0.53, 1.42, 178.29, 90.00, 54.94, 30.31, 81.47, 0.80, -0.00, 0.00, -0.00, 0.00, -8.91, -4.23, -3.24, -0.15, -0.00
7.444638013839722, 3.11, 1.57, 0.96, 0.53, 1.42, 178.46, 90.00, 54.94, 30.31, 81.47, 0.72, -0.00, 0.00, -0.00, 0.00, -8.02, -4.27, -3.29, -0.17, -0.00
7.492446422576904, 3.12, 1.57, 0.96, 0.53, 1.42, 178.61, 90.00, 54.94, 30.31, 81.47, 0.65, -0.00, 0.00, -0.00, 0.00, -7.22, -4.31, -3.32, -0.18, -0.00
7.5409910678863525, 3.12, 1.57, 0.96, 0.53, 1.42, 178.75, 90.00, 54.94, 30.31, 81.47, 0.58, -0.00, 0.00, -0.00, 0.00, -6.50, -4.34, -3.35, -0.19, -0.00
7.593603134155273, 3.12, 1.57, 0.96, 0.53, 1.42, 178.87, 90.00, 54.94, 30.31, 81.47, 0.52, -0.00, 0.00, -0.00, 0.00, -5.85, -4.36, -3.37, -0.20, -0.00
7.645604133605957, 3.12, 1.57, 0.96, 0.53, 1.42, 178.99, 90.00, 54.94, 30.31, 81.47, 0.47, -0.00, 0.00, -0.00, 0.00, -5.26, -4.38, -3.39, -0.21, -0.00
7.701602935791016, 3.13, 1.57, 0.96, 0.53, 1.42, 179.09, 90.00, 54.94, 30.31, 81.47, 0.42, -0.00, 0.00, -0.00, 0.00, -4.74, -4.40, -3.40, -0.21, -0.00
7.753712177276611, 3.13, 1.57, 0.96, 0.53, 1.42, 179.18, 89.81, 54.95, 30.31, 81.48, 0.38, -0.79, 0.03, -0.00, 0.03, -4.26, -146.25, -87.52, -28.04, -0.00
7.803973197937012, 3.13, 1.56, 0.96, 0.53, 1.42, 179.26, 89.55, 54.95, 30.31, 81.48, 0.34, -1.11, 0.01, -0.00, 0.01, -3.67, -69.13, -40.06, -12.47, -0.00
7.860690116882324, 3.13, 1.56, 0.96, 0.53, 1.42, 179.34, 89.12, 54.96, 30.31, 81.49, 0.31, -1.79, 0.02, -0.00, 0.02, -3.25, -129.18, -76.96, -24.56, -0.00
7.917296648025513, 3.13, 1.55, 0.96, 0.53, 1.42, 179.40, 88.55, 54.96, 30.31, 81.49, 0.28, -2.40, 0.02, -0.00, 0.02, -2.83, -119.38, -70.78, -22.49, -0.00
7.972295761108398, 3.13, 1.53, 0.96, 0.53, 1.42, 179.46, 87.75, 54.97, 30.31, 81.50, 0.25, -3.35, 0.03, -0.00, 0.02, -2.48, -176.41, -105.75, -33.93, -0.00
8.0234215259552, 3.13, 1.52, 0.96, 0.53, 1.42, 179.52, 86.84, 54.97, 30.31, 81.50, 0.23, -3.81, 0.01, -0.00, 0.01, -2.14, -94.38, -54.05, -16.64, -0.00
8.071057558059692, 3.13, 1.50, 0.96, 0.53, 1.42, 179.56, 85.83, 54.97, 30.31, 81.50, 0.20, -4.23, 0.00, -0.00, 0.00, -1.92, -84.31, -46.87, -14.01, -0.00
8.126213550567627, 3.13, 1.48, 0.96, 0.53, 1.42, 179.61, 84.92, 54.97, 30.31, 81.49, 0.18, -3.81, -0.02, -0.00, -0.02, -1.73, 58.23, 42.33, 15.67, 0.00
8.179701805114746, 3.14, 1.47, 0.96, 0.53, 1.42, 179.65, 84.10, 54.96, 30.31, 81.49, 0.16, -3.43, -0.02, -0.00, -0.02, -1.65, 55.18, 40.39, 15.03, 0.00
8.229798555374146, 3.14, 1.45, 0.96, 0.53, 1.42, 179.68, 83.27, 54.96, 30.31, 81.49, 0.15, -3.48, -0.00, -0.00, -0.00, -1.56, -19.14, -6.37, -0.59, -0.00
8.274101972579956, 3.14, 1.44, 0.96, 0.53, 1.42, 179.71, 82.52, 54.96, 30.31, 81.48, 0.13, -3.13, -0.02, -0.00, -0.01, -1.43, 47.18, 34.54, 12.87, 0.00
8.316614151000977, 3.14, 1.43, 0.96, 0.53, 1.42, 179.74, 81.66, 54.96, 30.31, 81.49, 0.12, -3.61, 0.01, -0.00, 0.01, -1.34, -92.24, -52.29, -15.90, -0.00
8.361778259277344, 3.14, 1.41, 0.96, 0.53, 1.42, 179.77, 80.88, 54.96, 30.31, 81.48, 0.11, -3.25, -0.02, -0.00, -0.01, -1.21, 47.09, 34.24, 12.71, 0.00
8.417146444320679, 3.14, 1.40, 0.96, 0.53, 1.42, 179.79, 80.18, 54.95, 30.31, 81.48, 0.10, -2.93, -0.01, -0.00, -0.01, -1.13, 44.99, 33.05, 12.36, 0.00
8.465145826339722, 3.14, 1.39, 0.96, 0.53, 1.42, 179.81, 79.55, 54.95, 30.31, 81.48, 0.09, -2.64, -0.01, -0.00, -0.01, -1.05, 39.36, 29.13, 10.95, 0.00
8.516145706176758, 3.14, 1.38, 0.96, 0.53, 1.42, 179.83, 78.99, 54.95, 30.31, 81.48, 0.08, -2.37, -0.01, -0.00, -0.01, -0.98, 34.17, 25.53, 9.67, 0.00
8.577146291732788, 3.14, 1.37, 0.96, 0.53, 1.42, 179.85, 78.48, 54.95, 30.31, 81.47, 0.07, -2.13, -0.01, -0.00, -0.01, -0.90, 29.48, 22.32, 8.53, 0.00
8.640146493911743, 3.14, 1.36, 0.96, 0.53, 1.42, 179.86, 78.02, 54.94, 30.31, 81.47, 0.06, -1.92, -0.01, -0.00, -0.01, -0.83, 25.27, 19.45, 7.52, 0.00
8.692145347595215, 3.14, 1.35, 0.96, 0.53, 1.42, 179.88, 77.61, 54.94, 30.31, 81.47, 0.06, -1.73, -0.00, -0.00, -0.00, -0.76, 21.48, 16.89, 6.62, 0.00
8.745420455932617, 3.14, 1.35, 0.96, 0.53, 1.42, 179.89, 77.23, 54.94, 30.31, 81.47, 0.05, -1.56, -0.00, -0.00, -0.00, -0.70, 18.07, 14.59, 5.82, 0.00
8.79746150970459, 3.14, 1.34, 0.96, 0.53, 1.42, 179.90, 76.90, 54.94, 30.31, 81.47, 0.05, -1.40, -0.00, -0.00, -0.00, -0.64, 15.00, 12.54, 5.11, 0.00
8.843481063842773, 3.14, 1.34, 0.96, 0.53, 1.42, 179.91, 76.60, 54.94, 30.31, 81.47, 0.04, -1.26, -0.00, -0.00, -0.00, -0.58, 12.23, 10.71, 4.47, 0.00
8.884406805038452, 3.14, 1.33, 0.96, 0.53, 1.42, 179.92, 76.33, 54.94, 30.31, 81.47, 0.04, -1.13, -0.00, -0.00, -0.00, -0.53, 9.75, 9.06, 3.90, 0.00
8.926578044891357, 3.14, 1.33, 0.96, 0.53, 1.42, 179.93, 76.09, 54.94, 30.31, 81.47, 0.03, -1.02, -0.00, -0.00, -0.00, -0.48, 7.51, 7.59, 3.40, 0.00
8.965554475784302, 3.14, 1.32, 0.96, 0.53, 1.42, 179.93, 75.87, 54.94, 30.31, 81.47, 0.03, -0.92, 0.00, -0.00, 0.00, -0.44, 5.50, 6.27, 2.94, 0.00
9.01000428199768, 3.14, 1.32, 0.96, 0.53, 1.42, 179.94, 75.67, 54.94, 30.31, 81.47, 0.03, -0.83, 0.00, -0.00, 0.00, -0.40, 3.69, 5.09, 2.54, 0.00
9.05583930015564, 3.14, 1.32, 0.96, 0.53, 1.42, 179.95, 75.49, 54.94, 30.31, 81.47, 0.02, -0.74, 0.00, -0.00, 0.00, -0.36, 2.06, 4.02, 2.17, 0.00
9.097326278686523, 3.12, 1.31, 0.96, 0.53, 1.42, 178.82, 75.33, 54.94, 30.31, 81.47, -4.74, -0.67, 0.00, -0.00, 0.00, -646.61, 0.59, 3.07, 1.85, 0.00
9.139629125595093, 3.10, 1.31, 0.96, 0.53, 1.42, 177.80, 75.19, 54.94, 30.31, 81.47, -4.27, -0.60, -0.00, -0.00, -0.00, 62.56, 4.53, 9.32, 4.73, 0.00
9.189953565597534, 3.09, 1.31, 0.96, 0.53, 1.42, 176.88, 75.06, 54.94, 30.31, 81.47, -3.84, -0.54, -0.00, -0.00, -0.00, 56.59, 2.61, 7.42, 3.95, 0.00
9.228219270706177, 3.06, 1.31, 0.96, 0.53, 1.42, 175.49, 74.94, 54.94, 30.31, 81.47, -5.84, -0.49, 0.00, -0.00, 0.00, -274.10, 0.68, 5.60, 3.21, 0.00
9.271750926971436, 3.04, 1.31, 0.96, 0.53, 1.42, 174.23, 74.84, 54.94, 30.31, 81.47, -5.25, -0.44, -0.00, -0.00, -0.00, 77.97, 4.14, 11.06, 5.73, 0.00
9.313804626464844, 3.02, 1.30, 0.96, 0.53, 1.42, 172.92, 74.74, 54.94, 30.31, 81.47, -5.52, -0.40, -0.00, -0.00, -0.00, -38.35, 2.00, 8.64, 4.70, 0.00
9.355326890945435, 3.00, 1.30, 0.96, 0.53, 1.42, 171.73, 74.66, 54.94, 30.31, 81.47, -4.97, -0.36, -0.00, -0.00, -0.00, 74.25, 1.80, 8.99, 4.92, 0.00
9.402713298797607, 2.97, 1.30, 0.96, 0.53, 1.42, 170.28, 74.58, 54.94, 30.31, 81.47, -6.06, -0.32, 0.00, -0.00, 0.00, -151.11, -0.22, 6.73, 3.96, 0.00
9.456714153289795, 2.95, 1.30, 0.96, 0.53, 1.42, 168.79, 74.51, 54.94, 30.31, 81.47, -6.25, -0.29, -0.00, -0.00, -0.00, -27.32, 1.83, 10.07, 5.51, 0.00
9.496712684631348, 2.92, 1.30, 0.96, 0.53, 1.42, 167.07, 74.45, 54.94, 30.31, 81.47, -7.21, -0.26, -0.00, -0.00, -0.00, -134.03, 1.93, 10.55, 5.76, 0.00
9.543712139129639, 2.89, 1.30, 0.96, 0.53, 1.42, 165.52, 74.40, 54.94, 30.31, 81.47, -6.49, -0.23, -0.00, -0.00, -0.00, 97.74, 4.40, 14.34, 7.50, 0.00
9.586448669433594, 2.86, 1.30, 0.96, 0.53, 1.42, 163.94, 74.35, 54.94, 30.31, 81.47, -6.63, -0.21, -0.00, -0.00, -0.00, -21.34, 1.83, 11.05, 6.05, 0.00
9.625272035598755, 2.82, 1.30, 0.96, 0.53, 1.42, 161.75, 74.30, 54.94, 30.31, 81.47, -9.14, -0.19, -0.00, -0.00, -0.00, -348.06, 1.71, 11.29, 6.20, 0.00
9.667882680892944, 2.78, 1.30, 0.96, 0.53, 1.42, 159.03, 74.26, 54.94, 30.31, 81.47, -11.41, -0.17, -0.00, -0.00, -0.00, -314.26, 10.39, 23.58, 11.76, 0.00
9.709882497787476, 2.73, 1.30, 0.96, 0.53, 1.42, 156.39, 74.22, 54.94, 30.31, 81.47, -11.06, -0.15, -0.01, -0.00, -0.01, 45.26, 21.12, 38.42, 18.44, 0.00
9.769433975219727, 2.68, 1.29, 0.96, 0.53, 1.42, 153.45, 74.19, 54.94, 30.31, 81.47, -12.33, -0.14, -0.01, -0.00, -0.01, -178.89, 19.61, 36.22, 17.45, 0.00
9.840433597564697, 2.63, 1.29, 0.96, 0.53, 1.42, 150.80, 74.16, 54.94, 30.31, 81.46, -11.10, -0.13, -0.01, -0.00, -0.01, 167.82, 26.01, 45.39, 21.61, 0.00
9.892433404922485, 2.58, 1.29, 0.96, 0.53, 1.42, 147.65, 74.13, 54.93, 30.31, 81.46, -13.16, -0.11, -0.00, -0.00, -0.00, -288.24, 19.54, 36.39, 17.56, 0.00
9.93703317642212, 2.52, 1.29, 0.96, 0.53, 1.42, 144.45, 74.11, 54.93, 30.31, 81.46, -13.44, -0.10, -0.01, -0.00, -0.01, -40.53, 30.30, 51.78, 24.54, 0.00
9.982676267623901, 2.47, 1.29, 0.96, 0.53, 1.42, 141.37, 74.09, 54.93, 30.31, 81.46, -12.89, -0.09, -0.01, -0.00, -0.01, 73.13, 32.32, 54.39, 25.71, 0.00
10.031660079956055, 2.42, 1.29, 0.96, 0.53, 1.42, 138.60, 74.07, 54.93, 30.31, 81.46, -11.60, -0.08, -0.01, -0.00, -0.01, 175.82, 28.94, 49.78, 23.64, 0.00
10.077164888381958, 2.37, 1.29, 0.96, 0.53, 1.42, 135.54, 74.05, 54.93, 30.31, 81.46, -12.82, -0.07, -0.00, -0.00, -0.00, -171.64, 21.42, 39.58, 19.06, 0.00
10.127798318862915, 2.31, 1.29, 0.96, 0.53, 1.42, 132.22, 74.03, 54.93, 30.31, 81.46, -13.92, -0.07, -0.00, -0.00, -0.00, -155.08, 27.59, 48.57, 23.16, 0.00
10.179606199264526, 2.25, 1.29, 0.96, 0.53, 1.42, 129.04, 74.02, 54.93, 30.31, 81.46, -13.32, -0.06, -0.01, -0.00, -0.01, 79.98, 34.45, 58.03, 27.42, 0.00
10.2287757396698, 2.20, 1.29, 0.96, 0.53, 1.42, 126.18, 74.00, 54.93, 30.31, 81.45, -11.99, -0.05, -0.00, -0.00, -0.00, 182.07, 31.01, 53.10, 25.19, 0.00
10.278567552566528, 2.15, 1.29, 0.96, 0.53, 1.42, 123.03, 73.99, 54.92, 30.31, 81.45, -13.17, -0.05, -0.00, -0.00, -0.00, -166.35, 23.06, 42.24, 20.31, 0.00
10.325259923934937, 2.09, 1.29, 0.96, 0.53, 1.42, 119.82, 73.98, 54.92, 30.31, 81.45, -13.44, -0.04, -0.00, -0.00, -0.00, -40.12, 29.24, 51.22, 24.40, 0.00
10.37703251838684, 2.03, 1.29, 0.96, 0.53, 1.42, 116.56, 73.97, 54.92, 30.31, 81.45, -13.68, -0.04, -0.00, -0.00, -0.00, -36.46, 31.12, 53.71, 25.51, 0.00
10.430468559265137, 1.98, 1.29, 0.96, 0.53, 1.42, 113.24, 73.96, 54.92, 30.31, 81.45, -13.90, -0.04, -0.00, -0.00, -0.00, -33.14, 32.62, 55.82, 26.47, 0.00
10.474467277526855, 1.92, 1.29, 0.96, 0.53, 1.42, 110.25, 73.96, 54.92, 30.31, 81.45, -12.51, -0.03, -0.00, -0.00, -0.00, 190.30, 33.99, 57.74, 27.34, 0.00
10.519049167633057, 1.88, 1.29, 0.96, 0.53, 1.42, 107.56, 73.95, 54.92, 30.31, 81.45, -11.26, -0.03, -0.00, -0.00, -0.00, 171.51, 25.70, 46.17, 22.12, 0.00
10.560200691223145, 1.83, 1.29, 0.96, 0.53, 1.42, 104.58, 73.94, 54.92, 30.31, 81.45, -12.52, -0.03, 0.00, -0.00, 0.00, -176.19, 18.45, 36.40, 17.73, 0.00
10.603403091430664, 1.77, 1.29, 0.96, 0.53, 1.42, 101.51, 73.94, 54.92, 30.31, 81.45, -12.85, -0.02, -0.00, -0.00, -0.00, -48.85, 24.73, 45.47, 21.86, -0.00
10.648346424102783, 1.72, 1.29, 0.96, 0.53, 1.42, 98.75, 73.93, 54.92, 30.31, 81.45, -11.57, -0.02, -0.00, -0.00, -0.00, 176.24, 26.97, 48.41, 23.17, 0.00
10.687796115875244, 1.68, 1.29, 0.96, 0.53, 1.42, 96.07, 73.93, 54.92, 30.31, 81.45, -11.20, -0.02, 0.00, -0.00, 0.00, 48.53, 19.97, 38.58, 18.72, 0.00
10.730583190917969, 1.63, 1.29, 0.96, 0.53, 1.42, 93.29, 73.93, 54.92, 30.31, 81.45, -11.67, -0.02, 0.00, -0.00, 0.00, -66.66, 17.67, 35.64, 17.42, 0.00
10.768942832946777, 1.58, 1.29, 0.96, 0.53, 1.42, 90.59, 73.92, 54.92, 30.31, 81.45, -11.30, -0.01, 0.00, -0.00, 0.00, 49.99, 19.92, 38.90, 18.90, -0.00
10.812048435211182, 1.53, 1.29, 0.96, 0.53, 1.42, 87.78, 73.92, 54.92, 30.31, 81.45, -11.75, -0.01, 0.00, -0.00, 0.00, -65.38, 18.09, 36.28, 17.72, 0.00
10.861622333526611, 1.48, 1.29, 0.96, 0.53, 1.42, 85.07, 73.92, 54.92, 30.31, 81.45, -11.37, -0.01, 0.00, -0.00, 0.00, 51.16, 20.34, 39.51, 19.18, -0.00
10.90809965133667, 1.42, 1.29, 0.96, 0.53, 1.42, 81.49, 73.91, 54.92, 30.31, 81.45, -15.00, -0.01, 0.00, -0.00, 0.00, -505.57, 18.45, 36.81, 17.96, 0.00
10.957098245620728, 1.35, 1.29, 0.96, 0.53, 1.42, 77.32, 73.91, 54.92, 30.31, 81.45, -17.47, -0.01, -0.01, -0.00, -0.01, -346.07, 39.87, 66.85, 31.55, -0.00
11.015322923660278, 1.27, 1.29, 0.96, 0.53, 1.42, 72.81, 73.91, 54.92, 30.31, 81.45, -18.89, -0.01, -0.01, -0.00, -0.01, -202.53, 59.12, 93.04, 43.32, -0.00
11.06432294845581, 1.19, 1.29, 0.96, 0.53, 1.42, 67.99, 73.90, 54.91, 30.31, 81.44, -20.18, -0.01, -0.02, -0.00, -0.01, -183.42, 71.85, 110.20, 51.02, -0.00
11.111323356628418, 1.10, 1.29, 0.96, 0.53, 1.42, 63.08, 73.90, 54.91, 30.31, 81.44, -20.54, -0.01, -0.02, -0.00, -0.02, -55.89, 83.82, 126.54, 58.38, -0.00
11.1602201461792, 1.02, 1.29, 0.96, 0.53, 1.42, 58.29, 73.90, 54.91, 30.31, 81.44, -20.08, -0.01, -0.02, -0.00, -0.02, 59.30, 87.77, 131.67, 60.67, 0.00
11.210748672485352, 0.94, 1.29, 0.96, 0.53, 1.42, 53.60, 73.90, 54.90, 30.31, 81.43, -19.66, -0.01, -0.01, -0.00, -0.01, 53.06, 83.66, 125.82, 58.02, 0.00
11.26240062713623, 0.85, 1.29, 0.96, 0.53, 1.42, 48.81, 73.90, 54.90, 30.31, 81.43, -20.07, -0.01, -0.01, -0.00, -0.01, -62.90, 79.61, 120.35, 55.56, 0.00
11.312281608581543, 0.77, 1.29, 0.96, 0.53, 1.42, 44.12, 73.89, 54.90, 30.31, 81.43, -19.65, -0.01, -0.01, -0.00, -0.01, 53.11, 83.07, 125.36, 57.84, 0.00
11.363279819488525, 0.68, 1.29, 0.96, 0.53, 1.42, 38.76, 73.89, 54.89, 30.31, 81.43, -22.45, -0.01, -0.01, -0.00, -0.01, -394.11, 79.49, 120.24, 55.52, 0.00
11.433570384979248, 0.57, 1.29, 0.96, 0.53, 1.42, 32.61, 73.89, 54.89, 30.31, 81.42, -25.76, -0.01, -0.02, -0.00, -0.02, -467.02, 105.76, 157.18, 72.24, -0.00
11.518487215042114, 0.45, 1.29, 0.96, 0.53, 1.42, 25.56, 73.89, 54.88, 30.31, 81.41, -29.53, -0.01, -0.03, -0.00, -0.03, -533.51, 143.16, 208.61, 95.43, -0.00
11.595438718795776, 0.30, 1.29, 0.96, 0.53, 1.42, 16.94, 73.89, 54.87, 30.31, 81.40, -36.10, -0.01, -0.04, -0.00, -0.04, -925.61, 192.17, 275.93, 125.78, -0.00
11.677584648132324, 0.13, 1.29, 0.96, 0.53, 1.42, 7.48, 73.88, 54.85, 30.31, 81.39, -39.64, -0.02, -0.07, -0.00, -0.07, -508.60, 291.89, 413.89, 188.06, -0.00
11.747816324234009, -0.05, 1.29, 0.96, 0.53, 1.42, -2.93, 73.88, 54.83, 30.31, 81.37, -43.61, -0.02, -0.09, -0.00, -0.09, -574.31, 357.53, 502.39, 227.84, -0.00
11.823028802871704, -0.28, 1.29, 0.96, 0.53, 1.42, -15.90, 73.87, 54.81, 30.31, 81.34, -54.33, -0.03, -0.11, -0.00, -0.10, -1518.92, 435.28, 609.22, 276.07, -0.00
11.888572216033936, -0.51, 1.29, 0.96, 0.53, 1.42, -29.47, 73.86, 54.76, 30.31, 81.30, -56.83, -0.04, -0.18, -0.00, -0.17, -388.48, 675.30, 943.09, 427.09, -0.00
11.950220584869385, -0.75, 1.29, 0.95, 0.53, 1.42, -43.20, 73.85, 54.72, 30.31, 81.26, -57.50, -0.04, -0.19, -0.00, -0.18, -139.14, 750.73, 1040.77, 470.84, -0.00
12.018219709396362, -0.99, 1.29, 0.95, 0.53, 1.42, -56.88, 73.84, 54.67, 30.31, 81.22, -57.30, -0.04, -0.18, -0.00, -0.17, -20.44, 771.07, 1067.40, 482.98, 0.00
12.077220916748047, -1.21, 1.29, 0.95, 0.53, 1.42, -69.19, 73.83, 54.64, 30.31, 81.18, -51.57, -0.04, -0.16, -0.00, -0.15, 754.36, 766.42, 1060.83, 480.20, 0.00
12.144220113754272, -1.40, 1.29, 0.95, 0.53, 1.42, -80.27, 73.82, 54.61, 30.31, 81.16, -46.42, -0.02, -0.09, -0.00, -0.09, 683.65, 625.68, 863.90, 391.10, 0.00
12.210222244262695, -1.58, 1.29, 0.95, 0.53, 1.42, -90.24, 73.82, 54.60, 30.31, 81.15, -41.77, -0.01, -0.04, -0.00, -0.04, 620.68, 504.02, 698.50, 316.59, 0.00
12.286218166351318, -1.73, 1.29, 0.95, 0.53, 1.42, -99.22, 73.82, 54.60, 30.31, 81.15, -37.60, -0.00, -0.00, -0.00, -0.00, 562.62, 405.34, 564.38, 256.13, 0.00
12.37409257888794, -1.87, 1.29, 0.95, 0.53, 1.42, -107.30, 73.82, 54.61, 30.31, 81.16, -33.84, 0.00, 0.03, -0.00, 0.02, 509.28, 325.49, 455.79, 207.15, 0.00
12.465422868728638, -2.00, 1.29, 0.95, 0.53, 1.42, -114.57, 73.82, 54.62, 30.31, 81.17, -30.45, 0.01, 0.05, -0.00, 0.04, 460.49, 260.87, 367.87, 167.48, 0.00
12.544540882110596, -2.11, 1.29, 0.95, 0.53, 1.42, -121.11, 73.83, 54.63, 30.31, 81.18, -27.41, 0.01, 0.06, -0.00, 0.06, 415.99, 208.58, 296.68, 135.35, 0.00
12.625911474227905, -2.22, 1.29, 0.95, 0.53, 1.42, -127.00, 73.83, 54.65, 30.31, 81.20, -24.67, 0.01, 0.07, -0.00, 0.07, 375.53, 166.26, 239.05, 109.33, 0.00
12.70624327659607, -2.31, 1.29, 0.95, 0.53, 1.42, -132.30, 73.83, 54.67, 30.31, 81.21, -22.20, 0.02, 0.07, -0.00, 0.07, 338.80, 132.01, 192.39, 88.27, 0.00
12.793375968933105, -2.39, 1.29, 0.95, 0.53, 1.42, -137.07, 73.84, 54.69, 30.31, 81.23, -19.98, 0.02, 0.08, -0.00, 0.07, 305.51, 104.30, 154.62, 71.22, 0.00
12.861879825592041, -2.47, 1.29, 0.95, 0.53, 1.42, -141.36, 73.84, 54.70, 30.31, 81.25, -17.98, 0.02, 0.08, -0.00, 0.07, 275.40, 81.87, 124.05, 57.41, 0.00
12.927883386611938, -2.53, 1.29, 0.96, 0.53, 1.42, -145.23, 73.85, 54.72, 30.31, 81.26, -16.18, 0.02, 0.08, -0.00, 0.07, 248.17, 63.72, 99.30, 46.24, -0.00
12.981589317321777, -2.60, 1.29, 0.96, 0.53, 1.42, -148.70, 73.85, 54.74, 30.31, 81.28, -14.57, 0.02, 0.07, -0.00, 0.07, 223.58, 49.04, 79.26, 37.20, -0.00
