sulimanbadour1/Project_S/control/InverseKinematics/robot_joint_data.csv
Time, Joint 1 Angle (Rad), Joint 2 Angle (Rad), Joint 3 Angle (Rad), Joint 4 Angle (Rad), Joint 5 Angle (Rad), Joint 1 Angle (Deg), Joint 2 Angle (Deg), Joint 3 Angle (Deg), Joint 4 Angle (Deg), Joint 5 Angle (Deg), Joint 1 Vel, Joint 2 Vel, Joint 3 Vel, Joint 4 Vel, Joint 5 Vel, Joint 1 Eff, Joint 2 Eff, Joint 3 Eff, Joint 4 Eff, Joint 5 Eff
0.0, -3.14, 1.57, 0.96, 0.53, 1.42, -179.91, 89.95, 54.95, 30.31, 81.47, 0.00, 0.00, 0.00, 0.00, 0.00, -0.00, -12.56, -3.60, -0.21, 0.00
0.059119224548339844, -3.14, 1.57, 0.96, 0.53, 1.42, -179.91, 89.95, 54.95, 30.31, 81.47, -0.00, 0.00, 0.00, -0.00, 0.00, -0.00, -12.71, -3.71, -0.25, 0.00
0.1093282699584961, -3.14, 1.57, 0.96, 0.53, 1.42, -179.91, 89.95, 54.95, 30.31, 81.47, -0.00, 0.00, 0.00, -0.00, 0.00, 0.00, -12.71, -3.71, -0.25, -0.00
0.15999317169189453, -3.14, 1.57, 0.96, 0.53, 1.42, -179.91, 89.95, 54.95, 30.31, 81.47, -0.00, 0.00, 0.00, -0.00, 0.00, 0.00, -12.71, -3.71, -0.25, -0.00
0.2082223892211914, -3.14, 1.57, 0.96, 0.53, 1.42, -179.91, 89.95, 54.95, 30.31, 81.47, -0.00, 0.00, 0.00, -0.00, 0.00, 0.00, -12.71, -3.71, -0.25, -0.00
0.26088595390319824, -3.14, 1.57, 0.96, 0.53, 1.42, -179.91, 89.95, 54.95, 30.31, 81.47, -0.00, 0.00, 0.00, -0.00, 0.00, 0.00, -12.71, -3.71, -0.25, -0.00
0.3093109130859375, -3.14, 1.57, 0.96, 0.53, 1.42, -179.91, 89.95, 54.95, 30.31, 81.47, -0.00, 0.00, 0.00, -0.00, 0.00, 0.00, -12.71, -3.71, -0.25, -0.00
0.35503196716308594, -3.14, 1.57, 0.96, 0.53, 1.42, -179.91, 89.95, 54.95, 30.31, 81.47, -0.00, 0.00, 0.00, -0.00, 0.00, 0.00, -12.71, -3.71, -0.25, -0.00
0.3997316360473633, -3.14, 1.57, 0.96, 0.53, 1.42, -179.91, 89.95, 54.95, 30.31, 81.47, -0.00, 0.00, 0.00, -0.00, 0.00, 0.00, -12.71, -3.71, -0.25, -0.00
0.4460594654083252, -3.14, 1.57, 0.96, 0.53, 1.42, -179.91, 89.95, 54.95, 30.31, 81.47, -0.00, 0.00, 0.00, -0.00, 0.00, 0.00, -12.71, -3.70, -0.25, -0.00
0.4910593032836914, -3.14, 1.57, 0.96, 0.53, 1.42, -179.91, 89.95, 54.95, 30.31, 81.47, -0.00, 0.00, 0.00, -0.00, 0.00, 0.00, -12.71, -3.70, -0.25, -0.00
0.5360596179962158, -3.14, 1.57, 0.96, 0.53, 1.42, -179.91, 89.95, 54.95, 30.31, 81.47, -0.00, 0.00, 0.00, -0.00, 0.00, 0.00, -12.71, -3.70, -0.25, -0.00
0.582059383392334, -3.14, 1.57, 0.96, 0.53, 1.42, -179.91, 89.95, 54.95, 30.31, 81.47, -0.00, 0.00, 0.00, -0.00, 0.00, 0.00, -12.70, -3.70, -0.25, -0.00
0.6320595741271973, -3.14, 1.57, 0.96, 0.53, 1.42, -179.91, 89.95, 54.95, 30.31, 81.47, -0.00, 0.00, 0.00, -0.00, 0.00, 0.00, -12.70, -3.70, -0.25, -0.00
0.6790595054626465, -3.14, 1.57, 0.96, 0.53, 1.42, -179.91, 89.95, 54.95, 30.31, 81.47, -0.00, 0.00, 0.00, -0.00, 0.00, 0.00, -12.70, -3.70, -0.25, -0.00
0.7285771369934082, -3.14, 1.57, 0.96, 0.53, 1.42, -179.91, 89.95, 54.95, 30.31, 81.47, -0.00, 0.00, 0.00, -0.00, 0.00, 0.00, -12.70, -3.70, -0.25, -0.00
0.7785766124725342, -3.14, 1.57, 0.96, 0.53, 1.42, -179.91, 89.95, 54.95, 30.31, 81.47, -0.00, 0.00, 0.00, -0.00, 0.00, 0.00, -12.70, -3.70, -0.25, -0.00
0.8339235782623291, -3.14, 1.57, 0.96, 0.53, 1.42, -179.91, 89.95, 54.95, 30.31, 81.47, -0.00, 0.00, 0.00, -0.00, 0.00, 0.00, -12.70, -3.70, -0.25, -0.00
0.8769218921661377, -3.14, 1.57, 0.96, 0.53, 1.42, -179.91, 89.95, 54.95, 30.31, 81.47, -0.00, 0.00, 0.00, -0.00, 0.00, 0.00, -12.70, -3.70, -0.25, -0.00
0.9219200611114502, -3.14, 1.57, 0.96, 0.53, 1.42, -179.91, 89.95, 54.95, 30.31, 81.47, -0.00, 0.00, 0.00, -0.00, 0.00, 0.00, -12.70, -3.70, -0.25, -0.00
0.9719550609588623, -3.14, 1.57, 0.96, 0.53, 1.42, -179.91, 89.95, 54.95, 30.31, 81.47, -0.00, 0.00, 0.00, -0.00, 0.00, 0.00, -12.70, -3.70, -0.25, -0.00
1.0205509662628174, -3.14, 1.57, 0.96, 0.53, 1.42, -179.91, 89.95, 54.95, 30.31, 81.47, -0.00, 0.00, 0.00, -0.00, 0.00, 0.00, -12.70, -3.70, -0.25, -0.00
1.0695500373840332, -3.14, 1.57, 0.96, 0.53, 1.42, -179.91, 89.95, 54.95, 30.31, 81.47, -0.00, 0.00, 0.00, -0.00, 0.00, 0.00, -12.70, -3.70, -0.25, -0.00
1.1155502796173096, -3.14, 1.57, 0.96, 0.53, 1.42, -179.91, 89.95, 54.95, 30.31, 81.47, -0.00, 0.00, 0.00, -0.00, 0.00, 0.00, -12.70, -3.70, -0.25, -0.00
1.1650667190551758, -3.14, 1.57, 0.96, 0.53, 1.42, -179.91, 89.95, 54.95, 30.31, 81.47, -0.00, 0.00, 0.00, -0.00, 0.00, 0.00, -12.70, -3.70, -0.25, -0.00
1.2147583961486816, -3.14, 1.57, 0.96, 0.53, 1.42, -179.91, 89.95, 54.95, 30.31, 81.47, -0.00, 0.00, 0.00, -0.00, 0.00, 0.00, -12.70, -3.70, -0.25, -0.00
1.2594828605651855, -3.14, 1.57, 0.96, 0.53, 1.42, -179.91, 89.95, 54.95, 30.31, 81.47, -0.00, 0.00, 0.00, -0.00, 0.00, 0.00, -12.70, -3.70, -0.25, -0.00
1.303779125213623, -3.14, 1.57, 0.96, 0.53, 1.42, -179.91, 89.95, 54.95, 30.31, 81.47, -0.00, 0.00, 0.00, -0.00, 0.00, 0.00, -12.70, -3.70, -0.25, -0.00
1.350780963897705, -3.14, 1.57, 0.96, 0.53, 1.42, -179.91, 89.95, 54.95, 30.31, 81.47, -0.00, 0.00, 0.00, -0.00, 0.00, 0.00, -12.70, -3.70, -0.25, -0.00
1.3947579860687256, -3.14, 1.57, 0.96, 0.53, 1.42, -179.91, 89.95, 54.95, 30.31, 81.47, -0.00, 0.00, 0.00, -0.00, 0.00, 0.00, -12.70, -3.70, -0.25, -0.00
1.4394564628601074, -3.14, 1.57, 0.96, 0.53, 1.42, -179.91, 89.95, 54.95, 30.31, 81.47, -0.00, 0.00, 0.00, -0.00, 0.00, 0.00, -12.70, -3.70, -0.25, -0.00
1.4873600006103516, -3.14, 1.57, 0.96, 0.53, 1.40, -179.91, 89.95, 54.95, 30.31, 80.24, -0.00, 0.00, 0.00, -0.00, -5.16, 0.00, -12.70, -3.70, -0.25, -0.00
1.5343916416168213, -3.14, 1.57, 0.96, 0.53, 1.30, -179.91, 89.95, 54.95, 30.31, 74.59, -0.00, 0.00, 0.00, -0.00, -23.69, 0.00, -12.70, -3.70, -0.25, -0.00
1.582390546798706, -3.14, 1.57, 0.96, 0.53, 1.14, -179.91, 89.95, 54.95, 30.31, 65.33, -0.00, 0.00, 0.00, -0.00, -38.78, 0.00, -12.70, -3.70, -0.25, -0.00
1.6304309368133545, -3.14, 1.57, 0.96, 0.53, 0.95, -179.91, 89.95, 54.95, 30.31, 54.25, -0.00, 0.00, 0.00, -0.00, -46.41, 0.00, -12.70, -3.70, -0.25, -0.00
1.6774308681488037, -3.14, 1.57, 0.96, 0.53, 0.74, -179.91, 89.95, 54.95, 30.31, 42.29, -0.00, 0.00, 0.00, -0.00, -50.10, 0.00, -12.70, -3.70, -0.25, -0.00
1.724431037902832, -3.14, 1.57, 0.96, 0.53, 0.53, -179.91, 89.95, 54.95, 30.31, 30.48, -0.00, 0.00, 0.00, -0.00, -49.46, -0.00, -12.70, -3.70, -0.25, 0.00
1.778430700302124, -3.14, 1.57, 0.96, 0.53, 0.34, -179.91, 89.95, 54.95, 30.31, 19.66, -0.00, 0.00, 0.00, -0.00, -45.31, -0.00, -12.70, -3.70, -0.25, 0.00
1.8284728527069092, -3.14, 1.57, 0.96, 0.53, 0.17, -179.91, 89.95, 54.95, 30.31, 9.93, -0.00, 0.00, 0.00, -0.00, -40.78, -0.00, -12.70, -3.70, -0.25, 0.00
1.8774678707122803, -3.14, 1.57, 0.96, 0.53, 0.02, -179.91, 89.95, 54.95, 30.31, 0.88, -0.00, 0.00, 0.00, -0.00, -37.89, -0.00, -12.70, -3.70, -0.25, 0.00
1.9284653663635254, -3.14, 1.57, 0.96, 0.53, -0.14, -179.91, 89.95, 54.95, 30.31, -8.21, -0.00, 0.00, 0.00, -0.00, -38.07, 0.00, -12.70, -3.70, -0.25, -0.00
1.975466251373291, -3.14, 1.57, 0.96, 0.53, -0.29, -179.91, 89.95, 54.95, 30.31, -16.39, -0.00, 0.00, 0.00, -0.00, -34.26, -0.00, -12.70, -3.70, -0.25, 0.00
2.0274674892425537, -3.14, 1.57, 0.96, 0.53, -0.41, -179.91, 89.95, 54.95, 30.31, -23.75, -0.00, 0.00, 0.00, -0.00, -30.84, -0.00, -12.70, -3.70, -0.25, 0.00
2.076465606689453, -3.14, 1.57, 0.96, 0.53, -0.48, -179.91, 89.95, 54.95, 30.31, -27.34, -0.00, 0.00, 0.00, -0.00, -15.05, -0.00, -12.70, -3.70, -0.25, 0.00
2.122466802597046, -3.14, 1.57, 0.96, 0.53, -0.43, -179.91, 89.95, 54.95, 30.31, -24.89, -0.00, 0.00, 0.00, -0.00, 10.26, -0.00, -12.70, -3.70, -0.25, 0.00
2.17146635055542, -3.14, 1.57, 0.96, 0.53, -0.34, -179.91, 89.95, 54.95, 30.31, -19.37, -0.00, 0.00, 0.00, -0.00, 23.12, -0.00, -12.70, -3.70, -0.25, 0.00
2.219468593597412, -3.14, 1.57, 0.96, 0.53, -0.20, -179.91, 89.95, 54.95, 30.31, -11.18, -0.00, 0.00, 0.00, -0.00, 34.30, -0.00, -12.70, -3.70, -0.25, 0.00
2.2892448902130127, -3.14, 1.57, 0.96, 0.53, -0.02, -179.91, 89.95, 54.95, 30.31, -1.06, -0.00, 0.00, 0.00, -0.00, 42.38, -0.00, -12.70, -3.70, -0.25, 0.00
2.3492424488067627, -3.14, 1.57, 0.96, 0.53, 0.14, -179.91, 89.95, 54.95, 30.31, 8.04, -0.00, 0.00, 0.00, -0.00, 38.14, 0.00, -12.70, -3.70, -0.25, -0.00
2.3932437896728516, -3.14, 1.57, 0.96, 0.53, 0.28, -179.91, 89.95, 54.95, 30.31, 16.24, -0.00, 0.00, 0.00, -0.00, 34.33, 0.00, -12.70, -3.70, -0.25, -0.00
2.437243700027466, -3.14, 1.57, 0.96, 0.53, 0.41, -179.91, 89.95, 54.95, 30.31, 23.62, -0.00, 0.00, 0.00, -0.00, 30.90, 0.00, -12.70, -3.70, -0.25, -0.00
2.483242988586426, -3.14, 1.57, 0.96, 0.53, 0.39, -179.91, 89.95, 54.95, 30.31, 22.20, -0.00, 0.00, 0.00, -0.00, -5.92, 0.01, -12.70, -3.70, -0.25, -0.01
2.5272438526153564, -3.14, 1.57, 0.96, 0.53, 0.20, -179.91, 89.95, 54.95, 30.31, 11.27, -0.00, 0.00, 0.00, -0.00, -45.81, 0.01, -12.70, -3.70, -0.25, -0.01
2.576894521713257, -3.14, 1.57, 0.96, 0.53, 0.02, -179.91, 89.95, 54.95, 30.31, 1.14, -0.00, 0.00, 0.00, -0.00, -42.42, -0.00, -12.70, -3.70, -0.25, 0.00
2.6233179569244385, -3.14, 1.57, 0.96, 0.53, -0.14, -179.91, 89.95, 54.95, 30.31, -7.98, -0.00, 0.00, 0.00, -0.00, -38.18, -0.00, -12.70, -3.70, -0.25, 0.00
2.670351028442383, -3.14, 1.57, 0.96, 0.53, -0.23, -179.91, 89.95, 54.95, 30.31, -12.96, -0.00, 0.00, 0.00, -0.00, -20.87, -0.00, -12.70, -3.70, -0.25, 0.00
2.7210164070129395, -3.14, 1.57, 0.96, 0.53, -0.05, -179.91, 89.95, 54.95, 30.31, -2.66, -0.00, 0.00, 0.00, -0.00, 43.13, -0.01, -12.70, -3.70, -0.25, 0.01
2.7717413902282715, -3.14, 1.57, 0.96, 0.53, 0.12, -179.91, 89.95, 54.95, 30.31, 6.61, -0.00, 0.00, 0.00, -0.00, 38.81, 0.00, -12.70, -3.70, -0.25, -0.00
2.818739652633667, -3.14, 1.57, 0.96, 0.53, 0.26, -179.91, 89.95, 54.95, 30.31, 14.94, -0.00, 0.00, 0.00, -0.00, 34.93, 0.00, -12.70, -3.70, -0.25, -0.00
2.8667402267456055, -3.14, 1.57, 0.96, 0.53, 0.32, -179.91, 89.95, 54.95, 30.31, 18.28, -0.00, 0.00, 0.00, -0.00, 13.98, 0.00, -12.70, -3.70, -0.25, -0.00
2.9137415885925293, -3.14, 1.57, 0.96, 0.53, 0.26, -179.91, 89.95, 54.95, 30.31, 14.94, -0.00, 0.00, 0.00, -0.00, -14.01, 0.00, -12.70, -3.70, -0.25, -0.00
2.9657413959503174, -3.14, 1.57, 0.96, 0.53, 0.21, -179.91, 89.95, 54.95, 30.31, 11.83, -0.00, 0.00, 0.00, -0.00, -13.00, -0.00, -12.70, -3.70, -0.25, 0.00
3.019740104675293, -3.14, 1.57, 0.96, 0.53, 0.26, -179.91, 89.95, 54.95, 30.31, 15.10, -0.00, 0.00, 0.00, -0.00, 13.69, -0.00, -12.70, -3.70, -0.25, 0.00
3.07293701171875, -3.14, 1.57, 0.96, 0.53, 0.34, -179.91, 89.95, 54.95, 30.31, 19.28, -0.00, 0.00, 0.00, -0.00, 17.48, -0.00, -12.70, -3.70, -0.25, 0.00
3.1206889152526855, -3.14, 1.57, 0.96, 0.53, 0.28, -179.91, 89.95, 54.95, 30.31, 16.31, -0.00, 0.00, 0.00, -0.00, -12.44, 0.00, -12.70, -3.70, -0.25, -0.00
3.1686902046203613, -3.14, 1.57, 0.96, 0.53, 0.11, -179.91, 89.95, 54.95, 30.31, 6.24, -0.00, 0.00, 0.00, -0.00, -42.15, 0.00, -12.70, -3.70, -0.25, -0.00
3.2152116298675537, -3.14, 1.57, 0.96, 0.53, -0.05, -179.91, 89.95, 54.95, 30.31, -2.81, -0.00, 0.00, 0.00, -0.00, -37.93, -0.00, -12.70, -3.70, -0.25, 0.00
3.2632484436035156, -3.14, 1.57, 0.96, 0.53, -0.09, -179.91, 89.95, 54.95, 30.31, -5.18, -0.00, 0.00, 0.00, -0.00, -9.93, -0.00, -12.70, -3.70, -0.25, 0.00
3.309875249862671, -3.14, 1.57, 0.96, 0.53, -0.09, -179.91, 89.95, 54.95, 30.31, -5.14, -0.00, 0.00, 0.00, -0.00, 0.19, -0.00, -12.70, -3.70, -0.25, 0.00
3.355898857116699, -3.14, 1.57, 0.96, 0.53, -0.13, -179.91, 89.95, 54.95, 30.31, -7.28, -0.00, 0.00, 0.00, -0.00, -8.96, 0.00, -12.70, -3.70, -0.25, -0.00
3.4001293182373047, -3.14, 1.57, 0.96, 0.53, -0.27, -179.91, 89.95, 54.95, 30.31, -15.55, -0.00, 0.00, 0.00, -0.00, -34.65, 0.00, -12.70, -3.70, -0.25, -0.00
3.4451305866241455, -3.14, 1.57, 0.96, 0.53, -0.40, -179.91, 89.95, 54.95, 30.31, -22.99, -0.00, 0.00, 0.00, -0.00, -31.19, -0.00, -12.70, -3.70, -0.25, 0.00
3.486130475997925, -3.14, 1.57, 0.96, 0.53, -0.49, -179.91, 89.95, 54.95, 30.31, -27.90, -0.00, 0.00, 0.00, -0.00, -20.53, -0.00, -12.70, -3.70, -0.25, 0.00
3.5341298580169678, -3.14, 1.57, 0.96, 0.53, -0.28, -179.91, 89.95, 54.95, 30.31, -16.11, -0.00, 0.00, 0.00, -0.00, 49.38, -0.01, -12.70, -3.70, -0.25, 0.01
3.5768585205078125, -3.14, 1.57, 0.96, 0.53, -0.10, -179.91, 89.95, 54.95, 30.31, -5.49, -0.00, 0.00, 0.00, -0.00, 44.45, 0.00, -12.70, -3.70, -0.25, -0.00
3.616929292678833, -3.14, 1.57, 0.96, 0.53, 0.07, -179.91, 89.95, 54.95, 30.31, 4.05, -0.00, 0.00, 0.00, -0.00, 40.00, 0.00, -12.70, -3.70, -0.25, -0.00
3.66048002243042, -3.14, 1.57, 0.96, 0.53, 0.22, -179.91, 89.95, 54.95, 30.31, 12.65, -0.00, 0.00, 0.00, -0.00, 36.00, 0.00, -12.70, -3.70, -0.25, -0.00
3.70399808883667, -3.14, 1.57, 0.96, 0.53, 0.36, -179.91, 89.95, 54.95, 30.31, 20.38, -0.00, 0.00, 0.00, -0.00, 32.40, 0.00, -12.70, -3.70, -0.25, -0.00
3.748164415359497, -3.14, 1.57, 0.96, 0.53, 0.48, -179.91, 89.95, 54.95, 30.31, 27.35, -0.00, 0.00, 0.00, -0.00, 29.16, 0.00, -12.70, -3.70, -0.25, -0.00
3.7921111583709717, -3.14, 1.57, 0.96, 0.53, 0.59, -179.91, 89.95, 54.95, 30.31, 33.61, -0.00, 0.00, 0.00, -0.00, 26.24, 0.00, -12.70, -3.70, -0.25, -0.00
3.8412082195281982, -3.14, 1.57, 0.96, 0.53, 0.44, -179.91, 89.95, 54.95, 30.31, 25.13, -0.00, 0.00, 0.00, -0.00, -35.51, 0.01, -12.70, -3.70, -0.25, -0.01
3.8851523399353027, -3.14, 1.57, 0.96, 0.53, 0.24, -179.91, 89.95, 54.95, 30.31, 13.62, -0.00, 0.00, 0.00, -0.00, -48.23, 0.00, -12.70, -3.70, -0.25, -0.00
3.9331507682800293, -3.14, 1.57, 0.96, 0.53, 0.06, -179.91, 89.95, 54.95, 30.31, 3.26, -0.00, 0.00, 0.00, -0.00, -43.40, -0.00, -12.70, -3.70, -0.25, 0.00
3.9801530838012695, -3.14, 1.57, 0.96, 0.53, -0.11, -179.91, 89.95, 54.95, 30.31, -6.07, -0.00, 0.00, 0.00, -0.00, -39.06, -0.00, -12.70, -3.70, -0.25, 0.00
4.028152704238892, -3.14, 1.57, 0.96, 0.53, -0.25, -179.91, 89.95, 54.95, 30.31, -14.46, -0.00, 0.00, 0.00, -0.00, -35.16, -0.00, -12.70, -3.70, -0.25, 0.00
4.079151630401611, -3.14, 1.57, 0.96, 0.53, -0.24, -179.91, 89.95, 54.95, 30.31, -13.58, -0.00, 0.00, 0.00, -0.00, 3.68, -0.01, -12.70, -3.70, -0.25, 0.01
4.128153085708618, -3.14, 1.57, 0.96, 0.53, -0.08, -179.91, 89.95, 54.95, 30.31, -4.36, -0.00, 0.00, 0.00, -0.00, 38.63, -0.01, -12.70, -3.70, -0.25, 0.01
4.17615270614624, -3.14, 1.57, 0.96, 0.53, 0.04, -179.91, 89.95, 54.95, 30.31, 2.42, -0.00, 0.00, 0.00, -0.00, 28.41, 0.00, -12.70, -3.70, -0.25, -0.00
4.223151922225952, -3.14, 1.57, 0.96, 0.53, 0.03, -179.91, 89.95, 54.95, 30.31, 1.80, -0.00, 0.00, 0.00, -0.00, -2.60, 0.00, -12.70, -3.70, -0.25, -0.00
4.26715350151062, -3.14, 1.57, 0.96, 0.53, -0.04, -179.91, 89.95, 54.95, 30.31, -2.36, -0.00, 0.00, 0.00, -0.00, -17.42, 0.00, -12.70, -3.70, -0.25, -0.00
4.313151836395264, -3.14, 1.57, 0.96, 0.53, -0.08, -179.91, 89.95, 54.95, 30.31, -4.68, -0.00, 0.00, 0.00, -0.00, -9.73, -0.00, -12.70, -3.70, -0.25, 0.00
4.362684011459351, -3.14, 1.57, 0.96, 0.53, 0.02, -179.91, 89.95, 54.95, 30.31, 1.38, -0.00, 0.00, 0.00, -0.00, 25.37, -0.01, -12.70, -3.70, -0.25, 0.01
4.406663656234741, -3.14, 1.57, 0.96, 0.53, 0.08, -179.91, 89.95, 54.95, 30.31, 4.65, -0.00, 0.00, 0.00, -0.00, 13.71, 0.00, -12.70, -3.70, -0.25, -0.00
4.453181743621826, -3.14, 1.57, 0.96, 0.53, 0.00, -179.91, 89.95, 54.95, 30.31, 0.02, -0.00, 0.00, 0.00, -0.00, -19.41, 0.01, -12.70, -3.70, -0.25, -0.01
4.497729539871216, -3.14, 1.57, 0.96, 0.53, -0.14, -179.91, 89.95, 54.95, 30.31, -8.23, -0.00, 0.00, 0.00, -0.00, -34.53, 0.00, -12.70, -3.70, -0.25, -0.00
4.544727325439453, -3.14, 1.57, 0.96, 0.53, -0.23, -179.91, 89.95, 54.95, 30.31, -12.90, -0.00, 0.00, 0.00, -0.00, -19.57, -0.00, -12.70, -3.70, -0.25, 0.00
4.58972954750061, -3.14, 1.57, 0.96, 0.53, -0.11, -179.91, 89.95, 54.95, 30.31, -6.21, -0.00, 0.00, 0.00, -0.00, 28.02, -0.01, -12.70, -3.70, -0.25, 0.01
4.634729862213135, -3.14, 1.57, 0.96, 0.53, 0.00, -179.91, 89.95, 54.95, 30.31, 0.10, -0.00, 0.00, 0.00, -0.00, 26.41, 0.00, -12.70, -3.70, -0.25, -0.00
4.685728073120117, -3.14, 1.57, 0.96, 0.53, 0.08, -179.91, 89.95, 54.95, 30.31, 4.73, -0.00, 0.00, 0.00, -0.00, 19.40, 0.00, -12.70, -3.70, -0.25, -0.00
4.731729030609131, -3.14, 1.57, 0.96, 0.53, 0.15, -179.91, 89.95, 54.95, 30.31, 8.71, -0.00, 0.00, 0.00, -0.00, 16.67, 0.00, -12.70, -3.70, -0.25, -0.00
4.778728723526001, -3.14, 1.57, 0.96, 0.53, 0.25, -179.91, 89.95, 54.95, 30.31, 14.09, -0.00, 0.00, 0.00, -0.00, 22.54, -0.00, -12.70, -3.70, -0.25, 0.00
4.824729919433594, -3.14, 1.57, 0.96, 0.53, 0.34, -179.91, 89.95, 54.95, 30.31, 19.22, -0.00, 0.00, 0.00, -0.00, 21.48, 0.00, -12.70, -3.70, -0.25, -0.00
4.877728223800659, -3.14, 1.57, 0.96, 0.53, 0.42, -179.91, 89.95, 54.95, 30.31, 23.83, -0.00, 0.00, 0.00, -0.00, 19.33, 0.00, -12.70, -3.70, -0.25, -0.00
4.929243803024292, -3.14, 1.57, 0.96, 0.53, 0.49, -179.91, 89.95, 54.95, 30.31, 27.99, -0.00, 0.00, 0.00, -0.00, 17.40, 0.00, -12.70, -3.70, -0.25, -0.00
4.978242874145508, -3.14, 1.57, 0.96, 0.53, 0.55, -179.91, 89.95, 54.95, 30.31, 31.72, -0.00, 0.00, 0.00, -0.00, 15.66, 0.00, -12.70, -3.70, -0.25, -0.00
5.025242805480957, -3.14, 1.57, 0.96, 0.53, 0.61, -179.91, 89.95, 54.95, 30.31, 35.09, -0.00, 0.00, 0.00, -0.00, 14.09, 0.00, -12.70, -3.70, -0.25, -0.00
5.106756210327148, -3.14, 1.57, 0.96, 0.53, 0.67, -179.91, 89.95, 54.95, 30.31, 38.12, -0.00, 0.00, 0.00, -0.00, 12.68, 0.00, -12.70, -3.70, -0.25, -0.00
5.159276247024536, -3.14, 1.57, 0.96, 0.53, 0.71, -179.91, 89.95, 54.95, 30.31, 40.84, -0.00, 0.00, 0.00, -0.00, 11.42, 0.00, -12.70, -3.70, -0.25, -0.00
5.2082765102386475, -3.14, 1.57, 0.96, 0.53, 0.76, -179.91, 89.95, 54.95, 30.31, 43.29, -0.00, 0.00, 0.00, -0.00, 10.27, 0.00, -12.70, -3.70, -0.25, -0.00
5.256800651550293, -3.14, 1.57, 0.96, 0.53, 0.79, -179.91, 89.95, 54.95, 30.31, 45.50, -0.00, 0.00, 0.00, -0.00, 9.25, 0.00, -12.70, -3.70, -0.25, -0.00
5.304799318313599, -3.14, 1.57, 0.96, 0.53, 0.83, -179.91, 89.95, 54.95, 30.31, 47.49, -0.00, 0.00, 0.00, -0.00, 8.32, 0.00, -12.70, -3.70, -0.25, -0.00
5.349799156188965, -3.14, 1.57, 0.96, 0.53, 0.86, -179.91, 89.95, 54.95, 30.31, 49.28, -0.00, 0.00, 0.00, -0.00, 7.49, 0.00, -12.70, -3.70, -0.25, -0.00
5.3942108154296875, -3.14, 1.57, 0.96, 0.53, 0.89, -179.91, 89.95, 54.95, 30.31, 50.89, -0.00, 0.00, 0.00, -0.00, 6.74, 0.00, -12.70, -3.70, -0.25, -0.00
5.438068628311157, -3.14, 1.57, 0.96, 0.53, 0.91, -179.91, 89.95, 54.95, 30.31, 52.33, -0.00, 0.00, 0.00, -0.00, 6.07, 0.00, -12.70, -3.70, -0.25, -0.00
5.478990077972412, -3.14, 1.57, 0.96, 0.53, 0.94, -179.91, 89.95, 54.95, 30.31, 53.64, -0.00, 0.00, 0.00, -0.00, 5.46, 0.00, -12.70, -3.70, -0.25, -0.00
5.521365642547607, -3.14, 1.57, 0.96, 0.53, 0.96, -179.91, 89.95, 54.95, 30.31, 54.81, -0.00, 0.00, 0.00, -0.00, 4.91, 0.00, -12.70, -3.70, -0.25, -0.00
5.566365718841553, -3.14, 1.57, 0.96, 0.53, 0.98, -179.91, 89.95, 54.95, 30.31, 55.87, -0.00, 0.00, 0.00, -0.00, 4.42, 0.00, -12.70, -3.70, -0.25, -0.00
5.6123669147491455, -3.14, 1.57, 0.96, 0.53, 0.99, -179.91, 89.95, 54.95, 30.31, 56.82, -0.00, 0.00, 0.00, -0.00, 3.98, 0.00, -12.70, -3.70, -0.25, -0.00
5.668366193771362, -3.14, 1.57, 0.96, 0.53, 1.01, -179.91, 89.95, 54.95, 30.31, 57.67, -0.00, 0.00, 0.00, -0.00, 3.58, 0.00, -12.70, -3.70, -0.25, -0.00
5.7143659591674805, -3.14, 1.57, 0.96, 0.53, 1.02, -179.91, 89.95, 54.95, 30.31, 58.44, -0.00, 0.00, 0.00, -0.00, 3.22, 0.00, -12.70, -3.70, -0.25, -0.00
5.767366647720337, -3.14, 1.57, 0.96, 0.53, 1.03, -179.91, 89.95, 54.95, 30.31, 59.13, -0.00, 0.00, 0.00, -0.00, 2.90, 0.00, -12.70, -3.70, -0.25, -0.00
5.812366724014282, -3.14, 1.57, 0.96, 0.53, 1.04, -179.91, 89.95, 54.95, 30.31, 59.76, -0.00, 0.00, 0.00, -0.00, 2.61, 0.00, -12.70, -3.70, -0.25, -0.00
5.860365867614746, -3.14, 1.57, 0.96, 0.53, 1.05, -179.91, 89.95, 54.95, 30.31, 60.32, -0.00, 0.00, 0.00, -0.00, 2.35, 0.00, -12.70, -3.70, -0.25, -0.00
5.90487813949585, -3.14, 1.57, 0.96, 0.53, 1.06, -179.91, 89.95, 54.95, 30.31, 60.82, -0.00, 0.00, 0.00, -0.00, 2.12, 0.00, -12.70, -3.70, -0.25, -0.00
5.9518773555755615, -3.14, 1.57, 0.96, 0.53, 1.07, -179.91, 89.95, 54.95, 30.31, 61.28, -0.00, 0.00, 0.00, -0.00, 1.90, 0.00, -12.70, -3.70, -0.25, -0.00
6.0014259815216064, -3.14, 1.57, 0.96, 0.53, 1.08, -179.91, 89.95, 54.95, 30.31, 61.69, -0.00, 0.00, 0.00, -0.00, 1.71, 0.00, -12.70, -3.70, -0.25, -0.00
6.052154779434204, -3.14, 1.57, 0.96, 0.53, 1.08, -179.91, 89.95, 54.95, 30.31, 62.06, -0.00, 0.00, 0.00, -0.00, 1.54, 0.00, -12.70, -3.70, -0.25, -0.00
6.097731351852417, -3.14, 1.57, 0.96, 0.53, 1.09, -179.91, 89.95, 54.95, 30.31, 62.39, -0.00, 0.00, 0.00, -0.00, 1.39, 0.00, -12.70, -3.70, -0.25, -0.00
6.1482093334198, -3.14, 1.57, 0.96, 0.53, 1.09, -179.91, 89.95, 54.95, 30.31, 62.68, -0.00, 0.00, 0.00, -0.00, 1.25, 0.00, -12.70, -3.70, -0.25, -0.00
6.195210218429565, -3.14, 1.57, 0.96, 0.53, 1.10, -179.91, 89.95, 54.95, 30.31, 62.95, -0.00, 0.00, 0.00, -0.00, 1.12, 0.00, -12.70, -3.70, -0.25, -0.00
6.241209268569946, -3.14, 1.57, 0.96, 0.53, 1.10, -179.91, 89.95, 54.95, 30.31, 63.19, -0.00, 0.00, 0.00, -0.00, 1.01, 0.00, -12.70, -3.70, -0.25, -0.00
6.284212350845337, -3.14, 1.57, 0.96, 0.53, 1.11, -179.91, 89.95, 54.95, 30.31, 63.41, -0.00, 0.00, 0.00, -0.00, 0.91, 0.00, -12.70, -3.70, -0.25, -0.00
6.32820987701416, -3.14, 1.57, 0.96, 0.53, 1.11, -179.91, 89.95, 54.95, 30.31, 63.61, -0.00, 0.00, 0.00, -0.00, 0.82, 0.00, -12.70, -3.70, -0.25, -0.00
6.37972617149353, -3.14, 1.57, 0.96, 0.53, 1.11, -179.91, 89.95, 54.95, 30.31, 63.78, -0.00, 0.00, 0.00, -0.00, 0.74, 0.00, -12.70, -3.70, -0.25, -0.00
6.4227259159088135, -3.14, 1.57, 0.96, 0.53, 1.12, -179.91, 89.95, 54.95, 30.31, 63.94, -0.00, 0.00, 0.00, -0.00, 0.66, 0.00, -12.70, -3.70, -0.25, -0.00
6.470725774765015, -3.14, 1.57, 0.96, 0.53, 1.12, -179.91, 89.95, 54.95, 30.31, 64.08, -0.00, 0.00, 0.00, -0.00, 0.60, 0.00, -12.70, -3.70, -0.25, -0.00
6.5142412185668945, -3.14, 1.57, 0.96, 0.53, 1.12, -179.91, 89.95, 54.95, 30.31, 64.21, -0.00, 0.00, 0.00, -0.00, 0.54, 0.00, -12.70, -3.70, -0.25, -0.00
6.562241792678833, -3.14, 1.57, 0.96, 0.53, 1.12, -179.91, 89.95, 54.95, 30.31, 64.33, -0.00, 0.00, 0.00, -0.00, 0.48, 0.00, -12.70, -3.70, -0.25, -0.00
6.604414939880371, -3.14, 1.57, 0.96, 0.53, 1.12, -179.91, 89.95, 54.95, 30.31, 64.43, -0.00, 0.00, 0.00, -0.00, 0.44, 0.00, -12.70, -3.70, -0.25, -0.00
6.649387836456299, -3.14, 1.57, 0.96, 0.53, 1.13, -179.91, 89.95, 54.95, 30.31, 64.53, -0.00, 0.00, 0.00, -0.00, 0.39, 0.00, -12.70, -3.70, -0.25, -0.00
6.6961586475372314, -3.14, 1.57, 0.96, 0.53, 1.13, -179.91, 89.95, 54.95, 30.31, 64.61, -0.00, 0.00, 0.00, -0.00, 0.35, 0.00, -12.70, -3.70, -0.25, -0.00
6.740159511566162, -3.14, 1.57, 0.96, 0.53, 1.13, -179.91, 89.95, 54.95, 30.31, 64.69, -0.00, 0.00, 0.00, -0.00, 0.32, 0.00, -12.70, -3.70, -0.25, -0.00
6.785542011260986, -3.14, 1.57, 0.96, 0.53, 1.13, -179.91, 89.95, 54.95, 30.31, 64.75, -0.00, 0.00, 0.00, -0.00, 0.29, 0.00, -12.70, -3.70, -0.25, -0.00
6.829517364501953, -3.14, 1.57, 0.96, 0.53, 1.13, -179.91, 89.95, 54.95, 30.31, 64.82, -0.00, 0.00, 0.00, -0.00, 0.26, 0.00, -12.70, -3.70, -0.25, -0.00
6.873003244400024, -3.14, 1.57, 0.96, 0.53, 1.13, -179.91, 89.95, 54.95, 30.31, 64.87, -0.00, 0.00, 0.00, -0.00, 0.23, 0.00, -12.70, -3.70, -0.25, -0.00
6.920421361923218, -3.14, 1.57, 0.96, 0.53, 1.13, -179.91, 89.95, 54.95, 30.31, 64.92, -0.00, 0.00, 0.00, -0.00, 0.21, 0.00, -12.70, -3.70, -0.25, -0.00
6.963466644287109, -3.14, 1.57, 0.96, 0.53, 1.13, -179.91, 89.95, 54.95, 30.31, 64.97, -0.00, 0.00, 0.00, -0.00, 0.19, 0.00, -12.70, -3.70, -0.25, -0.00
7.010202169418335, -3.14, 1.57, 0.96, 0.53, 1.13, -179.91, 89.95, 54.95, 30.31, 65.01, -0.00, 0.00, 0.00, -0.00, 0.17, 0.00, -12.70, -3.70, -0.25, -0.00
7.053714036941528, -3.14, 1.57, 0.96, 0.53, 1.14, -179.91, 89.95, 54.95, 30.31, 65.04, -0.00, 0.00, 0.00, -0.00, 0.15, 0.00, -12.70, -3.70, -0.25, -0.00
7.100005149841309, -3.14, 1.57, 0.96, 0.53, 1.14, -179.91, 89.95, 54.95, 30.31, 65.07, -0.00, 0.00, 0.00, -0.00, 0.14, 0.00, -12.70, -3.70, -0.25, -0.00
7.149432897567749, -3.14, 1.57, 0.96, 0.53, 1.14, -179.91, 89.95, 54.95, 30.31, 65.10, -0.00, 0.00, 0.00, -0.00, 0.12, 0.00, -12.70, -3.70, -0.25, -0.00
7.1935365200042725, -3.14, 1.57, 0.96, 0.53, 1.14, -179.91, 89.95, 54.95, 30.31, 65.13, -0.00, 0.00, 0.00, -0.00, 0.11, 0.00, -12.70, -3.70, -0.25, -0.00
7.2410523891448975, -3.14, 1.57, 0.96, 0.53, 1.14, -179.91, 89.95, 54.95, 30.31, 65.15, -0.00, 0.00, 0.00, -0.00, 0.10, 0.00, -12.70, -3.70, -0.25, -0.00
7.2859039306640625, -3.14, 1.57, 0.96, 0.53, 1.14, -179.91, 89.95, 54.95, 30.31, 65.18, -0.00, 0.00, 0.00, -0.00, 0.09, 0.00, -12.70, -3.70, -0.25, -0.00
7.334946393966675, -3.14, 1.57, 0.96, 0.53, 1.14, -179.91, 89.95, 54.95, 30.31, 65.20, -0.00, 0.00, 0.00, -0.00, 0.08, 0.00, -12.70, -3.70, -0.25, -0.00
7.390222072601318, -3.14, 1.57, 0.96, 0.53, 1.14, -179.91, 89.95, 54.95, 30.31, 65.21, -0.00, 0.00, 0.00, -0.00, 0.07, 0.00, -12.70, -3.70, -0.25, -0.00
7.437218904495239, -3.14, 1.57, 0.96, 0.53, 1.14, -179.91, 89.95, 54.95, 30.31, 65.23, -0.00, 0.00, 0.00, -0.00, 0.07, 0.00, -12.70, -3.70, -0.25, -0.00
7.4862213134765625, -3.14, 1.57, 0.96, 0.53, 1.14, -179.91, 89.95, 54.95, 30.31, 65.24, -0.00, 0.00, 0.00, -0.00, 0.06, 0.00, -12.70, -3.70, -0.25, -0.00
7.53291916847229, -3.14, 1.57, 0.96, 0.53, 1.14, -179.91, 89.95, 54.95, 30.31, 65.25, -0.00, 0.00, 0.00, -0.00, 0.05, 0.00, -12.70, -3.70, -0.25, -0.00
7.576916456222534, -3.14, 1.57, 0.96, 0.53, 1.14, -179.91, 89.95, 54.95, 30.31, 65.27, -0.00, 0.00, 0.00, -0.00, 0.05, 0.00, -12.70, -3.70, -0.25, -0.00
7.620445251464844, -3.14, 1.57, 0.96, 0.53, 1.14, -179.91, 89.95, 54.95, 30.31, 65.28, -0.00, 0.00, 0.00, -0.00, 0.04, 0.00, -12.70, -3.70, -0.25, -0.00
7.663437604904175, -3.14, 1.57, 0.96, 0.53, 1.14, -179.91, 89.95, 54.95, 30.31, 65.29, -0.00, 0.00, 0.00, -0.00, 0.04, 0.00, -12.70, -3.70, -0.25, -0.00
7.712239503860474, -3.14, 1.57, 0.96, 0.53, 1.14, -179.91, 89.95, 54.95, 30.31, 65.29, -0.00, 0.00, 0.00, -0.00, 0.03, 0.00, -12.70, -3.70, -0.25, -0.00
7.756435871124268, -3.14, 1.57, 0.96, 0.53, 1.14, -179.91, 89.95, 54.95, 30.31, 65.30, -0.00, 0.00, 0.00, -0.00, 0.03, 0.00, -12.70, -3.70, -0.25, -0.00
7.810665845870972, -3.14, 1.57, 0.96, 0.53, 1.14, -179.91, 89.95, 54.95, 30.31, 65.31, -0.00, 0.00, 0.00, -0.00, 0.03, 0.00, -12.70, -3.70, -0.25, -0.00
7.85966420173645, -3.14, 1.57, 0.96, 0.53, 1.14, -179.91, 89.95, 54.95, 30.31, 65.31, -0.00, 0.00, 0.00, -0.00, 0.03, 0.00, -12.70, -3.70, -0.25, -0.00
7.902299642562866, -3.14, 1.57, 0.96, 0.53, 1.14, -179.91, 89.95, 54.95, 30.31, 65.32, -0.00, 0.00, 0.00, -0.00, 0.02, 0.00, -12.70, -3.70, -0.25, -0.00
7.947306394577026, -3.14, 1.57, 0.96, 0.53, 1.14, -179.91, 89.95, 54.95, 30.31, 65.32, -0.00, 0.00, 0.00, -0.00, 0.02, 0.00, -12.70, -3.70, -0.25, -0.00
7.992869853973389, -3.14, 1.57, 0.96, 0.53, 1.14, -179.91, 89.95, 54.95, 30.31, 65.33, -0.00, 0.00, 0.00, -0.00, 0.02, 0.00, -12.70, -3.70, -0.25, -0.00
8.040961027145386, -3.14, 1.57, 0.96, 0.53, 1.14, -179.91, 89.95, 54.95, 30.31, 65.33, -0.00, 0.00, 0.00, -0.00, 0.02, 0.00, -12.70, -3.70, -0.25, -0.00
8.082989931106567, -3.14, 1.57, 0.96, 0.53, 1.14, -179.91, 89.95, 54.95, 30.31, 65.34, -0.00, 0.00, 0.00, -0.00, 0.01, 0.00, -12.70, -3.70, -0.25, -0.00
8.130504369735718, -3.14, 1.57, 0.96, 0.53, 1.14, -179.91, 89.95, 54.95, 30.31, 65.34, -0.00, 0.00, 0.00, -0.00, 0.01, 0.00, -12.70, -3.70, -0.25, -0.00
8.178505182266235, -3.14, 1.57, 0.96, 0.53, 1.14, -179.91, 89.95, 54.95, 30.31, 65.34, -0.00, 0.00, 0.00, -0.00, 0.01, 0.00, -12.70, -3.70, -0.25, -0.00
8.230140447616577, -3.14, 1.57, 0.96, 0.53, 1.14, -179.91, 89.95, 54.95, 30.31, 65.35, -0.00, 0.00, 0.00, -0.00, 0.01, 0.00, -12.70, -3.70, -0.25, -0.00
8.273727178573608, -3.14, 1.57, 0.96, 0.53, 1.14, -179.91, 89.95, 54.95, 30.31, 65.35, -0.00, 0.00, 0.00, -0.00, 0.01, 0.00, -12.70, -3.70, -0.25, -0.00
8.32220721244812, -3.14, 1.57, 0.96, 0.53, 1.14, -179.91, 89.95, 54.95, 30.31, 65.35, -0.00, 0.00, 0.00, -0.00, 0.01, 0.00, -12.70, -3.70, -0.25, -0.00
8.3707435131073, -3.14, 1.57, 0.96, 0.53, 1.14, -179.91, 89.95, 54.95, 30.31, 65.35, -0.00, 0.00, 0.00, -0.00, 0.01, 0.00, -12.70, -3.70, -0.25, -0.00
8.41541862487793, -3.14, 1.57, 0.96, 0.53, 1.14, -179.91, 89.95, 54.95, 30.31, 65.35, -0.00, 0.00, 0.00, -0.00, 0.01, 0.00, -12.70, -3.70, -0.25, -0.00
8.462786197662354, -3.14, 1.57, 0.96, 0.53, 1.14, -179.91, 89.95, 54.95, 30.31, 65.35, -0.00, 0.00, 0.00, -0.00, 0.01, 0.00, -12.70, -3.70, -0.25, -0.00
8.510138750076294, -3.14, 1.57, 0.96, 0.53, 1.14, -179.91, 89.95, 54.95, 30.31, 65.36, -0.00, 0.00, 0.00, -0.00, 0.01, 0.00, -12.70, -3.70, -0.25, -0.00
8.555531024932861, -3.14, 1.57, 0.96, 0.53, 1.14, -179.91, 89.95, 54.95, 30.31, 65.36, -0.00, 0.00, 0.00, -0.00, 0.01, 0.00, -12.70, -3.70, -0.25, -0.00
8.600481271743774, -3.14, 1.57, 0.96, 0.53, 1.14, -179.91, 89.95, 54.95, 30.31, 65.36, -0.00, 0.00, 0.00, -0.00, 0.00, 0.00, -12.70, -3.70, -0.25, -0.00
8.644613265991211, -3.14, 1.57, 0.96, 0.53, 1.14, -179.91, 89.95, 54.95, 30.31, 65.36, -0.00, 0.00, 0.00, -0.00, 0.00, 0.00, -12.70, -3.70, -0.25, -0.00
8.687519788742065, -3.14, 1.57, 0.96, 0.53, 1.14, -179.91, 89.95, 54.95, 30.31, 65.36, -0.00, 0.00, 0.00, -0.00, 0.00, 0.00, -12.70, -3.70, -0.25, -0.00
8.733078718185425, -3.14, 1.57, 0.96, 0.53, 1.14, -179.91, 89.95, 54.95, 30.31, 65.36, -0.00, 0.00, 0.00, -0.00, 0.00, 0.00, -12.70, -3.70, -0.25, -0.00
8.77920126914978, -3.14, 1.57, 0.96, 0.53, 1.14, -179.91, 89.95, 54.95, 30.31, 65.36, -0.00, 0.00, 0.00, -0.00, 0.00, 0.00, -12.70, -3.70, -0.25, -0.00
8.821426630020142, -3.14, 1.57, 0.96, 0.53, 1.14, -179.91, 89.95, 54.95, 30.31, 65.36, -0.00, 0.00, 0.00, -0.00, 0.00, 0.00, -12.70, -3.70, -0.25, -0.00
8.869512796401978, -3.14, 1.57, 0.96, 0.53, 1.14, -179.91, 89.95, 54.95, 30.31, 65.36, -0.00, 0.00, 0.00, -0.00, 0.00, 0.00, -12.70, -3.70, -0.25, -0.00
8.91640830039978, -3.14, 1.57, 0.96, 0.53, 1.14, -179.91, 89.95, 54.95, 30.31, 65.36, -0.00, 0.00, 0.00, -0.00, 0.00, 0.00, -12.70, -3.70, -0.25, -0.00
8.95924997329712, -3.14, 1.57, 0.96, 0.53, 1.14, -179.91, 89.95, 54.95, 30.31, 65.36, -0.00, 0.00, 0.00, -0.00, 0.00, 0.00, -12.70, -3.70, -0.25, -0.00
9.008352756500244, -3.14, 1.57, 0.96, 0.53, 1.14, -179.91, 89.95, 54.95, 30.31, 65.36, -0.00, 0.00, 0.00, -0.00, 0.00, 0.00, -12.70, -3.70, -0.25, -0.00
9.052844762802124, -3.14, 1.57, 0.96, 0.53, 1.14, -179.91, 89.95, 54.95, 30.31, 65.37, -0.00, 0.00, 0.00, -0.00, 0.00, 0.00, -12.70, -3.70, -0.25, -0.00
9.096994638442993, -3.14, 1.57, 0.96, 0.53, 1.14, -179.91, 89.95, 54.95, 30.31, 65.37, -0.00, 0.00, 0.00, -0.00, 0.00, 0.00, -12.70, -3.70, -0.25, -0.00
9.144434690475464, -3.14, 1.57, 0.96, 0.53, 1.14, -179.91, 89.95, 54.95, 30.31, 65.37, -0.00, 0.00, 0.00, -0.00, 0.00, 0.00, -12.70, -3.70, -0.25, -0.00
9.191994428634644, -3.14, 1.57, 0.96, 0.53, 1.14, -179.91, 89.95, 54.95, 30.31, 65.37, -0.00, 0.00, 0.00, -0.00, 0.00, 0.00, -12.70, -3.70, -0.25, -0.00
9.235494375228882, -3.14, 1.57, 0.96, 0.53, 1.14, -179.91, 89.95, 54.95, 30.31, 65.37, -0.00, 0.00, 0.00, -0.00, 0.00, 0.00, -12.70, -3.70, -0.25, -0.00
9.283626556396484, -3.14, 1.57, 0.96, 0.53, 1.14, -179.91, 89.95, 54.95, 30.31, 65.37, -0.00, 0.00, 0.00, -0.00, 0.00, 0.00, -12.70, -3.70, -0.25, -0.00
9.335158586502075, -3.14, 1.57, 0.96, 0.53, 1.14, -179.91, 89.95, 54.95, 30.31, 65.37, -0.00, 0.00, 0.00, -0.00, 0.00, 0.00, -12.70, -3.70, -0.25, -0.00
9.381730794906616, -3.14, 1.57, 0.96, 0.53, 1.14, -179.91, 89.95, 54.95, 30.31, 65.37, -0.00, 0.00, 0.00, -0.00, 0.00, 0.00, -12.70, -3.70, -0.25, -0.00
9.426239967346191, -3.14, 1.57, 0.96, 0.53, 1.14, -179.91, 89.95, 54.95, 30.31, 65.37, -0.00, 0.00, 0.00, -0.00, 0.00, 0.00, -12.70, -3.70, -0.25, -0.00
9.468791484832764, -3.14, 1.57, 0.96, 0.53, 1.14, -179.91, 89.95, 54.95, 30.31, 65.37, -0.00, 0.00, 0.00, -0.00, 0.00, 0.00, -12.70, -3.70, -0.25, -0.00
9.513730525970459, -3.14, 1.57, 0.96, 0.53, 1.14, -179.91, 89.95, 54.95, 30.31, 65.37, -0.00, 0.00, 0.00, -0.00, 0.00, 0.00, -12.70, -3.70, -0.25, -0.00
9.557178735733032, -3.14, 1.57, 0.96, 0.53, 1.14, -179.91, 89.95, 54.95, 30.31, 65.37, -0.00, 0.00, 0.00, -0.00, 0.00, 0.00, -12.70, -3.70, -0.25, -0.00
9.607490301132202, -3.14, 1.57, 0.96, 0.53, 1.14, -179.91, 89.95, 54.95, 30.31, 65.37, -0.00, 0.00, 0.00, -0.00, 0.00, 0.00, -12.70, -3.70, -0.25, -0.00
9.656923532485962, -3.14, 1.57, 0.96, 0.53, 1.14, -179.91, 89.95, 54.95, 30.31, 65.37, -0.00, 0.00, 0.00, -0.00, 0.00, 0.00, -12.70, -3.70, -0.25, -0.00
9.701831579208374, -3.14, 1.57, 0.96, 0.53, 1.14, -179.91, 89.95, 54.95, 30.31, 65.37, -0.00, 0.00, 0.00, -0.00, 0.00, 0.00, -12.70, -3.70, -0.25, -0.00
9.747034072875977, -3.14, 1.57, 0.96, 0.53, 1.14, -179.91, 89.95, 54.95, 30.31, 65.37, -0.00, 0.00, 0.00, -0.00, 0.00, 0.00, -12.70, -3.70, -0.25, -0.00
9.788249731063843, -3.14, 1.57, 0.96, 0.53, 1.14, -179.91, 89.95, 54.95, 30.31, 65.37, -0.00, 0.00, 0.00, -0.00, 0.00, 0.00, -12.70, -3.70, -0.25, -0.00
9.836721420288086, -3.14, 1.57, 0.96, 0.53, 1.14, -179.91, 89.95, 54.95, 30.31, 65.37, -0.00, 0.00, 0.00, -0.00, 0.00, 0.00, -12.70, -3.70, -0.25, -0.00
9.887817621231079, -3.14, 1.57, 0.96, 0.53, 1.14, -179.91, 89.95, 54.95, 30.31, 65.37, -0.00, 0.00, 0.00, -0.00, 0.00, 0.00, -12.70, -3.70, -0.25, -0.00
9.937916278839111, -3.14, 1.57, 0.96, 0.53, 1.14, -179.91, 89.95, 54.95, 30.31, 65.37, -0.00, 0.00, 0.00, -0.00, 0.00, 0.00, -12.70, -3.70, -0.25, -0.00
9.982881546020508, -3.14, 1.57, 0.96, 0.53, 1.14, -179.91, 89.95, 54.95, 30.31, 65.37, -0.00, 0.00, 0.00, -0.00, 0.00, 0.00, -12.70, -3.70, -0.25, -0.00
10.02725887298584, -3.14, 1.57, 0.96, 0.53, 1.14, -179.91, 89.95, 54.95, 30.31, 65.37, -0.00, 0.00, 0.00, -0.00, 0.00, 0.00, -12.70, -3.70, -0.25, -0.00
10.07125735282898, -3.14, 1.57, 0.96, 0.53, 1.14, -179.91, 89.95, 54.95, 30.31, 65.37, -0.00, 0.00, 0.00, -0.00, 0.00, 0.00, -12.70, -3.70, -0.25, -0.00
10.114813327789307, -3.14, 1.57, 0.96, 0.53, 1.14, -179.91, 89.95, 54.95, 30.31, 65.37, -0.00, 0.00, 0.00, -0.00, 0.00, 0.00, -12.70, -3.70, -0.25, -0.00
10.164273738861084, -3.14, 1.57, 0.96, 0.53, 1.14, -179.91, 89.95, 54.95, 30.31, 65.37, -0.00, 0.00, 0.00, -0.00, 0.00, 0.00, -12.70, -3.70, -0.25, -0.00
10.20792841911316, -3.14, 1.57, 0.96, 0.53, 1.14, -179.91, 89.95, 54.95, 30.31, 65.37, -0.00, 0.00, 0.00, -0.00, 0.00, 0.00, -12.70, -3.70, -0.25, -0.00
10.251684665679932, -3.14, 1.57, 0.96, 0.53, 1.14, -179.91, 89.95, 54.95, 30.31, 65.37, -0.00, 0.00, 0.00, -0.00, 0.00, 0.00, -12.70, -3.70, -0.25, -0.00
10.304239511489868, -3.14, 1.57, 0.96, 0.53, 1.14, -179.91, 89.95, 54.95, 30.31, 65.37, -0.00, 0.00, 0.00, -0.00, 0.00, 0.00, -12.70, -3.70, -0.25, -0.00
10.355529546737671, -3.14, 1.57, 0.96, 0.53, 1.14, -179.91, 89.95, 54.95, 30.31, 65.37, -0.00, 0.00, 0.00, -0.00, 0.00, 0.00, -12.70, -3.70, -0.25, -0.00
10.403683423995972, -3.14, 1.57, 0.96, 0.53, 1.14, -179.91, 89.95, 54.95, 30.31, 65.37, -0.00, 0.00, 0.00, -0.00, 0.00, 0.00, -12.70, -3.70, -0.25, -0.00
10.452683925628662, -3.14, 1.57, 0.96, 0.53, 1.14, -179.91, 89.95, 54.95, 30.31, 65.37, -0.00, 0.00, 0.00, -0.00, 0.00, 0.00, -12.70, -3.70, -0.25, -0.00
10.498683452606201, -3.14, 1.57, 0.96, 0.53, 1.14, -179.91, 89.95, 54.95, 30.31, 65.37, -0.00, 0.00, 0.00, -0.00, 0.00, 0.00, -12.70, -3.70, -0.25, -0.00
10.543683528900146, -3.14, 1.57, 0.96, 0.53, 1.14, -179.91, 89.95, 54.95, 30.31, 65.37, -0.00, 0.00, 0.00, -0.00, 0.00, 0.00, -12.70, -3.70, -0.25, -0.00
10.58568286895752, -3.14, 1.57, 0.96, 0.53, 1.14, -179.91, 89.95, 54.95, 30.31, 65.37, -0.00, 0.00, 0.00, -0.00, 0.00, 0.00, -12.70, -3.70, -0.25, -0.00
10.632682085037231, -3.14, 1.57, 0.96, 0.53, 1.14, -179.91, 89.95, 54.95, 30.31, 65.37, -0.00, 0.00, 0.00, -0.00, 0.00, 0.00, -12.70, -3.70, -0.25, -0.00
10.675859212875366, -3.14, 1.57, 0.96, 0.53, 1.14, -179.91, 89.95, 54.95, 30.31, 65.37, -0.00, 0.00, 0.00, -0.00, 0.00, 0.00, -12.70, -3.70, -0.25, -0.00
10.728978157043457, -3.14, 1.57, 0.96, 0.53, 1.14, -179.91, 89.95, 54.95, 30.31, 65.37, -0.00, 0.00, 0.00, -0.00, 0.00, 0.00, -12.70, -3.70, -0.25, -0.00
10.773260831832886, -3.14, 1.57, 0.96, 0.53, 1.14, -179.91, 89.95, 54.95, 30.31, 65.37, -0.00, 0.00, 0.00, -0.00, 0.00, 0.00, -12.70, -3.70, -0.25, -0.00
10.820530891418457, -3.14, 1.57, 0.96, 0.53, 1.14, -179.91, 89.95, 54.95, 30.31, 65.37, -0.00, 0.00, 0.00, -0.00, 0.00, 0.00, -12.70, -3.70, -0.25, -0.00
10.862675189971924, -3.14, 1.57, 0.96, 0.53, 1.14, -179.91, 89.95, 54.95, 30.31, 65.37, -0.00, 0.00, 0.00, -0.00, 0.00, 0.00, -12.70, -3.70, -0.25, -0.00
10.906387090682983, -3.14, 1.57, 0.96, 0.53, 1.14, -179.91, 89.95, 54.95, 30.31, 65.37, -0.00, 0.00, 0.00, -0.00, 0.00, 0.00, -12.70, -3.70, -0.25, -0.00
10.950671672821045, -3.14, 1.57, 0.96, 0.53, 1.14, -179.91, 89.95, 54.95, 30.31, 65.37, -0.00, 0.00, 0.00, -0.00, 0.00, 0.00, -12.70, -3.70, -0.25, -0.00
10.999758958816528, -3.14, 1.57, 0.96, 0.53, 1.14, -179.91, 89.95, 54.95, 30.31, 65.37, -0.00, 0.00, 0.00, -0.00, 0.00, 0.00, -12.70, -3.70, -0.25, -0.00
11.047410488128662, -3.14, 1.57, 0.96, 0.53, 1.14, -179.91, 89.95, 54.95, 30.31, 65.37, -0.00, 0.00, 0.00, -0.00, 0.00, 0.00, -12.70, -3.70, -0.25, -0.00
11.090171575546265, -3.14, 1.57, 0.96, 0.53, 1.14, -179.91, 89.95, 54.95, 30.31, 65.37, -0.00, 0.00, 0.00, -0.00, 0.00, 0.00, -12.70, -3.70, -0.25, -0.00
11.139569520950317, -3.14, 1.57, 0.96, 0.53, 1.14, -179.91, 89.95, 54.95, 30.31, 65.37, -0.00, 0.00, 0.00, -0.00, 0.00, 0.00, -12.70, -3.70, -0.25, -0.00
11.190991640090942, -3.14, 1.57, 0.96, 0.53, 1.14, -179.91, 89.95, 54.95, 30.31, 65.37, -0.00, 0.00, 0.00, -0.00, 0.00, 0.00, -12.70, -3.70, -0.25, -0.00
11.24021053314209, -3.14, 1.57, 0.96, 0.53, 1.14, -179.91, 89.95, 54.95, 30.31, 65.37, -0.00, 0.00, 0.00, -0.00, 0.00, 0.00, -12.70, -3.70, -0.25, -0.00
11.283207654953003, -3.14, 1.57, 0.96, 0.53, 1.14, -179.91, 89.95, 54.95, 30.31, 65.37, -0.00, 0.00, 0.00, -0.00, 0.00, 0.00, -12.70, -3.70, -0.25, -0.00
11.326784610748291, -3.14, 1.57, 0.96, 0.53, 1.14, -179.91, 89.95, 54.95, 30.31, 65.37, -0.00, 0.00, 0.00, -0.00, 0.00, 0.00, -12.70, -3.70, -0.25, -0.00
11.36915397644043, -3.14, 1.57, 0.96, 0.53, 1.14, -179.91, 89.95, 54.95, 30.31, 65.37, -0.00, 0.00, 0.00, -0.00, 0.00, 0.00, -12.70, -3.70, -0.25, -0.00
11.414963245391846, -3.14, 1.57, 0.96, 0.53, 1.14, -179.91, 89.95, 54.95, 30.31, 65.37, -0.00, 0.00, 0.00, -0.00, 0.00, 0.00, -12.70, -3.70, -0.25, -0.00
11.460832357406616, -3.14, 1.57, 0.96, 0.53, 1.14, -179.91, 89.95, 54.95, 30.31, 65.37, -0.00, 0.00, 0.00, -0.00, 0.00, 0.00, -12.70, -3.70, -0.25, -0.00
11.507278680801392, -3.14, 1.57, 0.96, 0.53, 1.14, -179.91, 89.95, 54.95, 30.31, 65.37, -0.00, 0.00, 0.00, -0.00, 0.00, 0.00, -12.70, -3.70, -0.25, -0.00
11.554683208465576, -3.14, 1.57, 0.96, 0.53, 1.14, -179.91, 89.95, 54.95, 30.31, 65.37, -0.00, 0.00, 0.00, -0.00, 0.00, 0.00, -12.70, -3.70, -0.25, -0.00
11.597859621047974, -3.14, 1.57, 0.96, 0.53, 1.14, -179.91, 89.95, 54.95, 30.31, 65.37, -0.00, 0.00, 0.00, -0.00, 0.00, 0.00, -12.70, -3.70, -0.25, -0.00
11.647043704986572, -3.14, 1.57, 0.96, 0.53, 1.14, -179.91, 89.95, 54.95, 30.31, 65.37, -0.00, 0.00, 0.00, -0.00, 0.00, 0.00, -12.70, -3.70, -0.25, -0.00
11.691422939300537, -3.14, 1.57, 0.96, 0.53, 1.14, -179.91, 89.95, 54.95, 30.31, 65.37, -0.00, 0.00, 0.00, -0.00, 0.00, 0.00, -12.70, -3.70, -0.25, -0.00
11.741421937942505, -3.14, 1.57, 0.96, 0.53, 1.14, -179.91, 89.95, 54.95, 30.31, 65.37, -0.00, 0.00, 0.00, -0.00, 0.00, 0.00, -12.70, -3.70, -0.25, -0.00
11.790423154830933, -3.14, 1.57, 0.96, 0.53, 1.14, -179.91, 89.95, 54.95, 30.31, 65.37, -0.00, 0.00, 0.00, -0.00, 0.00, 0.00, -12.70, -3.70, -0.25, -0.00
11.840422630310059, -3.14, 1.57, 0.96, 0.53, 1.14, -179.91, 89.95, 54.95, 30.31, 65.37, -0.00, 0.00, 0.00, -0.00, 0.00, 0.00, -12.70, -3.70, -0.25, -0.00
11.88535213470459, -3.14, 1.57, 0.96, 0.53, 1.14, -179.91, 89.95, 54.95, 30.31, 65.37, -0.00, 0.00, 0.00, -0.00, 0.00, 0.00, -12.70, -3.70, -0.25, -0.00
11.929043769836426, -3.14, 1.57, 0.96, 0.53, 1.14, -179.91, 89.95, 54.95, 30.31, 65.37, -0.00, 0.00, 0.00, -0.00, 0.00, 0.00, -12.70, -3.70, -0.25, -0.00
11.972044467926025, -3.14, 1.57, 0.96, 0.53, 1.14, -179.91, 89.95, 54.95, 30.31, 65.37, -0.00, 0.00, 0.00, -0.00, 0.00, 0.00, -12.70, -3.70, -0.25, -0.00
12.016618967056274, -3.14, 1.57, 0.96, 0.53, 1.14, -179.91, 89.95, 54.95, 30.31, 65.37, -0.00, 0.00, 0.00, -0.00, 0.00, 0.00, -12.70, -3.70, -0.25, -0.00
12.058770895004272, -3.14, 1.57, 0.96, 0.53, 1.14, -179.91, 89.95, 54.95, 30.31, 65.37, -0.00, 0.00, 0.00, -0.00, 0.00, 0.00, -12.70, -3.70, -0.25, -0.00
12.102524995803833, -3.14, 1.57, 0.96, 0.53, 1.14, -179.91, 89.95, 54.95, 30.31, 65.37, -0.00, 0.00, 0.00, -0.00, 0.00, 0.00, -12.70, -3.70, -0.25, -0.00
12.145836591720581, -3.14, 1.57, 0.96, 0.53, 1.14, -179.91, 89.95, 54.95, 30.31, 65.37, -0.00, 0.00, 0.00, -0.00, 0.00, 0.00, -12.70, -3.70, -0.25, -0.00
12.191402196884155, -3.14, 1.57, 0.96, 0.53, 1.14, -179.91, 89.95, 54.95, 30.31, 65.37, -0.00, 0.00, 0.00, -0.00, 0.00, 0.00, -12.70, -3.70, -0.25, -0.00
12.242402791976929, -3.14, 1.57, 0.96, 0.53, 1.14, -179.91, 89.95, 54.95, 30.31, 65.37, -0.00, 0.00, 0.00, -0.00, 0.00, 0.00, -12.70, -3.70, -0.25, -0.00
12.286401987075806, -3.14, 1.57, 0.96, 0.53, 1.14, -179.91, 89.95, 54.95, 30.31, 65.37, -0.00, 0.00, 0.00, -0.00, 0.00, 0.00, -12.70, -3.70, -0.25, -0.00
12.330937623977661, -3.14, 1.57, 0.96, 0.53, 1.14, -179.91, 89.95, 54.95, 30.31, 65.37, -0.00, 0.00, 0.00, -0.00, 0.00, 0.00, -12.70, -3.70, -0.25, -0.00
12.3750901222229, -3.14, 1.57, 0.96, 0.53, 1.14, -179.91, 89.95, 54.95, 30.31, 65.37, -0.00, 0.00, 0.00, -0.00, 0.00, 0.00, -12.70, -3.70, -0.25, -0.00
12.417083501815796, -3.14, 1.57, 0.96, 0.53, 1.14, -179.91, 89.95, 54.95, 30.31, 65.37, -0.00, 0.00, 0.00, -0.00, 0.00, 0.00, -12.70, -3.70, -0.25, -0.00
12.461710453033447, -3.14, 1.57, 0.96, 0.53, 1.14, -179.91, 89.95, 54.95, 30.31, 65.37, -0.00, 0.00, 0.00, -0.00, 0.00, 0.00, -12.70, -3.70, -0.25, -0.00
12.508141040802002, -3.14, 1.57, 0.96, 0.53, 1.14, -179.91, 89.95, 54.95, 30.31, 65.37, -0.00, 0.00, 0.00, -0.00, 0.00, 0.00, -12.70, -3.70, -0.25, -0.00
12.553181648254395, -3.14, 1.57, 0.96, 0.53, 1.14, -179.91, 89.95, 54.95, 30.31, 65.37, -0.00, 0.00, 0.00, -0.00, 0.00, 0.00, -12.70, -3.70, -0.25, -0.00
12.594977378845215, -3.14, 1.57, 0.96, 0.53, 1.14, -179.91, 89.95, 54.95, 30.31, 65.37, -0.00, 0.00, 0.00, -0.00, 0.00, 0.00, -12.70, -3.70, -0.25, -0.00
12.638980150222778, -3.14, 1.57, 0.96, 0.53, 1.14, -179.91, 89.95, 54.95, 30.31, 65.37, -0.00, 0.00, 0.00, -0.00, 0.00, 0.00, -12.70, -3.70, -0.25, -0.00
12.684812784194946, -3.14, 1.57, 0.96, 0.53, 1.14, -179.91, 89.95, 54.95, 30.31, 65.37, -0.00, 0.00, 0.00, -0.00, 0.00, 0.00, -12.70, -3.70, -0.25, -0.00
12.726265907287598, -3.14, 1.57, 0.96, 0.53, 1.14, -179.91, 89.95, 54.95, 30.31, 65.37, -0.00, 0.00, 0.00, -0.00, 0.00, 0.00, -12.70, -3.70, -0.25, -0.00
12.76943039894104, -3.14, 1.57, 0.96, 0.53, 1.14, -179.91, 89.95, 54.95, 30.31, 65.37, -0.00, 0.00, 0.00, -0.00, 0.00, 0.00, -12.70, -3.70, -0.25, -0.00
12.813868999481201, -3.14, 1.57, 0.96, 0.53, 1.14, -179.91, 89.95, 54.95, 30.31, 65.37, -0.00, 0.00, 0.00, -0.00, 0.00, 0.00, -12.70, -3.70, -0.25, -0.00
12.857890844345093, -3.14, 1.57, 0.96, 0.53, 1.14, -179.91, 89.95, 54.95, 30.31, 65.37, -0.00, 0.00, 0.00, -0.00, 0.00, 0.00, -12.70, -3.70, -0.25, -0.00
12.900315284729004, -3.14, 1.57, 0.96, 0.53, 1.14, -179.91, 89.95, 54.95, 30.31, 65.37, -0.00, 0.00, 0.00, -0.00, 0.00, 0.00, -12.70, -3.70, -0.25, -0.00
12.946315288543701, -3.14, 1.57, 0.96, 0.53, 1.14, -179.91, 89.95, 54.95, 30.31, 65.37, -0.00, 0.00, 0.00, -0.00, 0.00, 0.00, -12.70, -3.70, -0.25, -0.00
12.992315769195557, -3.14, 1.57, 0.96, 0.53, 1.14, -179.91, 89.95, 54.95, 30.31, 65.37, -0.00, 0.00, 0.00, -0.00, 0.00, 0.00, -12.70, -3.70, -0.25, -0.00
13.042934894561768, -3.14, 1.57, 0.96, 0.53, 1.14, -179.91, 89.95, 54.95, 30.31, 65.37, -0.00, 0.00, 0.00, -0.00, 0.00, 0.00, -12.70, -3.70, -0.25, -0.00
13.090657949447632, -3.14, 1.57, 0.96, 0.53, 1.14, -179.91, 89.95, 54.95, 30.31, 65.37, -0.00, 0.00, 0.00, -0.00, 0.00, 0.00, -12.70, -3.70, -0.25, -0.00
13.138721227645874, -3.14, 1.57, 0.96, 0.53, 1.14, -179.91, 89.95, 54.95, 30.31, 65.37, -0.00, 0.00, 0.00, -0.00, 0.00, 0.00, -12.70, -3.70, -0.25, -0.00
13.185620307922363, -3.14, 1.57, 0.96, 0.53, 1.14, -179.91, 89.95, 54.95, 30.31, 65.37, -0.00, 0.00, 0.00, -0.00, 0.00, 0.00, -12.70, -3.70, -0.25, -0.00
13.233973979949951, -3.14, 1.57, 0.96, 0.53, 1.14, -179.91, 89.95, 54.95, 30.31, 65.37, -0.00, 0.00, 0.00, -0.00, 0.00, 0.00, -12.70, -3.70, -0.25, -0.00
13.284605741500854, -3.14, 1.57, 0.96, 0.53, 1.14, -179.91, 89.95, 54.95, 30.31, 65.37, -0.00, 0.00, 0.00, -0.00, 0.00, 0.00, -12.70, -3.70, -0.25, -0.00
13.340595483779907, -3.14, 1.57, 0.96, 0.53, 1.14, -179.91, 89.95, 54.95, 30.31, 65.37, -0.00, 0.00, 0.00, -0.00, 0.00, 0.00, -12.70, -3.70, -0.25, -0.00
13.388595819473267, -3.14, 1.57, 0.96, 0.53, 1.14, -179.91, 89.95, 54.95, 30.31, 65.37, -0.00, 0.00, 0.00, -0.00, 0.00, 0.00, -12.70, -3.70, -0.25, -0.00
13.437120914459229, -3.14, 1.57, 0.96, 0.53, 1.14, -179.91, 89.95, 54.95, 30.31, 65.37, -0.00, 0.00, 0.00, -0.00, 0.00, 0.00, -12.70, -3.70, -0.25, -0.00
13.480297088623047, -3.14, 1.57, 0.96, 0.53, 1.14, -179.91, 89.95, 54.95, 30.31, 65.37, -0.00, 0.00, 0.00, -0.00, 0.00, 0.00, -12.70, -3.70, -0.25, -0.00
13.526077270507812, -3.14, 1.57, 0.96, 0.53, 1.14, -179.91, 89.95, 54.95, 30.31, 65.37, -0.00, 0.00, 0.00, -0.00, 0.00, 0.00, -12.70, -3.70, -0.25, -0.00
13.577134370803833, -3.14, 1.57, 0.96, 0.53, 1.14, -179.91, 89.95, 54.95, 30.31, 65.37, -0.00, 0.00, 0.00, -0.00, 0.00, 0.00, -12.70, -3.70, -0.25, -0.00
13.622382402420044, -3.14, 1.57, 0.96, 0.53, 1.14, -179.91, 89.95, 54.95, 30.31, 65.37, -0.00, 0.00, 0.00, -0.00, 0.00, 0.00, -12.70, -3.70, -0.25, -0.00
13.670536756515503, -3.14, 1.57, 0.96, 0.53, 1.14, -179.91, 89.95, 54.95, 30.31, 65.37, -0.00, 0.00, 0.00, -0.00, 0.00, 0.00, -12.70, -3.70, -0.25, -0.00
13.71731972694397, -3.14, 1.57, 0.96, 0.53, 1.14, -179.91, 89.95, 54.95, 30.31, 65.37, -0.00, 0.00, 0.00, -0.00, 0.00, 0.00, -12.70, -3.70, -0.25, -0.00
13.76110553741455, -3.14, 1.57, 0.96, 0.53, 1.14, -179.91, 89.95, 54.95, 30.31, 65.37, -0.00, 0.00, 0.00, -0.00, 0.00, 0.00, -12.70, -3.70, -0.25, -0.00
13.80712604522705, -3.14, 1.57, 0.96, 0.53, 1.14, -179.91, 89.95, 54.95, 30.31, 65.37, -0.00, 0.00, 0.00, -0.00, 0.00, 0.00, -12.70, -3.70, -0.25, -0.00
13.850616693496704, -3.14, 1.57, 0.96, 0.53, 1.14, -179.91, 89.95, 54.95, 30.31, 65.37, -0.00, 0.00, 0.00, -0.00, 0.00, 0.00, -12.70, -3.70, -0.25, -0.00
13.894287586212158, -3.14, 1.57, 0.96, 0.53, 1.14, -179.91, 89.95, 54.95, 30.31, 65.37, -0.00, 0.00, 0.00, -0.00, 0.00, 0.00, -12.70, -3.70, -0.25, -0.00
13.943375587463379, -3.14, 1.57, 0.96, 0.53, 1.14, -179.91, 89.95, 54.95, 30.31, 65.37, -0.00, 0.00, 0.00, -0.00, 0.00, 0.00, -12.70, -3.70, -0.25, -0.00
13.992905139923096, -3.14, 1.57, 0.96, 0.53, 1.14, -179.91, 89.95, 54.95, 30.31, 65.37, -0.00, 0.00, 0.00, -0.00, 0.00, 0.00, -12.70, -3.70, -0.25, -0.00
14.039946556091309, -3.14, 1.57, 0.96, 0.53, 1.14, -179.91, 89.95, 54.95, 30.31, 65.37, -0.00, 0.00, 0.00, -0.00, 0.00, 0.00, -12.70, -3.70, -0.25, -0.00
14.08804178237915, -3.14, 1.57, 0.96, 0.53, 1.14, -179.91, 89.95, 54.95, 30.31, 65.37, -0.00, 0.00, 0.00, -0.00, 0.00, 0.00, -12.70, -3.70, -0.25, -0.00
14.133042335510254, -3.14, 1.57, 0.96, 0.53, 1.14, -179.91, 89.95, 54.95, 30.31, 65.37, -0.00, 0.00, 0.00, -0.00, 0.00, 0.00, -12.70, -3.70, -0.25, -0.00
14.177042722702026, -3.14, 1.57, 0.96, 0.53, 1.14, -179.91, 89.95, 54.95, 30.31, 65.37, -0.00, 0.00, 0.00, -0.00, 0.00, 0.00, -12.70, -3.70, -0.25, -0.00
14.220041990280151, -3.14, 1.57, 0.96, 0.53, 1.14, -179.91, 89.95, 54.95, 30.31, 65.37, -0.00, 0.00, 0.00, -0.00, 0.00, 0.00, -12.70, -3.70, -0.25, -0.00
14.26664423942566, -3.14, 1.57, 0.96, 0.53, 1.14, -179.91, 89.95, 54.95, 30.31, 65.37, -0.00, 0.00, 0.00, -0.00, 0.00, 0.00, -12.70, -3.70, -0.25, -0.00
14.310518980026245, -3.14, 1.57, 0.96, 0.53, 1.14, -179.91, 89.95, 54.95, 30.31, 65.37, -0.00, 0.00, 0.00, -0.00, 0.00, 0.00, -12.70, -3.70, -0.25, -0.00
14.355995655059814, -3.14, 1.57, 0.96, 0.53, 1.14, -179.91, 89.95, 54.95, 30.31, 65.37, -0.00, 0.00, 0.00, -0.00, 0.00, 0.00, -12.70, -3.70, -0.25, -0.00
14.401199102401733, -3.14, 1.57, 0.96, 0.53, 1.14, -179.91, 89.95, 54.95, 30.31, 65.37, -0.00, 0.00, 0.00, -0.00, 0.00, 0.00, -12.70, -3.70, -0.25, -0.00
14.449615240097046, -3.14, 1.57, 0.96, 0.53, 1.14, -179.91, 89.95, 54.95, 30.31, 65.37, -0.00, 0.00, 0.00, -0.00, 0.00, 0.00, -12.70, -3.70, -0.25, -0.00
14.496091604232788, -3.14, 1.57, 0.96, 0.53, 1.14, -179.91, 89.95, 54.95, 30.31, 65.37, -0.00, 0.00, 0.00, -0.00, 0.00, 0.00, -12.70, -3.70, -0.25, -0.00
14.540091753005981, -3.14, 1.57, 0.96, 0.53, 1.14, -179.91, 89.95, 54.95, 30.31, 65.37, -0.00, 0.00, 0.00, -0.00, 0.00, 0.00, -12.70, -3.70, -0.25, -0.00
14.583092212677002, -3.14, 1.57, 0.96, 0.53, 1.14, -179.91, 89.95, 54.95, 30.31, 65.37, -0.00, 0.00, 0.00, -0.00, 0.00, 0.00, -12.70, -3.70, -0.25, -0.00
14.626091480255127, -3.14, 1.57, 0.96, 0.53, 1.14, -179.91, 89.95, 54.95, 30.31, 65.37, -0.00, 0.00, 0.00, -0.00, 0.00, 0.00, -12.70, -3.70, -0.25, -0.00
14.669094324111938, -3.14, 1.57, 0.96, 0.53, 1.14, -179.91, 89.95, 54.95, 30.31, 65.37, -0.00, 0.00, 0.00, -0.00, 0.00, 0.00, -12.70, -3.70, -0.25, -0.00
14.71385407447815, -3.14, 1.57, 0.96, 0.53, 1.14, -179.91, 89.95, 54.95, 30.31, 65.37, -0.00, 0.00, 0.00, -0.00, 0.00, 0.00, -12.70, -3.70, -0.25, -0.00
14.761042356491089, -3.14, 1.57, 0.96, 0.53, 1.14, -179.91, 89.95, 54.95, 30.31, 65.37, -0.00, 0.00, 0.00, -0.00, 0.00, 0.00, -12.70, -3.70, -0.25, -0.00
14.804053544998169, -3.14, 1.57, 0.96, 0.53, 1.14, -179.91, 89.95, 54.95, 30.31, 65.37, -0.00, 0.00, 0.00, -0.00, 0.00, 0.00, -12.70, -3.70, -0.25, -0.00
14.85370683670044, -3.14, 1.57, 0.96, 0.53, 1.14, -179.91, 89.95, 54.95, 30.31, 65.37, -0.00, 0.00, 0.00, -0.00, 0.00, 0.00, -12.70, -3.70, -0.25, -0.00
14.902406215667725, -3.14, 1.57, 0.96, 0.53, 1.14, -179.91, 89.95, 54.95, 30.31, 65.37, -0.00, 0.00, 0.00, -0.00, 0.00, 0.00, -12.70, -3.70, -0.25, -0.00
14.95107913017273, -3.14, 1.57, 0.96, 0.53, 1.14, -179.91, 89.95, 54.95, 30.31, 65.37, -0.00, 0.00, 0.00, -0.00, 0.00, 0.00, -12.70, -3.70, -0.25, -0.00
14.998006820678711, -3.14, 1.57, 0.96, 0.53, 1.14, -179.91, 89.95, 54.95, 30.31, 65.37, -0.00, 0.00, 0.00, -0.00, 0.00, 0.00, -12.70, -3.70, -0.25, -0.00
15.045031785964966, -3.14, 1.57, 0.96, 0.53, 1.14, -179.91, 89.95, 54.95, 30.31, 65.37, -0.00, 0.00, 0.00, -0.00, 0.00, 0.00, -12.70, -3.70, -0.25, -0.00
15.091582298278809, -3.14, 1.57, 0.96, 0.53, 1.14, -179.91, 89.95, 54.95, 30.31, 65.37, -0.00, 0.00, 0.00, -0.00, 0.00, 0.00, -12.70, -3.70, -0.25, -0.00
15.136633396148682, -3.14, 1.57, 0.96, 0.53, 1.14, -179.91, 89.95, 54.95, 30.31, 65.37, -0.00, 0.00, 0.00, -0.00, 0.00, 0.00, -12.70, -3.70, -0.25, -0.00
15.180875062942505, -3.14, 1.57, 0.96, 0.53, 1.14, -179.91, 89.95, 54.95, 30.31, 65.37, -0.00, 0.00, 0.00, -0.00, 0.00, 0.00, -12.70, -3.70, -0.25, -0.00
15.225871801376343, -3.14, 1.57, 0.96, 0.53, 1.14, -179.91, 89.95, 54.95, 30.31, 65.37, -0.00, 0.00, 0.00, -0.00, 0.00, 0.00, -12.70, -3.70, -0.25, -0.00
15.269873857498169, -3.14, 1.57, 0.96, 0.53, 1.14, -179.91, 89.95, 54.95, 30.31, 65.37, -0.00, 0.00, 0.00, -0.00, 0.00, 0.00, -12.70, -3.70, -0.25, -0.00
15.313774108886719, -3.14, 1.57, 0.96, 0.53, 1.14, -179.91, 89.95, 54.95, 30.31, 65.37, -0.00, 0.00, 0.00, -0.00, 0.00, 0.00, -12.70, -3.70, -0.25, -0.00
15.356776714324951, -3.14, 1.57, 0.96, 0.53, 1.14, -179.91, 89.95, 54.95, 30.31, 65.37, -0.00, 0.00, 0.00, -0.00, 0.00, 0.00, -12.70, -3.70, -0.25, -0.00
15.402685403823853, -3.14, 1.57, 0.96, 0.53, 1.14, -179.91, 89.95, 54.95, 30.31, 65.37, -0.00, 0.00, 0.00, -0.00, 0.00, 0.00, -12.70, -3.70, -0.25, -0.00
15.451101064682007, -3.14, 1.57, 0.96, 0.53, 1.14, -179.91, 89.95, 54.95, 30.31, 65.37, -0.00, 0.00, 0.00, -0.00, 0.00, 0.00, -12.70, -3.70, -0.25, -0.00
15.497803211212158, -3.14, 1.57, 0.96, 0.53, 1.14, -179.91, 89.95, 54.95, 30.31, 65.37, -0.00, 0.00, 0.00, -0.00, 0.00, 0.00, -12.70, -3.70, -0.25, -0.00
15.54355001449585, -3.14, 1.57, 0.96, 0.53, 1.14, -179.91, 89.95, 54.95, 30.31, 65.37, -0.00, 0.00, 0.00, -0.00, 0.00, 0.00, -12.70, -3.70, -0.25, -0.00
15.58802080154419, -3.14, 1.57, 0.96, 0.53, 1.14, -179.91, 89.95, 54.95, 30.31, 65.37, -0.00, 0.00, 0.00, -0.00, 0.00, 0.00, -12.70, -3.70, -0.25, -0.00
15.628507137298584, -3.14, 1.57, 0.96, 0.53, 1.14, -179.91, 89.95, 54.95, 30.31, 65.37, -0.00, 0.00, 0.00, -0.00, 0.00, 0.00, -12.70, -3.70, -0.25, -0.00
15.672296047210693, -3.14, 1.57, 0.96, 0.53, 1.14, -179.91, 89.95, 54.95, 30.31, 65.37, -0.00, 0.00, 0.00, -0.00, 0.00, 0.00, -12.70, -3.70, -0.25, -0.00
15.7160325050354, -3.14, 1.57, 0.96, 0.53, 1.14, -179.91, 89.95, 54.95, 30.31, 65.37, -0.00, 0.00, 0.00, -0.00, 0.00, 0.00, -12.70, -3.70, -0.25, -0.00
15.766032218933105, -3.14, 1.57, 0.96, 0.53, 1.14, -179.91, 89.95, 54.95, 30.31, 65.37, -0.00, 0.00, 0.00, -0.00, 0.00, 0.00, -12.70, -3.70, -0.25, -0.00
15.813033103942871, -3.14, 1.57, 0.96, 0.53, 1.14, -179.91, 89.95, 54.95, 30.31, 65.37, -0.00, 0.00, 0.00, -0.00, 0.00, 0.00, -12.70, -3.70, -0.25, -0.00
15.865751266479492, -3.14, 1.57, 0.96, 0.53, 1.14, -179.91, 89.95, 54.95, 30.31, 65.37, -0.00, 0.00, 0.00, -0.00, 0.00, 0.00, -12.70, -3.70, -0.25, -0.00
15.913751602172852, -3.14, 1.57, 0.96, 0.53, 1.14, -179.91, 89.95, 54.95, 30.31, 65.37, -0.00, 0.00, 0.00, -0.00, 0.00, 0.00, -12.70, -3.70, -0.25, -0.00
15.962750434875488, -3.14, 1.57, 0.96, 0.53, 1.14, -179.91, 89.95, 54.95, 30.31, 65.37, -0.00, 0.00, 0.00, -0.00, 0.00, 0.00, -12.70, -3.70, -0.25, -0.00
16.014268398284912, -3.14, 1.57, 0.96, 0.53, 1.14, -179.91, 89.95, 54.95, 30.31, 65.37, -0.00, 0.00, 0.00, -0.00, 0.00, 0.00, -12.70, -3.70, -0.25, -0.00
16.061705112457275, -3.14, 1.57, 0.96, 0.53, 1.14, -179.91, 89.95, 54.95, 30.31, 65.37, -0.00, 0.00, 0.00, -0.00, 0.00, 0.00, -12.70, -3.70, -0.25, -0.00
16.11229109764099, -3.14, 1.57, 0.96, 0.53, 1.14, -179.91, 89.95, 54.95, 30.31, 65.37, -0.00, 0.00, 0.00, -0.00, 0.00, 0.00, -12.70, -3.70, -0.25, -0.00
16.172292232513428, -3.14, 1.57, 0.96, 0.53, 1.14, -179.91, 89.95, 54.95, 30.31, 65.37, -0.00, 0.00, 0.00, -0.00, 0.00, 0.00, -12.70, -3.70, -0.25, -0.00
16.22329306602478, -3.14, 1.57, 0.96, 0.53, 1.14, -179.91, 89.95, 54.95, 30.31, 65.37, -0.00, 0.00, 0.00, -0.00, 0.00, 0.00, -12.70, -3.70, -0.25, -0.00
16.270292282104492, -3.14, 1.57, 0.96, 0.53, 1.14, -179.91, 89.95, 54.95, 30.31, 65.37, -0.00, 0.00, 0.00, -0.00, 0.00, 0.00, -12.70, -3.70, -0.25, -0.00
16.320293188095093, -3.14, 1.57, 0.96, 0.53, 1.14, -179.91, 89.95, 54.95, 30.31, 65.37, -0.00, 0.00, 0.00, -0.00, 0.00, 0.00, -12.70, -3.70, -0.25, -0.00
16.364291191101074, -3.14, 1.57, 0.96, 0.53, 1.14, -179.91, 89.95, 54.95, 30.31, 65.37, -0.00, 0.00, 0.00, -0.00, 0.00, 0.00, -12.70, -3.70, -0.25, -0.00
16.40829086303711, -3.14, 1.57, 0.96, 0.53, 1.14, -179.91, 89.95, 54.95, 30.31, 65.37, -0.00, 0.00, 0.00, -0.00, 0.00, 0.00, -12.70, -3.70, -0.25, -0.00
16.452245950698853, -3.14, 1.57, 0.96, 0.53, 1.14, -179.91, 89.95, 54.95, 30.31, 65.37, -0.00, 0.00, 0.00, -0.00, 0.00, 0.00, -12.70, -3.70, -0.25, -0.00
16.50113606452942, -3.14, 1.57, 0.96, 0.53, 1.14, -179.91, 89.95, 54.95, 30.31, 65.37, -0.00, 0.00, 0.00, -0.00, 0.00, 0.00, -12.70, -3.70, -0.25, -0.00
16.549651861190796, -3.14, 1.57, 0.96, 0.53, 1.14, -179.91, 89.95, 54.95, 30.31, 65.37, -0.00, 0.00, 0.00, -0.00, 0.00, 0.00, -12.70, -3.70, -0.25, -0.00
16.59765338897705, -3.14, 1.57, 0.96, 0.53, 1.14, -179.91, 89.95, 54.95, 30.31, 65.37, -0.00, 0.00, 0.00, -0.00, 0.00, 0.00, -12.70, -3.70, -0.25, -0.00
16.638654470443726, -3.14, 1.57, 0.96, 0.53, 1.14, -179.91, 89.95, 54.95, 30.31, 65.37, -0.00, 0.00, 0.00, -0.00, 0.00, -0.00, -12.70, -3.70, -0.25, -0.00
16.684653759002686, -3.14, 1.57, 0.96, 0.53, 1.14, -179.91, 89.95, 54.95, 30.31, 65.37, -0.00, 0.00, 0.00, -0.00, 0.00, -0.00, -12.70, -3.70, -0.25, -0.00
16.729656219482422, -3.14, 1.57, 0.96, 0.53, 1.14, -179.91, 89.95, 54.95, 30.31, 65.37, -0.00, 0.00, 0.00, -0.00, 0.00, -0.00, -12.70, -3.70, -0.25, -0.00
16.773651838302612, -3.14, 1.57, 0.96, 0.53, 1.14, -179.91, 89.95, 54.95, 30.31, 65.37, -0.00, 0.00, 0.00, -0.00, 0.00, -0.00, -12.70, -3.70, -0.25, -0.00
16.824651956558228, -3.14, 1.57, 0.96, 0.53, 1.14, -179.91, 89.95, 54.95, 30.31, 65.37, -0.00, 0.00, 0.00, -0.00, 0.00, -0.00, -12.70, -3.70, -0.25, -0.00
16.873650789260864, -3.14, 1.57, 0.96, 0.53, 1.14, -179.91, 89.95, 54.95, 30.31, 65.37, -0.00, 0.00, 0.00, -0.00, 0.00, -0.00, -12.70, -3.70, -0.25, -0.00
16.922281742095947, -3.14, 1.57, 0.96, 0.53, 1.14, -179.91, 89.95, 54.95, 30.31, 65.37, -0.00, 0.00, 0.00, -0.00, 0.00, -0.00, -12.70, -3.70, -0.25, -0.00
16.96454882621765, -3.14, 1.57, 0.96, 0.53, 1.14, -179.91, 89.95, 54.95, 30.31, 65.37, -0.00, 0.00, 0.00, -0.00, 0.00, -0.00, -12.70, -3.70, -0.25, -0.00
17.01110577583313, -3.14, 1.57, 0.96, 0.53, 1.14, -179.91, 89.95, 54.95, 30.31, 65.37, -0.00, 0.00, 0.00, -0.00, 0.00, -0.00, -12.70, -3.70, -0.25, -0.00
17.058430910110474, -3.14, 1.57, 0.96, 0.53, 1.14, -179.91, 89.95, 54.95, 30.31, 65.37, -0.00, 0.00, 0.00, -0.00, 0.00, -0.00, -12.70, -3.70, -0.25, -0.00
17.1011700630188, -3.14, 1.57, 0.96, 0.53, 1.14, -179.91, 89.95, 54.95, 30.31, 65.37, -0.00, 0.00, 0.00, -0.00, 0.00, -0.00, -12.70, -3.70, -0.25, -0.00
17.145132064819336, -3.14, 1.57, 0.96, 0.53, 1.14, -179.91, 89.95, 54.95, 30.31, 65.37, -0.00, 0.00, 0.00, -0.00, 0.00, -0.00, -12.70, -3.70, -0.25, -0.00
17.19569683074951, -3.14, 1.57, 0.96, 0.53, 1.14, -179.91, 89.95, 54.95, 30.31, 65.37, -0.00, 0.00, 0.00, -0.00, 0.00, -0.00, -12.70, -3.70, -0.25, -0.00
17.24369788169861, -3.14, 1.57, 0.96, 0.53, 1.14, -179.91, 89.95, 54.95, 30.31, 65.37, -0.00, 0.00, 0.00, -0.00, 0.00, -0.00, -12.70, -3.70, -0.25, -0.00
17.29269576072693, -3.14, 1.57, 0.96, 0.53, 1.14, -179.91, 89.95, 54.95, 30.31, 65.37, -0.00, 0.00, 0.00, -0.00, 0.00, -0.00, -12.70, -3.70, -0.25, -0.00
17.339697122573853, -3.14, 1.57, 0.96, 0.53, 1.14, -179.91, 89.95, 54.95, 30.31, 65.37, -0.00, 0.00, 0.00, -0.00, 0.00, -0.00, -12.70, -3.70, -0.25, -0.00
17.388225078582764, -3.14, 1.57, 0.96, 0.53, 1.14, -179.91, 89.95, 54.95, 30.31, 65.37, -0.00, 0.00, 0.00, -0.00, 0.00, -0.00, -12.70, -3.70, -0.25, -0.00
17.434208869934082, -3.14, 1.57, 0.96, 0.53, 1.14, -179.91, 89.95, 54.95, 30.31, 65.37, -0.00, 0.00, 0.00, -0.00, 0.00, -0.00, -12.70, -3.70, -0.25, -0.00
17.483722448349, -3.14, 1.57, 0.96, 0.53, 1.14, -179.91, 89.95, 54.95, 30.31, 65.37, -0.00, 0.00, 0.00, -0.00, 0.00, -0.00, -12.70, -3.70, -0.25, -0.00
17.53472352027893, -3.14, 1.57, 0.96, 0.53, 1.14, -179.91, 89.95, 54.95, 30.31, 65.37, -0.00, 0.00, 0.00, -0.00, 0.00, -0.00, -12.70, -3.70, -0.25, -0.00
17.57972264289856, -3.14, 1.57, 0.96, 0.53, 1.14, -179.91, 89.95, 54.95, 30.31, 65.37, -0.00, 0.00, 0.00, -0.00, 0.00, -0.00, -12.70, -3.70, -0.25, -0.00
17.62372350692749, -3.14, 1.57, 0.96, 0.53, 1.14, -179.91, 89.95, 54.95, 30.31, 65.37, -0.00, 0.00, 0.00, -0.00, 0.00, -0.00, -12.70, -3.70, -0.25, -0.00
17.666723012924194, -3.14, 1.57, 0.96, 0.53, 1.14, -179.91, 89.95, 54.95, 30.31, 65.37, -0.00, 0.00, 0.00, -0.00, 0.00, -0.00, -12.70, -3.70, -0.25, -0.00
17.708723306655884, -3.14, 1.57, 0.96, 0.53, 1.14, -179.91, 89.95, 54.95, 30.31, 65.37, -0.00, 0.00, 0.00, -0.00, 0.00, -0.00, -12.70, -3.70, -0.25, -0.00
17.754720449447632, -3.14, 1.57, 0.96, 0.53, 1.14, -179.91, 89.95, 54.95, 30.31, 65.37, -0.00, 0.00, 0.00, -0.00, 0.00, -0.00, -12.70, -3.70, -0.25, -0.00
17.801522493362427, -3.14, 1.57, 0.96, 0.53, 1.14, -179.91, 89.95, 54.95, 30.31, 65.37, -0.00, 0.00, 0.00, -0.00, 0.00, -0.00, -12.70, -3.70, -0.25, -0.00
17.847148418426514, -3.14, 1.57, 0.96, 0.53, 1.14, -179.91, 89.95, 54.95, 30.31, 65.37, -0.00, 0.00, 0.00, -0.00, 0.00, -0.00, -12.70, -3.70, -0.25, -0.00
17.893829345703125, -3.14, 1.57, 0.96, 0.53, 1.14, -179.91, 89.95, 54.95, 30.31, 65.37, -0.00, 0.00, 0.00, -0.00, 0.00, -0.00, -12.70, -3.70, -0.25, -0.00
17.94131350517273, -3.14, 1.57, 0.96, 0.53, 1.14, -179.91, 89.95, 54.95, 30.31, 65.37, -0.00, 0.00, 0.00, -0.00, 0.00, -0.00, -12.70, -3.70, -0.25, -0.00
17.98896837234497, -3.14, 1.57, 0.96, 0.53, 1.14, -179.91, 89.95, 54.95, 30.31, 65.37, -0.00, 0.00, 0.00, -0.00, 0.00, -0.00, -12.70, -3.70, -0.25, -0.00
18.034757614135742, -3.14, 1.57, 0.96, 0.53, 1.14, -179.91, 89.95, 54.95, 30.31, 65.37, -0.00, 0.00, 0.00, -0.00, 0.00, -0.00, -12.70, -3.70, -0.25, -0.00
18.078434705734253, -3.14, 1.57, 0.96, 0.53, 1.14, -179.91, 89.95, 54.95, 30.31, 65.37, -0.00, 0.00, 0.00, -0.00, 0.00, -0.00, -12.70, -3.70, -0.25, -0.00
18.12240242958069, -3.14, 1.57, 0.96, 0.53, 1.14, -179.91, 89.95, 54.95, 30.31, 65.37, -0.00, 0.00, 0.00, -0.00, 0.00, -0.00, -12.70, -3.70, -0.25, -0.00
18.16940450668335, -3.14, 1.57, 0.96, 0.53, 1.14, -179.91, 89.95, 54.95, 30.31, 65.37, -0.00, 0.00, 0.00, -0.00, 0.00, -0.00, -12.70, -3.70, -0.25, -0.00
18.213403463363647, -3.14, 1.57, 0.96, 0.53, 1.14, -179.91, 89.95, 54.95, 30.31, 65.37, -0.00, 0.00, 0.00, -0.00, 0.00, -0.00, -12.70, -3.70, -0.25, -0.00
18.25509548187256, -3.14, 1.57, 0.96, 0.53, 1.14, -179.91, 89.95, 54.95, 30.31, 65.37, -0.00, 0.00, 0.00, -0.00, 0.00, -0.00, -12.70, -3.70, -0.25, -0.00
18.29871654510498, -3.14, 1.57, 0.96, 0.53, 1.14, -179.91, 89.95, 54.95, 30.31, 65.37, -0.00, 0.00, 0.00, -0.00, 0.00, -0.00, -12.70, -3.70, -0.25, -0.00
18.34404945373535, -3.14, 1.57, 0.96, 0.53, 1.14, -179.91, 89.95, 54.95, 30.31, 65.37, -0.00, 0.00, 0.00, -0.00, 0.00, -0.00, -12.70, -3.70, -0.25, -0.00
18.387738466262817, -3.14, 1.57, 0.96, 0.53, 1.14, -179.91, 89.95, 54.95, 30.31, 65.37, -0.00, 0.00, 0.00, -0.00, 0.00, -0.00, -12.70, -3.70, -0.25, -0.00
18.438354969024658, -3.14, 1.57, 0.96, 0.53, 1.14, -179.91, 89.95, 54.95, 30.31, 65.37, -0.00, 0.00, 0.00, -0.00, 0.00, -0.00, -12.70, -3.70, -0.25, -0.00
18.489522218704224, -3.14, 1.57, 0.96, 0.53, 1.14, -179.91, 89.95, 54.95, 30.31, 65.37, -0.00, 0.00, 0.00, -0.00, 0.00, -0.00, -12.70, -3.70, -0.25, -0.00
18.53496551513672, -3.14, 1.57, 0.96, 0.53, 1.14, -179.91, 89.95, 54.95, 30.31, 65.37, -0.00, 0.00, 0.00, -0.00, 0.00, -0.00, -12.70, -3.70, -0.25, -0.00
18.581275701522827, -3.14, 1.57, 0.96, 0.53, 1.14, -179.91, 89.95, 54.95, 30.31, 65.37, -0.00, 0.00, 0.00, -0.00, 0.00, -0.00, -12.70, -3.70, -0.25, -0.00
18.624558210372925, -3.14, 1.57, 0.96, 0.53, 1.14, -179.91, 89.95, 54.95, 30.31, 65.37, -0.00, 0.00, 0.00, -0.00, 0.00, -0.00, -12.70, -3.70, -0.25, -0.00
18.666599988937378, -3.14, 1.57, 0.96, 0.53, 1.14, -179.91, 89.95, 54.95, 30.31, 65.37, -0.00, 0.00, 0.00, -0.00, 0.00, -0.00, -12.70, -3.70, -0.25, -0.00
18.71117877960205, -3.14, 1.57, 0.96, 0.53, 1.14, -179.91, 89.95, 54.95, 30.31, 65.37, -0.00, 0.00, 0.00, -0.00, 0.00, -0.00, -12.70, -3.70, -0.25, -0.00
18.753941774368286, -3.14, 1.57, 0.96, 0.53, 1.14, -179.91, 89.95, 54.95, 30.31, 65.37, -0.00, 0.00, 0.00, -0.00, 0.00, -0.00, -12.70, -3.70, -0.25, -0.00
18.796862363815308, -3.14, 1.57, 0.96, 0.53, 1.14, -179.91, 89.95, 54.95, 30.31, 65.37, -0.00, 0.00, 0.00, -0.00, 0.00, -0.00, -12.70, -3.70, -0.25, -0.00
18.840227842330933, -3.14, 1.57, 0.96, 0.53, 1.14, -179.91, 89.95, 54.95, 30.31, 65.37, -0.00, 0.00, 0.00, -0.00, 0.00, -0.00, -12.70, -3.70, -0.25, -0.00
18.886547327041626, -3.14, 1.57, 0.96, 0.53, 1.14, -179.91, 89.95, 54.95, 30.31, 65.37, -0.00, 0.00, 0.00, -0.00, 0.00, -0.00, -12.70, -3.70, -0.25, -0.00
18.935885190963745, -3.14, 1.57, 0.96, 0.53, 1.14, -179.91, 89.95, 54.95, 30.31, 65.37, -0.00, 0.00, 0.00, -0.00, 0.00, -0.00, -12.70, -3.70, -0.25, -0.00
18.983071088790894, -3.14, 1.57, 0.96, 0.53, 1.14, -179.91, 89.95, 54.95, 30.31, 65.37, -0.00, 0.00, 0.00, -0.00, 0.00, -0.00, -12.70, -3.70, -0.25, -0.00
19.043264150619507, -3.14, 1.57, 0.96, 0.53, 1.14, -179.91, 89.95, 54.95, 30.31, 65.37, -0.00, 0.00, 0.00, -0.00, 0.00, -0.00, -12.70, -3.70, -0.25, -0.00
19.090262413024902, -3.14, 1.57, 0.96, 0.53, 1.14, -179.91, 89.95, 54.95, 30.31, 65.37, -0.00, 0.00, 0.00, -0.00, 0.00, -0.00, -12.70, -3.70, -0.25, -0.00
19.136260509490967, -3.14, 1.57, 0.96, 0.53, 1.14, -179.91, 89.95, 54.95, 30.31, 65.37, -0.00, 0.00, 0.00, -0.00, 0.00, -0.00, -12.70, -3.70, -0.25, -0.00
19.19103217124939, -3.14, 1.57, 0.96, 0.53, 1.14, -179.91, 89.95, 54.95, 30.31, 65.37, -0.00, 0.00, 0.00, -0.00, 0.00, -0.00, -12.70, -3.70, -0.25, -0.00
19.239827871322632, -3.14, 1.57, 0.96, 0.53, 1.14, -179.91, 89.95, 54.95, 30.31, 65.37, -0.00, 0.00, 0.00, -0.00, 0.00, -0.00, -12.70, -3.70, -0.25, -0.00
19.282450437545776, -3.14, 1.57, 0.96, 0.53, 1.14, -179.91, 89.95, 54.95, 30.31, 65.37, -0.00, 0.00, 0.00, -0.00, 0.00, -0.00, -12.70, -3.70, -0.25, -0.00
19.326144456863403, -3.14, 1.57, 0.96, 0.53, 1.14, -179.91, 89.95, 54.95, 30.31, 65.37, -0.00, 0.00, 0.00, -0.00, 0.00, -0.00, -12.70, -3.70, -0.25, -0.00
19.369290113449097, -3.14, 1.57, 0.96, 0.53, 1.14, -179.91, 89.95, 54.95, 30.31, 65.37, -0.00, 0.00, 0.00, -0.00, 0.00, -0.00, -12.70, -3.70, -0.25, -0.00
19.414091110229492, -3.14, 1.57, 0.96, 0.53, 1.14, -179.91, 89.95, 54.95, 30.31, 65.37, -0.00, 0.00, 0.00, -0.00, 0.00, -0.00, -12.70, -3.70, -0.25, -0.00
19.46674418449402, -3.14, 1.57, 0.96, 0.53, 1.14, -179.91, 89.95, 54.95, 30.31, 65.37, -0.00, 0.00, 0.00, -0.00, 0.00, -0.00, -12.70, -3.70, -0.25, -0.00
19.515570640563965, -3.14, 1.57, 0.96, 0.53, 1.14, -179.91, 89.95, 54.95, 30.31, 65.37, -0.00, 0.00, 0.00, -0.00, 0.00, -0.00, -12.70, -3.70, -0.25, -0.00
19.563185214996338, -3.14, 1.57, 0.96, 0.53, 1.14, -179.91, 89.95, 54.95, 30.31, 65.37, -0.00, 0.00, 0.00, -0.00, 0.00, -0.00, -12.70, -3.70, -0.25, -0.00
19.608891487121582, -3.14, 1.57, 0.96, 0.53, 1.14, -179.91, 89.95, 54.95, 30.31, 65.37, -0.00, 0.00, 0.00, -0.00, 0.00, -0.00, -12.70, -3.70, -0.25, -0.00
19.653892755508423, -3.14, 1.57, 0.96, 0.53, 1.14, -179.91, 89.95, 54.95, 30.31, 65.37, -0.00, 0.00, 0.00, -0.00, 0.00, -0.00, -12.70, -3.70, -0.25, -0.00
19.69743776321411, -3.14, 1.57, 0.96, 0.53, 1.14, -179.91, 89.95, 54.95, 30.31, 65.37, -0.00, 0.00, 0.00, -0.00, 0.00, -0.00, -12.70, -3.70, -0.25, -0.00
19.741499662399292, -3.14, 1.57, 0.96, 0.53, 1.14, -179.91, 89.95, 54.95, 30.31, 65.37, -0.00, 0.00, 0.00, -0.00, 0.00, -0.00, -12.70, -3.70, -0.25, -0.00
19.78449845314026, -3.14, 1.57, 0.96, 0.53, 1.14, -179.91, 89.95, 54.95, 30.31, 65.37, -0.00, 0.00, 0.00, -0.00, 0.00, -0.00, -12.70, -3.70, -0.25, -0.00
19.829502820968628, -3.14, 1.57, 0.96, 0.53, 1.14, -179.91, 89.95, 54.95, 30.31, 65.37, -0.00, 0.00, 0.00, -0.00, 0.00, -0.00, -12.70, -3.70, -0.25, -0.00
19.87601590156555, -3.14, 1.57, 0.96, 0.53, 1.14, -179.91, 89.95, 54.95, 30.31, 65.37, -0.00, 0.00, 0.00, -0.00, 0.00, -0.00, -12.70, -3.70, -0.25, -0.00
19.918013334274292, -3.14, 1.57, 0.96, 0.53, 1.14, -179.91, 89.95, 54.95, 30.31, 65.37, -0.00, 0.00, 0.00, -0.00, 0.00, -0.00, -12.70, -3.70, -0.25, -0.00
19.965224981307983, -3.14, 1.57, 0.96, 0.53, 1.14, -179.91, 89.95, 54.95, 30.31, 65.37, -0.00, 0.00, 0.00, -0.00, 0.00, -0.00, -12.70, -3.70, -0.25, -0.00
20.014887809753418, -3.14, 1.57, 0.96, 0.53, 1.14, -179.91, 89.95, 54.95, 30.31, 65.37, -0.00, 0.00, 0.00, -0.00, 0.00, -0.00, -12.70, -3.70, -0.25, 0.00
20.060761213302612, -3.14, 1.57, 0.96, 0.53, 1.14, -179.91, 89.95, 54.95, 30.31, 65.37, -0.00, 0.00, 0.00, -0.00, 0.00, -0.00, -12.70, -3.70, -0.25, 0.00
20.108152866363525, -3.14, 1.57, 0.96, 0.53, 1.14, -179.91, 89.95, 54.95, 30.31, 65.37, -0.00, 0.00, 0.00, -0.00, 0.00, -0.00, -12.70, -3.70, -0.25, 0.00
20.15295910835266, -3.14, 1.57, 0.96, 0.53, 1.14, -179.91, 89.95, 54.95, 30.31, 65.37, -0.00, 0.00, 0.00, -0.00, 0.00, -0.00, -12.70, -3.70, -0.25, 0.00
20.19995093345642, -3.14, 1.57, 0.96, 0.53, 1.14, -179.91, 89.95, 54.95, 30.31, 65.37, -0.00, 0.00, 0.00, -0.00, 0.00, -0.00, -12.70, -3.70, -0.25, 0.00
20.241952896118164, -3.14, 1.57, 0.96, 0.53, 1.14, -179.91, 89.95, 54.95, 30.31, 65.37, -0.00, 0.00, 0.00, -0.00, 0.00, -0.00, -12.70, -3.70, -0.25, 0.00
20.28895139694214, -3.14, 1.57, 0.96, 0.53, 1.14, -179.91, 89.95, 54.95, 30.31, 65.37, -0.00, 0.00, 0.00, -0.00, 0.00, -0.00, -12.70, -3.70, -0.25, 0.00
20.33595061302185, -3.14, 1.57, 0.96, 0.53, 1.14, -179.91, 89.95, 54.95, 30.31, 65.37, -0.00, 0.00, 0.00, -0.00, 0.00, -0.00, -12.70, -3.70, -0.25, 0.00
20.387950897216797, -3.14, 1.57, 0.96, 0.53, 1.14, -179.91, 89.95, 54.95, 30.31, 65.37, -0.00, 0.00, 0.00, -0.00, 0.00, -0.00, -12.70, -3.70, -0.25, 0.00
20.437954902648926, -3.14, 1.57, 0.96, 0.53, 1.14, -179.91, 89.95, 54.95, 30.31, 65.37, -0.00, 0.00, 0.00, -0.00, 0.00, -0.00, -12.70, -3.70, -0.25, 0.00
20.48595142364502, -3.14, 1.57, 0.96, 0.53, 1.14, -179.91, 89.95, 54.95, 30.31, 65.37, -0.00, 0.00, 0.00, -0.00, 0.00, -0.00, -12.70, -3.70, -0.25, 0.00
20.534950971603394, -3.14, 1.57, 0.96, 0.53, 1.14, -179.91, 89.95, 54.95, 30.31, 65.37, -0.00, 0.00, 0.00, -0.00, 0.00, -0.00, -12.70, -3.70, -0.25, 0.00
20.57595157623291, -3.14, 1.57, 0.96, 0.53, 1.14, -179.91, 89.95, 54.95, 30.31, 65.37, -0.00, 0.00, 0.00, -0.00, 0.00, -0.00, -12.70, -3.70, -0.25, 0.00
20.624951124191284, -3.14, 1.57, 0.96, 0.53, 1.14, -179.91, 89.95, 54.95, 30.31, 65.37, -0.00, 0.00, 0.00, -0.00, 0.00, -0.00, -12.70, -3.70, -0.25, 0.00
20.67623496055603, -3.14, 1.57, 0.96, 0.53, 1.14, -179.91, 89.95, 54.95, 30.31, 65.37, -0.00, 0.00, 0.00, -0.00, 0.00, -0.00, -12.70, -3.70, -0.25, 0.00
20.725236415863037, -3.14, 1.57, 0.96, 0.53, 1.14, -179.91, 89.95, 54.95, 30.31, 65.37, -0.00, 0.00, 0.00, -0.00, 0.00, -0.00, -12.70, -3.70, -0.25, 0.00
20.769238233566284, -3.14, 1.57, 0.96, 0.53, 1.14, -179.91, 89.95, 54.95, 30.31, 65.37, -0.00, 0.00, 0.00, -0.00, 0.00, -0.00, -12.70, -3.70, -0.25, 0.00
20.813235759735107, -3.14, 1.57, 0.96, 0.53, 1.14, -179.91, 89.95, 54.95, 30.31, 65.37, -0.00, 0.00, 0.00, -0.00, 0.00, -0.00, -12.70, -3.70, -0.25, 0.00
20.858234882354736, -3.14, 1.57, 0.96, 0.53, 1.14, -179.91, 89.95, 54.95, 30.31, 65.37, -0.00, 0.00, 0.00, -0.00, 0.00, -0.00, -12.70, -3.70, -0.25, 0.00
20.90823459625244, -3.14, 1.57, 0.96, 0.53, 1.14, -179.91, 89.95, 54.95, 30.31, 65.37, -0.00, 0.00, 0.00, -0.00, 0.00, -0.00, -12.70, -3.70, -0.25, 0.00
20.955236434936523, -3.14, 1.57, 0.96, 0.53, 1.14, -179.91, 89.95, 54.95, 30.31, 65.37, -0.00, 0.00, 0.00, -0.00, 0.00, -0.00, -12.70, -3.70, -0.25, 0.00
21.001752614974976, -3.14, 1.57, 0.96, 0.53, 1.14, -179.91, 89.95, 54.95, 30.31, 65.37, -0.00, 0.00, 0.00, -0.00, 0.00, -0.00, -12.70, -3.70, -0.25, 0.00
21.0497465133667, -3.14, 1.57, 0.96, 0.53, 1.14, -179.91, 89.95, 54.95, 30.31, 65.37, -0.00, 0.00, 0.00, -0.00, 0.00, -0.00, -12.70, -3.70, -0.25, 0.00
21.093746185302734, -3.14, 1.57, 0.96, 0.53, 1.14, -179.91, 89.95, 54.95, 30.31, 65.37, -0.00, 0.00, 0.00, -0.00, 0.00, -0.00, -12.70, -3.70, -0.25, 0.00
21.135417699813843, -3.14, 1.57, 0.96, 0.53, 1.14, -179.91, 89.95, 54.95, 30.31, 65.37, -0.00, 0.00, 0.00, -0.00, 0.00, -0.00, -12.70, -3.70, -0.25, 0.00
21.17813992500305, -3.14, 1.57, 0.96, 0.53, 1.14, -179.91, 89.95, 54.95, 30.31, 65.37, -0.00, 0.00, 0.00, -0.00, 0.00, -0.00, -12.70, -3.70, -0.25, 0.00
21.225246906280518, -3.14, 1.57, 0.96, 0.53, 1.14, -179.91, 89.95, 54.95, 30.31, 65.37, -0.00, 0.00, 0.00, -0.00, 0.00, -0.00, -12.70, -3.70, -0.25, 0.00
21.269822359085083, -3.14, 1.57, 0.96, 0.53, 1.14, -179.91, 89.95, 54.95, 30.31, 65.37, -0.00, 0.00, 0.00, -0.00, 0.00, -0.00, -12.70, -3.70, -0.25, 0.00
21.31413245201111, -3.14, 1.57, 0.96, 0.53, 1.14, -179.91, 89.95, 54.95, 30.31, 65.37, -0.00, 0.00, 0.00, -0.00, 0.00, -0.00, -12.70, -3.70, -0.25, 0.00
21.35814118385315, -3.14, 1.57, 0.96, 0.53, 1.14, -179.91, 89.95, 54.95, 30.31, 65.37, -0.00, 0.00, 0.00, -0.00, 0.00, -0.00, -12.70, -3.70, -0.25, 0.00
21.40174961090088, -3.14, 1.57, 0.96, 0.53, 1.14, -179.91, 89.95, 54.95, 30.31, 65.37, -0.00, 0.00, 0.00, -0.00, 0.00, -0.00, -12.70, -3.70, -0.25, 0.00
21.44546151161194, -3.14, 1.57, 0.96, 0.53, 1.14, -179.91, 89.95, 54.95, 30.31, 65.37, -0.00, 0.00, 0.00, -0.00, 0.00, -0.00, -12.70, -3.70, -0.25, 0.00
21.49087905883789, -3.14, 1.57, 0.96, 0.53, 1.14, -179.91, 89.95, 54.95, 30.31, 65.37, -0.00, 0.00, 0.00, -0.00, 0.00, -0.00, -12.70, -3.70, -0.25, 0.00
21.53503131866455, -3.14, 1.57, 0.96, 0.53, 1.14, -179.91, 89.95, 54.95, 30.31, 65.37, -0.00, 0.00, 0.00, -0.00, 0.00, -0.00, -12.70, -3.70, -0.25, 0.00
21.58309054374695, -3.14, 1.57, 0.96, 0.53, 1.14, -179.91, 89.95, 54.95, 30.31, 65.37, -0.00, 0.00, 0.00, -0.00, 0.00, -0.00, -12.70, -3.70, -0.25, 0.00
21.628457069396973, -3.14, 1.57, 0.96, 0.53, 1.14, -179.91, 89.95, 54.95, 30.31, 65.37, -0.00, 0.00, 0.00, -0.00, 0.00, -0.00, -12.70, -3.70, -0.25, 0.00
21.674973487854004, -3.14, 1.57, 0.96, 0.53, 1.14, -179.91, 89.95, 54.95, 30.31, 65.37, -0.00, 0.00, 0.00, -0.00, 0.00, -0.00, -12.70, -3.70, -0.25, 0.00
21.71891951560974, -3.14, 1.57, 0.96, 0.53, 1.14, -179.91, 89.95, 54.95, 30.31, 65.37, -0.00, 0.00, 0.00, -0.00, 0.00, -0.00, -12.70, -3.70, -0.25, 0.00
21.765197038650513, -3.14, 1.57, 0.96, 0.53, 1.14, -179.91, 89.95, 54.95, 30.31, 65.37, -0.00, 0.00, 0.00, -0.00, 0.00, -0.00, -12.70, -3.70, -0.25, 0.00
21.809197425842285, -3.14, 1.57, 0.96, 0.53, 1.14, -179.91, 89.95, 54.95, 30.31, 65.37, -0.00, 0.00, 0.00, -0.00, 0.00, -0.00, -12.70, -3.70, -0.25, 0.00
21.87119698524475, -3.14, 1.57, 0.96, 0.53, 1.14, -179.91, 89.95, 54.95, 30.31, 65.37, -0.00, 0.00, 0.00, -0.00, 0.00, -0.00, -12.70, -3.70, -0.25, 0.00
21.92419672012329, -3.14, 1.57, 0.96, 0.53, 1.14, -179.91, 89.95, 54.95, 30.31, 65.37, -0.00, 0.00, 0.00, -0.00, 0.00, -0.00, -12.70, -3.70, -0.25, 0.00
21.97019624710083, -3.14, 1.57, 0.96, 0.53, 1.14, -179.91, 89.95, 54.95, 30.31, 65.37, -0.00, 0.00, 0.00, -0.00, 0.00, -0.00, -12.70, -3.70, -0.25, 0.00
22.018198013305664, -3.14, 1.57, 0.96, 0.53, 1.14, -179.91, 89.95, 54.95, 30.31, 65.37, -0.00, 0.00, 0.00, -0.00, 0.00, -0.00, -12.70, -3.70, -0.25, 0.00
22.0621976852417, -3.14, 1.57, 0.96, 0.53, 1.14, -179.91, 89.95, 54.95, 30.31, 65.37, -0.00, 0.00, 0.00, -0.00, 0.00, -0.00, -12.70, -3.70, -0.25, 0.00
22.105199098587036, -3.14, 1.57, 0.96, 0.53, 1.14, -179.91, 89.95, 54.95, 30.31, 65.37, -0.00, 0.00, 0.00, -0.00, 0.00, -0.00, -12.70, -3.70, -0.25, 0.00
22.15358543395996, -3.14, 1.57, 0.96, 0.53, 1.14, -179.91, 89.95, 54.95, 30.31, 65.37, -0.00, 0.00, 0.00, -0.00, 0.00, -0.00, -12.70, -3.70, -0.25, 0.00
22.20238995552063, -3.14, 1.57, 0.96, 0.53, 1.14, -179.91, 89.95, 54.95, 30.31, 65.37, -0.00, 0.00, 0.00, -0.00, 0.00, -0.00, -12.70, -3.70, -0.25, 0.00
22.252849817276, -3.14, 1.57, 0.96, 0.53, 1.14, -179.91, 89.95, 54.95, 30.31, 65.37, -0.00, 0.00, 0.00, -0.00, 0.00, -0.00, -12.70, -3.70, -0.25, 0.00
22.302865505218506, -3.14, 1.57, 0.96, 0.53, 1.14, -179.91, 89.95, 54.95, 30.31, 65.37, -0.00, 0.00, 0.00, -0.00, 0.00, -0.00, -12.70, -3.70, -0.25, 0.00
22.34607768058777, -3.14, 1.57, 0.96, 0.53, 1.14, -179.91, 89.95, 54.95, 30.31, 65.37, -0.00, 0.00, 0.00, -0.00, 0.00, -0.00, -12.70, -3.70, -0.25, 0.00
22.391894578933716, -3.14, 1.57, 0.96, 0.53, 1.14, -179.91, 89.95, 54.95, 30.31, 65.37, -0.00, 0.00, 0.00, -0.00, 0.00, -0.00, -12.70, -3.70, -0.25, 0.00
22.43489408493042, -3.14, 1.57, 0.96, 0.53, 1.14, -179.91, 89.95, 54.95, 30.31, 65.37, -0.00, 0.00, 0.00, -0.00, 0.00, -0.00, -12.70, -3.70, -0.25, 0.00
22.48189401626587, -3.14, 1.57, 0.96, 0.53, 1.14, -179.91, 89.95, 54.95, 30.31, 65.37, -0.00, 0.00, 0.00, -0.00, 0.00, -0.00, -12.70, -3.70, -0.25, 0.00
22.525893688201904, -3.14, 1.57, 0.96, 0.53, 1.14, -179.91, 89.95, 54.95, 30.31, 65.37, -0.00, 0.00, 0.00, -0.00, 0.00, -0.00, -12.70, -3.70, -0.25, 0.00
22.573894023895264, -3.14, 1.57, 0.96, 0.53, 1.14, -179.91, 89.95, 54.95, 30.31, 65.37, -0.00, 0.00, 0.00, -0.00, 0.00, -0.00, -12.70, -3.70, -0.25, 0.00
22.621896743774414, -3.14, 1.57, 0.96, 0.53, 1.14, -179.91, 89.95, 54.95, 30.31, 65.37, -0.00, 0.00, 0.00, -0.00, 0.00, -0.00, -12.70, -3.70, -0.25, 0.00
22.66727900505066, -3.14, 1.57, 0.96, 0.53, 1.14, -179.91, 89.95, 54.95, 30.31, 65.37, -0.00, 0.00, 0.00, -0.00, 0.00, -0.00, -12.70, -3.70, -0.25, 0.00
22.712972164154053, -3.14, 1.57, 0.96, 0.53, 1.14, -179.91, 89.95, 54.95, 30.31, 65.37, -0.00, 0.00, 0.00, -0.00, 0.00, -0.00, -12.70, -3.70, -0.25, 0.00
22.758971691131592, -3.14, 1.57, 0.96, 0.53, 1.14, -179.91, 89.95, 54.95, 30.31, 65.37, -0.00, 0.00, 0.00, -0.00, 0.00, -0.00, -12.70, -3.70, -0.25, 0.00
22.80576467514038, -3.14, 1.57, 0.96, 0.53, 1.14, -179.91, 89.95, 54.95, 30.31, 65.37, -0.00, 0.00, 0.00, -0.00, 0.00, -0.00, -12.70, -3.70, -0.25, 0.00
22.85188388824463, -3.14, 1.57, 0.96, 0.53, 1.14, -179.91, 89.95, 54.95, 30.31, 65.37, -0.00, 0.00, 0.00, -0.00, 0.00, -0.00, -12.70, -3.70, -0.25, 0.00
22.899879932403564, -3.14, 1.57, 0.96, 0.53, 1.14, -179.91, 89.95, 54.95, 30.31, 65.37, -0.00, 0.00, 0.00, -0.00, 0.00, -0.00, -12.70, -3.70, -0.25, 0.00
22.945881128311157, -3.14, 1.57, 0.96, 0.53, 1.14, -179.91, 89.95, 54.95, 30.31, 65.37, -0.00, 0.00, 0.00, -0.00, 0.00, -0.00, -12.70, -3.70, -0.25, 0.00
22.992393732070923, -3.14, 1.57, 0.96, 0.53, 1.14, -179.91, 89.95, 54.95, 30.31, 65.37, -0.00, 0.00, 0.00, -0.00, 0.00, -0.00, -12.70, -3.70, -0.25, 0.00
23.035090684890747, -3.14, 1.57, 0.96, 0.53, 1.14, -179.91, 89.95, 54.95, 30.31, 65.37, -0.00, 0.00, 0.00, -0.00, 0.00, -0.00, -12.70, -3.70, -0.25, 0.00
23.080363035202026, -3.14, 1.57, 0.96, 0.53, 1.14, -179.91, 89.95, 54.95, 30.31, 65.37, -0.00, 0.00, 0.00, -0.00, 0.00, -0.00, -12.70, -3.70, -0.25, 0.00
23.124226093292236, -3.14, 1.57, 0.96, 0.53, 1.14, -179.91, 89.95, 54.95, 30.31, 65.37, -0.00, 0.00, 0.00, -0.00, 0.00, -0.00, -12.70, -3.70, -0.25, 0.00
23.16665291786194, -3.14, 1.57, 0.96, 0.53, 1.14, -179.91, 89.95, 54.95, 30.31, 65.37, -0.00, 0.00, 0.00, -0.00, 0.00, -0.00, -12.70, -3.70, -0.25, 0.00
23.21238398551941, -3.14, 1.57, 0.96, 0.53, 1.14, -179.91, 89.95, 54.95, 30.31, 65.37, -0.00, 0.00, 0.00, -0.00, 0.00, -0.00, -12.70, -3.70, -0.25, 0.00
23.257760524749756, -3.14, 1.57, 0.96, 0.53, 1.14, -179.91, 89.95, 54.95, 30.31, 65.37, -0.00, 0.00, 0.00, -0.00, 0.00, -0.00, -12.70, -3.70, -0.25, 0.00
23.30390977859497, -3.14, 1.57, 0.96, 0.53, 1.14, -179.91, 89.95, 54.95, 30.31, 65.37, -0.00, 0.00, 0.00, -0.00, 0.00, -0.00, -12.70, -3.70, -0.25, 0.00
23.35388493537903, -3.14, 1.57, 0.96, 0.53, 1.14, -179.91, 89.95, 54.95, 30.31, 65.37, -0.00, 0.00, 0.00, -0.00, 0.00, -0.00, -12.70, -3.70, -0.25, 0.00
23.396883726119995, -3.14, 1.57, 0.96, 0.53, 1.14, -179.91, 89.95, 54.95, 30.31, 65.37, -0.00, 0.00, 0.00, -0.00, 0.00, -0.00, -12.70, -3.70, -0.25, 0.00
23.444098234176636, -3.14, 1.57, 0.96, 0.53, 1.14, -179.91, 89.95, 54.95, 30.31, 65.37, -0.00, 0.00, 0.00, -0.00, 0.00, -0.00, -12.70, -3.70, -0.25, 0.00
23.492743015289307, -3.14, 1.57, 0.96, 0.53, 1.14, -179.91, 89.95, 54.95, 30.31, 65.37, -0.00, 0.00, 0.00, -0.00, 0.00, -0.00, -12.70, -3.70, -0.25, 0.00
23.5387601852417, -3.14, 1.57, 0.96, 0.53, 1.14, -179.91, 89.95, 54.95, 30.31, 65.37, -0.00, 0.00, 0.00, -0.00, 0.00, -0.00, -12.70, -3.70, -0.25, 0.00
23.586153745651245, -3.14, 1.57, 0.96, 0.53, 1.14, -179.91, 89.95, 54.95, 30.31, 65.37, -0.00, 0.00, 0.00, -0.00, 0.00, -0.00, -12.70, -3.70, -0.25, 0.00
23.63299322128296, -3.14, 1.57, 0.96, 0.53, 1.14, -179.91, 89.95, 54.95, 30.31, 65.37, -0.00, 0.00, 0.00, -0.00, 0.00, -0.00, -12.70, -3.70, -0.25, 0.00
23.675732612609863, -3.14, 1.57, 0.96, 0.53, 1.14, -179.91, 89.95, 54.95, 30.31, 65.37, -0.00, 0.00, 0.00, -0.00, 0.00, -0.00, -12.70, -3.70, -0.25, 0.00
23.728904247283936, -3.14, 1.57, 0.96, 0.53, 1.14, -179.91, 89.95, 54.95, 30.31, 65.37, -0.00, 0.00, 0.00, -0.00, 0.00, -0.00, -12.70, -3.70, -0.25, 0.00
23.76991605758667, -3.14, 1.57, 0.96, 0.53, 1.14, -179.91, 89.95, 54.95, 30.31, 65.37, -0.00, 0.00, 0.00, -0.00, 0.00, -0.00, -12.70, -3.70, -0.25, 0.00
23.813960313796997, -3.14, 1.57, 0.96, 0.53, 1.14, -179.91, 89.95, 54.95, 30.31, 65.37, -0.00, 0.00, 0.00, -0.00, 0.00, -0.00, -12.70, -3.70, -0.25, 0.00
23.86029314994812, -3.14, 1.57, 0.96, 0.53, 1.14, -179.91, 89.95, 54.95, 30.31, 65.37, -0.00, 0.00, 0.00, -0.00, 0.00, -0.00, -12.70, -3.70, -0.25, 0.00
23.90475606918335, -3.14, 1.57, 0.96, 0.53, 1.14, -179.91, 89.95, 54.95, 30.31, 65.37, -0.00, 0.00, 0.00, -0.00, 0.00, -0.00, -12.70, -3.70, -0.25, 0.00
23.946986436843872, -3.14, 1.57, 0.96, 0.53, 1.14, -179.91, 89.95, 54.95, 30.31, 65.37, -0.00, 0.00, 0.00, -0.00, 0.00, -0.00, -12.70, -3.70, -0.25, 0.00
23.998385667800903, -3.14, 1.57, 0.96, 0.53, 1.14, -179.91, 89.95, 54.95, 30.31, 65.37, -0.00, 0.00, 0.00, -0.00, 0.00, -0.00, -12.70, -3.70, -0.25, 0.00
24.0409734249115, -3.14, 1.57, 0.96, 0.53, 1.14, -179.91, 89.95, 54.95, 30.31, 65.37, -0.00, 0.00, 0.00, -0.00, 0.00, -0.00, -12.70, -3.70, -0.25, 0.00
24.08750867843628, -3.14, 1.57, 0.96, 0.53, 1.14, -179.91, 89.95, 54.95, 30.31, 65.37, -0.00, 0.00, 0.00, -0.00, 0.00, -0.00, -12.70, -3.70, -0.25, 0.00
24.134310960769653, -3.14, 1.57, 0.96, 0.53, 1.14, -179.91, 89.95, 54.95, 30.31, 65.37, -0.00, 0.00, 0.00, -0.00, 0.00, -0.00, -12.70, -3.70, -0.25, 0.00
24.179157257080078, -3.14, 1.57, 0.96, 0.53, 1.14, -179.91, 89.95, 54.95, 30.31, 65.37, -0.00, 0.00, 0.00, -0.00, 0.00, -0.00, -12.70, -3.70, -0.25, 0.00
24.222482442855835, -3.14, 1.57, 0.96, 0.53, 1.14, -179.91, 89.95, 54.95, 30.31, 65.37, -0.00, 0.00, 0.00, -0.00, 0.00, -0.00, -12.70, -3.70, -0.25, 0.00
24.27114224433899, -3.14, 1.57, 0.96, 0.53, 1.14, -179.91, 89.95, 54.95, 30.31, 65.37, -0.00, 0.00, 0.00, -0.00, 0.00, -0.00, -12.70, -3.70, -0.25, 0.00
24.32047462463379, -3.14, 1.57, 0.96, 0.53, 1.14, -179.91, 89.95, 54.95, 30.31, 65.37, -0.00, 0.00, 0.00, -0.00, 0.00, -0.00, -12.70, -3.70, -0.25, 0.00
24.37058734893799, -3.14, 1.57, 0.96, 0.53, 1.14, -179.91, 89.95, 54.95, 30.31, 65.37, -0.00, 0.00, 0.00, -0.00, 0.00, -0.00, -12.70, -3.70, -0.25, 0.00
24.414740562438965, -3.14, 1.57, 0.96, 0.53, 1.14, -179.91, 89.95, 54.95, 30.31, 65.37, -0.00, 0.00, 0.00, -0.00, 0.00, -0.00, -12.70, -3.70, -0.25, 0.00
24.45859718322754, -3.14, 1.57, 0.96, 0.53, 1.14, -179.91, 89.95, 54.95, 30.31, 65.37, -0.00, 0.00, 0.00, -0.00, 0.00, -0.00, -12.70, -3.70, -0.25, 0.00
24.50105571746826, -3.14, 1.57, 0.96, 0.53, 1.14, -179.91, 89.95, 54.95, 30.31, 65.37, -0.00, 0.00, 0.00, -0.00, 0.00, -0.00, -12.70, -3.70, -0.25, 0.00
24.545483827590942, -3.14, 1.57, 0.96, 0.53, 1.14, -179.91, 89.95, 54.95, 30.31, 65.37, -0.00, 0.00, 0.00, -0.00, 0.00, -0.00, -12.70, -3.70, -0.25, 0.00
24.58948254585266, -3.14, 1.57, 0.96, 0.53, 1.14, -179.91, 89.95, 54.95, 30.31, 65.37, -0.00, 0.00, 0.00, -0.00, 0.00, -0.00, -12.70, -3.70, -0.25, 0.00
24.63546347618103, -3.14, 1.57, 0.96, 0.53, 1.14, -179.91, 89.95, 54.95, 30.31, 65.37, -0.00, 0.00, 0.00, -0.00, 0.00, -0.00, -12.70, -3.70, -0.25, 0.00
24.707256317138672, -3.14, 1.57, 0.96, 0.53, 1.14, -179.91, 89.95, 54.95, 30.31, 65.37, -0.00, 0.00, 0.00, -0.00, 0.00, -0.00, -12.70, -3.70, -0.25, 0.00
24.75825548171997, -3.14, 1.57, 0.96, 0.53, 1.14, -179.91, 89.95, 54.95, 30.31, 65.37, -0.00, 0.00, 0.00, -0.00, 0.00, -0.00, -12.70, -3.70, -0.25, 0.00
24.80425453186035, -3.14, 1.57, 0.96, 0.53, 1.14, -179.91, 89.95, 54.95, 30.31, 65.37, -0.00, 0.00, 0.00, -0.00, 0.00, -0.00, -12.70, -3.70, -0.25, 0.00
24.85025453567505, -3.14, 1.57, 0.96, 0.53, 1.14, -179.91, 89.95, 54.95, 30.31, 65.37, -0.00, 0.00, 0.00, -0.00, 0.00, -0.00, -12.70, -3.70, -0.25, 0.00
24.895437717437744, -3.14, 1.57, 0.96, 0.53, 1.14, -179.91, 89.95, 54.95, 30.31, 65.37, -0.00, 0.00, 0.00, -0.00, 0.00, -0.00, -12.70, -3.70, -0.25, 0.00
24.93760919570923, -3.14, 1.57, 0.96, 0.53, 1.14, -179.91, 89.95, 54.95, 30.31, 65.37, -0.00, 0.00, 0.00, -0.00, 0.00, -0.00, -12.70, -3.70, -0.25, 0.00
24.982455492019653, -3.14, 1.57, 0.96, 0.53, 1.14, -179.91, 89.95, 54.95, 30.31, 65.37, -0.00, 0.00, 0.00, -0.00, 0.00, -0.00, -12.70, -3.70, -0.25, 0.00
25.028059244155884, -3.14, 1.57, 0.96, 0.53, 1.14, -179.91, 89.95, 54.95, 30.31, 65.37, -0.00, 0.00, 0.00, -0.00, 0.00, -0.00, -12.70, -3.70, -0.25, 0.00
25.071777820587158, -3.14, 1.57, 0.96, 0.53, 1.14, -179.91, 89.95, 54.95, 30.31, 65.37, -0.00, 0.00, 0.00, -0.00, 0.00, -0.00, -12.70, -3.70, -0.25, 0.00
25.11942219734192, -3.14, 1.57, 0.96, 0.53, 1.14, -179.91, 89.95, 54.95, 30.31, 65.37, -0.00, 0.00, 0.00, -0.00, 0.00, -0.00, -12.70, -3.70, -0.25, 0.00
25.168421983718872, -3.14, 1.57, 0.96, 0.53, 1.14, -179.91, 89.95, 54.95, 30.31, 65.37, -0.00, 0.00, 0.00, -0.00, 0.00, -0.00, -12.70, -3.70, -0.25, 0.00
25.21542239189148, -3.14, 1.57, 0.96, 0.53, 1.14, -179.91, 89.95, 54.95, 30.31, 65.37, -0.00, 0.00, 0.00, -0.00, 0.00, -0.00, -12.70, -3.70, -0.25, 0.00
25.26242208480835, -3.14, 1.57, 0.96, 0.53, 1.14, -179.91, 89.95, 54.95, 30.31, 65.37, -0.00, 0.00, 0.00, -0.00, 0.00, -0.00, -12.70, -3.70, -0.25, 0.00
25.30942177772522, -3.14, 1.57, 0.96, 0.53, 1.14, -179.91, 89.95, 54.95, 30.31, 65.37, -0.00, 0.00, 0.00, -0.00, 0.00, -0.00, -12.70, -3.70, -0.25, 0.00
25.352421760559082, -3.14, 1.57, 0.96, 0.53, 1.14, -179.91, 89.95, 54.95, 30.31, 65.37, -0.00, 0.00, 0.00, -0.00, 0.00, -0.00, -12.70, -3.70, -0.25, 0.00
25.396421432495117, -3.14, 1.57, 0.96, 0.53, 1.14, -179.91, 89.95, 54.95, 30.31, 65.37, -0.00, 0.00, 0.00, -0.00, 0.00, -0.00, -12.70, -3.70, -0.25, 0.00
25.443981647491455, -3.14, 1.57, 0.96, 0.53, 1.14, -179.91, 89.95, 54.95, 30.31, 65.37, -0.00, 0.00, 0.00, -0.00, 0.00, -0.00, -12.70, -3.70, -0.25, 0.00
25.49165439605713, -3.14, 1.57, 0.96, 0.53, 1.14, -179.91, 89.95, 54.95, 30.31, 65.37, -0.00, 0.00, 0.00, -0.00, 0.00, -0.00, -12.70, -3.70, -0.25, 0.00
25.53737783432007, -3.14, 1.57, 0.96, 0.53, 1.14, -179.91, 89.95, 54.95, 30.31, 65.37, -0.00, 0.00, 0.00, -0.00, 0.00, -0.00, -12.70, -3.70, -0.25, 0.00
25.58397603034973, -3.14, 1.57, 0.96, 0.53, 1.14, -179.91, 89.95, 54.95, 30.31, 65.37, -0.00, 0.00, 0.00, -0.00, 0.00, -0.00, -12.70, -3.70, -0.25, 0.00
25.62877607345581, -3.14, 1.57, 0.96, 0.53, 1.14, -179.91, 89.95, 54.95, 30.31, 65.37, -0.00, 0.00, 0.00, -0.00, 0.00, -0.00, -12.70, -3.70, -0.25, 0.00
25.67872977256775, -3.14, 1.57, 0.96, 0.53, 1.14, -179.91, 89.95, 54.95, 30.31, 65.37, -0.00, 0.00, 0.00, -0.00, 0.00, -0.00, -12.70, -3.70, -0.25, 0.00
25.731154918670654, -3.14, 1.57, 0.96, 0.53, 1.14, -179.91, 89.95, 54.95, 30.31, 65.37, -0.00, 0.00, 0.00, -0.00, 0.00, -0.00, -12.70, -3.70, -0.25, 0.00
25.781163454055786, -3.14, 1.57, 0.96, 0.53, 1.14, -179.91, 89.95, 54.95, 30.31, 65.37, -0.00, 0.00, 0.00, -0.00, 0.00, -0.00, -12.70, -3.70, -0.25, 0.00
25.83370041847229, -3.14, 1.57, 0.96, 0.53, 1.14, -179.91, 89.95, 54.95, 30.31, 65.37, -0.00, 0.00, 0.00, -0.00, 0.00, -0.00, -12.70, -3.70, -0.25, 0.00
25.88040828704834, -3.14, 1.57, 0.96, 0.53, 1.14, -179.91, 89.95, 54.95, 30.31, 65.37, -0.00, 0.00, 0.00, -0.00, 0.00, -0.00, -12.70, -3.70, -0.25, 0.00
25.92685079574585, -3.14, 1.57, 0.96, 0.53, 1.14, -179.91, 89.95, 54.95, 30.31, 65.37, -0.00, 0.00, 0.00, -0.00, 0.00, -0.00, -12.70, -3.70, -0.25, 0.00
25.97937536239624, -3.14, 1.57, 0.96, 0.53, 1.14, -179.91, 89.95, 54.95, 30.31, 65.37, -0.00, 0.00, 0.00, -0.00, 0.00, -0.00, -12.70, -3.70, -0.25, 0.00
26.027138233184814, -3.14, 1.57, 0.96, 0.53, 1.14, -179.91, 89.95, 54.95, 30.31, 65.37, -0.00, 0.00, 0.00, -0.00, 0.00, -0.00, -12.70, -3.70, -0.25, 0.00
26.073084354400635, -3.14, 1.57, 0.96, 0.53, 1.14, -179.91, 89.95, 54.95, 30.31, 65.37, -0.00, 0.00, 0.00, -0.00, 0.00, -0.00, -12.70, -3.70, -0.25, 0.00
26.11829400062561, -3.14, 1.57, 0.96, 0.53, 1.14, -179.91, 89.95, 54.95, 30.31, 65.37, -0.00, 0.00, 0.00, -0.00, 0.00, -0.00, -12.70, -3.70, -0.25, 0.00
26.168445587158203, -3.14, 1.57, 0.96, 0.53, 1.14, -179.91, 89.95, 54.95, 30.31, 65.37, -0.00, 0.00, 0.00, -0.00, 0.00, -0.00, -12.70, -3.70, -0.25, 0.00
26.214961528778076, -3.14, 1.57, 0.96, 0.53, 1.14, -179.91, 89.95, 54.95, 30.31, 65.37, -0.00, 0.00, 0.00, -0.00, 0.00, -0.00, -12.70, -3.70, -0.25, 0.00
26.26167106628418, -3.14, 1.57, 0.96, 0.53, 1.14, -179.91, 89.95, 54.95, 30.31, 65.37, -0.00, 0.00, 0.00, -0.00, 0.00, -0.00, -12.70, -3.70, -0.25, 0.00
26.30955171585083, -3.14, 1.57, 0.96, 0.53, 1.14, -179.91, 89.95, 54.95, 30.31, 65.37, -0.00, 0.00, 0.00, -0.00, 0.00, -0.00, -12.70, -3.70, -0.25, 0.00
26.3604416847229, -3.14, 1.57, 0.96, 0.53, 1.14, -179.91, 89.95, 54.95, 30.31, 65.37, -0.00, 0.00, 0.00, -0.00, 0.00, -0.00, -12.70, -3.70, -0.25, 0.00
26.406508445739746, -3.14, 1.57, 0.96, 0.53, 1.14, -179.91, 89.95, 54.95, 30.31, 65.37, -0.00, 0.00, 0.00, -0.00, 0.00, -0.00, -12.70, -3.70, -0.25, 0.00
26.450509548187256, -3.14, 1.57, 0.96, 0.53, 1.14, -179.91, 89.95, 54.95, 30.31, 65.37, -0.00, 0.00, 0.00, -0.00, 0.00, -0.00, -12.70, -3.70, -0.25, 0.00
26.49350643157959, -3.14, 1.57, 0.96, 0.53, 1.14, -179.91, 89.95, 54.95, 30.31, 65.37, -0.00, 0.00, 0.00, -0.00, 0.00, -0.00, -12.70, -3.70, -0.25, 0.00
26.54150700569153, -3.14, 1.57, 0.96, 0.53, 1.14, -179.91, 89.95, 54.95, 30.31, 65.37, -0.00, 0.00, 0.00, -0.00, 0.00, -0.00, -12.70, -3.70, -0.25, 0.00
26.588507413864136, -3.14, 1.57, 0.96, 0.53, 1.14, -179.91, 89.95, 54.95, 30.31, 65.37, -0.00, 0.00, 0.00, -0.00, 0.00, -0.00, -12.70, -3.70, -0.25, 0.00
26.633506059646606, -3.14, 1.57, 0.96, 0.53, 1.14, -179.91, 89.95, 54.95, 30.31, 65.37, -0.00, 0.00, 0.00, -0.00, 0.00, -0.00, -12.70, -3.70, -0.25, 0.00
26.67850685119629, -3.14, 1.57, 0.96, 0.53, 1.14, -179.91, 89.95, 54.95, 30.31, 65.37, -0.00, 0.00, 0.00, -0.00, 0.00, -0.00, -12.70, -3.70, -0.25, 0.00
26.727507829666138, -3.14, 1.57, 0.96, 0.53, 1.14, -179.91, 89.95, 54.95, 30.31, 65.37, -0.00, 0.00, 0.00, -0.00, 0.00, -0.00, -12.70, -3.70, -0.25, 0.00
26.776925325393677, -3.14, 1.57, 0.96, 0.53, 1.14, -179.91, 89.95, 54.95, 30.31, 65.37, -0.00, 0.00, 0.00, -0.00, 0.00, -0.00, -12.70, -3.70, -0.25, 0.00
26.82218599319458, -3.14, 1.57, 0.96, 0.53, 1.14, -179.91, 89.95, 54.95, 30.31, 65.37, -0.00, 0.00, 0.00, -0.00, 0.00, -0.00, -12.70, -3.70, -0.25, 0.00
26.864556312561035, -3.14, 1.57, 0.96, 0.53, 1.14, -179.91, 89.95, 54.95, 30.31, 65.37, -0.00, 0.00, 0.00, -0.00, 0.00, -0.00, -12.70, -3.70, -0.25, 0.00
26.90907073020935, -3.14, 1.57, 0.96, 0.53, 1.14, -179.91, 89.95, 54.95, 30.31, 65.37, -0.00, 0.00, 0.00, -0.00, 0.00, -0.00, -12.70, -3.70, -0.25, 0.00
26.95207190513611, -3.14, 1.57, 0.96, 0.53, 1.14, -179.91, 89.95, 54.95, 30.31, 65.37, -0.00, 0.00, 0.00, -0.00, 0.00, -0.00, -12.70, -3.70, -0.25, 0.00
26.99606990814209, -3.14, 1.57, 0.96, 0.53, 1.14, -179.91, 89.95, 54.95, 30.31, 65.37, -0.00, 0.00, 0.00, -0.00, 0.00, -0.00, -12.70, -3.70, -0.25, 0.00
27.043296098709106, -3.14, 1.57, 0.96, 0.53, 1.14, -179.91, 89.95, 54.95, 30.31, 65.37, -0.00, 0.00, 0.00, -0.00, 0.00, -0.00, -12.70, -3.70, -0.25, 0.00
27.086645364761353, -3.14, 1.57, 0.96, 0.53, 1.14, -179.91, 89.95, 54.95, 30.31, 65.37, -0.00, 0.00, 0.00, -0.00, 0.00, -0.00, -12.70, -3.70, -0.25, 0.00
27.131434202194214, -3.14, 1.57, 0.96, 0.53, 1.14, -179.91, 89.95, 54.95, 30.31, 65.37, -0.00, 0.00, 0.00, -0.00, 0.00, -0.00, -12.70, -3.70, -0.25, 0.00
27.173928260803223, -3.14, 1.57, 0.96, 0.53, 1.14, -179.91, 89.95, 54.95, 30.31, 65.37, -0.00, 0.00, 0.00, -0.00, 0.00, -0.00, -12.70, -3.70, -0.25, 0.00
27.22023057937622, -3.14, 1.57, 0.96, 0.53, 1.14, -179.91, 89.95, 54.95, 30.31, 65.37, -0.00, 0.00, 0.00, -0.00, 0.00, -0.00, -12.70, -3.70, -0.25, 0.00
27.26488733291626, -3.14, 1.57, 0.96, 0.53, 1.14, -179.91, 89.95, 54.95, 30.31, 65.37, -0.00, 0.00, 0.00, -0.00, 0.00, -0.00, -12.70, -3.70, -0.25, 0.00
27.31424617767334, -3.14, 1.57, 0.96, 0.53, 1.14, -179.91, 89.95, 54.95, 30.31, 65.37, -0.00, 0.00, 0.00, -0.00, 0.00, -0.00, -12.70, -3.70, -0.25, 0.00
27.36317253112793, -3.14, 1.57, 0.96, 0.53, 1.14, -179.91, 89.95, 54.95, 30.31, 65.37, -0.00, 0.00, 0.00, -0.00, 0.00, -0.00, -12.70, -3.70, -0.25, 0.00
27.410506010055542, -3.14, 1.57, 0.96, 0.53, 1.14, -179.91, 89.95, 54.95, 30.31, 65.37, -0.00, 0.00, 0.00, -0.00, 0.00, -0.00, -12.70, -3.70, -0.25, 0.00
27.46550750732422, -3.14, 1.57, 0.96, 0.53, 1.14, -179.91, 89.95, 54.95, 30.31, 65.37, -0.00, 0.00, 0.00, -0.00, 0.00, -0.00, -12.70, -3.70, -0.25, 0.00
27.50750708580017, -3.14, 1.57, 0.96, 0.53, 1.14, -179.91, 89.95, 54.95, 30.31, 65.37, -0.00, 0.00, 0.00, -0.00, 0.00, -0.00, -12.70, -3.70, -0.25, 0.00
27.55550718307495, -3.14, 1.57, 0.96, 0.53, 1.14, -179.91, 89.95, 54.95, 30.31, 65.37, -0.00, 0.00, 0.00, -0.00, 0.00, -0.00, -12.70, -3.70, -0.25, 0.00
27.59843945503235, -3.14, 1.57, 0.96, 0.53, 1.14, -179.91, 89.95, 54.95, 30.31, 65.37, -0.00, 0.00, 0.00, -0.00, 0.00, -0.00, -12.70, -3.70, -0.25, 0.00
27.643383026123047, -3.14, 1.57, 0.96, 0.53, 1.14, -179.91, 89.95, 54.95, 30.31, 65.37, -0.00, 0.00, 0.00, -0.00, 0.00, -0.00, -12.70, -3.70, -0.25, 0.00
27.688379526138306, -3.14, 1.57, 0.96, 0.53, 1.14, -179.91, 89.95, 54.95, 30.31, 65.37, -0.00, 0.00, 0.00, -0.00, 0.00, -0.00, -12.70, -3.70, -0.25, 0.00
27.732904195785522, -3.14, 1.57, 0.96, 0.53, 1.14, -179.91, 89.95, 54.95, 30.31, 65.37, -0.00, 0.00, 0.00, -0.00, 0.00, -0.00, -12.70, -3.70, -0.25, 0.00
27.780622005462646, -3.14, 1.57, 0.96, 0.53, 1.14, -179.91, 89.95, 54.95, 30.31, 65.37, -0.00, 0.00, 0.00, -0.00, 0.00, -0.00, -12.70, -3.70, -0.25, 0.00
27.83396077156067, -3.14, 1.57, 0.96, 0.53, 1.14, -179.91, 89.95, 54.95, 30.31, 65.37, -0.00, 0.00, 0.00, -0.00, 0.00, -0.00, -12.70, -3.70, -0.25, 0.00
27.87848472595215, -3.14, 1.57, 0.96, 0.53, 1.14, -179.91, 89.95, 54.95, 30.31, 65.37, -0.00, 0.00, 0.00, -0.00, 0.00, -0.00, -12.70, -3.70, -0.25, 0.00
27.924487352371216, -3.14, 1.57, 0.96, 0.53, 1.14, -179.91, 89.95, 54.95, 30.31, 65.37, -0.00, 0.00, 0.00, -0.00, 0.00, -0.00, -12.70, -3.70, -0.25, 0.00
27.977484941482544, -3.14, 1.57, 0.96, 0.53, 1.14, -179.91, 89.95, 54.95, 30.31, 65.37, -0.00, 0.00, 0.00, -0.00, 0.00, -0.00, -12.70, -3.70, -0.25, 0.00
28.027485132217407, -3.14, 1.57, 0.96, 0.53, 1.14, -179.91, 89.95, 54.95, 30.31, 65.37, -0.00, 0.00, 0.00, -0.00, 0.00, -0.00, -12.70, -3.70, -0.25, 0.00
28.078484535217285, -3.14, 1.57, 0.96, 0.53, 1.14, -179.91, 89.95, 54.95, 30.31, 65.37, -0.00, 0.00, 0.00, -0.00, 0.00, -0.00, -12.70, -3.70, -0.25, 0.00
28.127139806747437, -3.14, 1.57, 0.96, 0.53, 1.14, -179.91, 89.95, 54.95, 30.31, 65.37, -0.00, 0.00, 0.00, -0.00, 0.00, -0.00, -12.70, -3.70, -0.25, 0.00
28.16953682899475, -3.14, 1.57, 0.96, 0.53, 1.14, -179.91, 89.95, 54.95, 30.31, 65.37, -0.00, 0.00, 0.00, -0.00, 0.00, -0.00, -12.70, -3.70, -0.25, 0.00
28.213043212890625, -3.14, 1.57, 0.96, 0.53, 1.14, -179.91, 89.95, 54.95, 30.31, 65.37, -0.00, 0.00, 0.00, -0.00, 0.00, -0.00, -12.70, -3.70, -0.25, 0.00
28.252965688705444, -3.14, 1.57, 0.96, 0.53, 1.14, -179.91, 89.95, 54.95, 30.31, 65.37, -0.00, 0.00, 0.00, -0.00, 0.00, -0.00, -12.70, -3.70, -0.25, 0.00
28.297504663467407, -3.14, 1.57, 0.96, 0.53, 1.14, -179.91, 89.95, 54.95, 30.31, 65.37, -0.00, 0.00, 0.00, -0.00, 0.00, -0.00, -12.70, -3.70, -0.25, 0.00
28.343085765838623, -3.14, 1.57, 0.96, 0.53, 1.14, -179.91, 89.95, 54.95, 30.31, 65.37, -0.00, 0.00, 0.00, -0.00, 0.00, -0.00, -12.70, -3.70, -0.25, 0.00
28.385299682617188, -3.14, 1.57, 0.96, 0.53, 1.14, -179.91, 89.95, 54.95, 30.31, 65.37, -0.00, 0.00, 0.00, -0.00, 0.00, -0.00, -12.70, -3.70, -0.25, 0.00
28.433691024780273, -3.14, 1.57, 0.96, 0.53, 1.14, -179.91, 89.95, 54.95, 30.31, 65.37, -0.00, 0.00, 0.00, -0.00, 0.00, -0.00, -12.70, -3.70, -0.25, 0.00
28.479464769363403, -3.14, 1.57, 0.96, 0.53, 1.14, -179.91, 89.95, 54.95, 30.31, 65.37, -0.00, 0.00, 0.00, -0.00, 0.00, -0.00, -12.70, -3.70, -0.25, 0.00
