sulimanbadour1/Project_S/control/InverseKinematics/robot_joint_data.csv
Time, Joint 1 Angle (Rad), Joint 2 Angle (Rad), Joint 3 Angle (Rad), Joint 4 Angle (Rad), Joint 5 Angle (Rad), Joint 1 Angle (Deg), Joint 2 Angle (Deg), Joint 3 Angle (Deg), Joint 4 Angle (Deg), Joint 5 Angle (Deg), Joint 1 Vel, Joint 2 Vel, Joint 3 Vel, Joint 4 Vel, Joint 5 Vel, Joint 1 Eff, Joint 2 Eff, Joint 3 Eff, Joint 4 Eff, Joint 5 Eff
0.0, -3.14, 1.57, 0.96, 0.53, 1.42, -179.91, 89.95, 54.95, 30.31, 81.47, 0.00, 0.00, 0.00, -0.00, -0.00, -0.00, -12.42, -3.43, 0.00, -0.00
0.047998905181884766, -3.14, 1.57, 0.96, 0.53, 1.42, -179.91, 89.95, 54.95, 30.31, 81.47, -0.00, 0.00, 0.00, -0.00, 0.00, -0.00, -12.45, -3.45, -0.00, 0.00
0.09199810028076172, -3.14, 1.57, 0.96, 0.53, 1.42, -179.91, 89.95, 54.95, 30.31, 81.47, -0.00, 0.00, 0.00, -0.00, 0.00, 0.00, -12.45, -3.45, -0.00, -0.00
0.13699865341186523, -3.14, 1.57, 0.96, 0.53, 1.42, -179.91, 89.95, 54.95, 30.31, 81.47, -0.00, 0.00, 0.00, -0.00, 0.00, 0.00, -12.45, -3.45, -0.00, -0.00
0.1789989471435547, -3.14, 1.57, 0.96, 0.53, 1.42, -179.91, 89.95, 54.95, 30.31, 81.47, -0.00, 0.00, 0.00, -0.00, 0.00, 0.00, -12.45, -3.45, -0.00, -0.00
0.2239995002746582, -3.14, 1.57, 0.96, 0.53, 1.42, -179.91, 89.95, 54.95, 30.31, 81.47, -0.00, 0.00, 0.00, -0.00, 0.00, 0.00, -12.45, -3.45, -0.00, -0.00
0.2629988193511963, -3.14, 1.57, 0.96, 0.53, 1.42, -179.91, 89.95, 54.95, 30.31, 81.47, -0.00, 0.00, 0.00, -0.00, 0.00, 0.00, -12.45, -3.45, -0.00, -0.00
0.30422282218933105, -3.14, 1.57, 0.96, 0.53, 1.42, -179.91, 89.95, 54.95, 30.31, 81.47, -0.00, 0.00, 0.00, -0.00, 0.00, 0.00, -12.45, -3.45, -0.00, -0.00
0.34367918968200684, -3.14, 1.57, 0.96, 0.53, 1.42, -179.91, 89.95, 54.95, 30.31, 81.47, -0.00, 0.00, 0.00, -0.00, 0.00, 0.00, -12.45, -3.45, -0.00, -0.00
0.3829195499420166, -3.14, 1.57, 0.96, 0.53, 1.42, -179.91, 89.95, 54.95, 30.31, 81.47, -0.00, 0.00, 0.00, -0.00, 0.00, 0.00, -12.45, -3.45, -0.00, -0.00
0.42247891426086426, -3.14, 1.57, 0.96, 0.53, 1.42, -179.91, 89.95, 54.95, 30.31, 81.47, -0.00, 0.00, 0.00, -0.00, 0.00, 0.00, -12.45, -3.45, -0.00, -0.00
0.46309709548950195, -3.14, 1.57, 0.96, 0.53, 1.42, -179.91, 89.95, 54.95, 30.31, 81.47, -0.00, 0.00, 0.00, -0.00, 0.00, 0.00, -12.45, -3.45, -0.00, -0.00
0.5534045696258545, -3.14, 1.57, 0.96, 0.53, 1.42, -179.91, 89.95, 54.95, 30.31, 81.47, -0.00, 0.00, 0.00, -0.00, 0.00, 0.00, -12.45, -3.45, -0.00, -0.00
0.5894055366516113, -3.14, 1.57, 0.96, 0.53, 1.42, -179.91, 89.95, 54.95, 30.31, 81.47, -0.00, 0.00, 0.00, -0.00, 0.00, 0.00, -12.45, -3.45, -0.00, -0.00
0.6327402591705322, -3.14, 1.57, 0.96, 0.53, 1.42, -179.91, 89.95, 54.95, 30.31, 81.47, -0.00, 0.00, 0.00, -0.00, 0.00, 0.00, -12.45, -3.45, -0.00, -0.00
0.6727879047393799, -3.14, 1.57, 0.96, 0.53, 1.42, -179.91, 89.95, 54.95, 30.31, 81.47, -0.00, 0.00, 0.00, -0.00, 0.00, 0.00, -12.45, -3.45, -0.00, -0.00
0.715313196182251, -3.14, 1.57, 0.96, 0.53, 1.42, -179.91, 89.95, 54.95, 30.31, 81.47, -0.00, 0.00, 0.00, -0.00, 0.00, 0.00, -12.45, -3.45, -0.00, -0.00
0.7618298530578613, -3.14, 1.57, 0.96, 0.53, 1.42, -179.91, 89.95, 54.95, 30.31, 81.47, -0.00, 0.00, 0.00, -0.00, 0.00, 0.00, -12.45, -3.45, -0.00, -0.00
0.8038289546966553, -3.14, 1.57, 0.96, 0.53, 1.42, -179.91, 89.95, 54.95, 30.31, 81.47, -0.00, 0.00, 0.00, -0.00, 0.00, 0.00, -12.45, -3.45, -0.00, -0.00
0.8458287715911865, -3.14, 1.57, 0.96, 0.53, 1.42, -179.91, 89.95, 54.95, 30.31, 81.47, -0.00, 0.00, 0.00, -0.00, 0.00, 0.00, -12.45, -3.45, -0.00, -0.00
0.8868310451507568, -3.14, 1.57, 0.96, 0.53, 1.42, -179.91, 89.95, 54.95, 30.31, 81.47, -0.00, 0.00, 0.00, -0.00, 0.00, 0.00, -12.45, -3.45, -0.00, -0.00
0.9338290691375732, -3.14, 1.57, 0.96, 0.53, 1.42, -179.91, 89.95, 54.95, 30.31, 81.47, -0.00, 0.00, 0.00, -0.00, 0.00, 0.00, -12.45, -3.45, -0.00, -0.00
0.975830078125, -3.14, 1.57, 0.96, 0.53, 1.42, -179.91, 89.95, 54.95, 30.31, 81.47, -0.00, 0.00, 0.00, -0.00, 0.00, 0.00, -12.45, -3.45, -0.00, -0.00
1.0228288173675537, -3.14, 1.57, 0.96, 0.53, 1.42, -179.91, 89.95, 54.95, 30.31, 81.47, -0.00, 0.00, 0.00, -0.00, 0.00, 0.00, -12.45, -3.45, -0.00, -0.00
1.063828945159912, -3.14, 1.57, 0.96, 0.53, 1.42, -179.91, 89.95, 54.95, 30.31, 81.47, -0.00, 0.00, 0.00, -0.00, 0.00, 0.00, -12.45, -3.45, -0.00, -0.00
1.1048288345336914, -3.14, 1.57, 0.96, 0.53, 1.42, -179.91, 89.95, 54.95, 30.31, 81.47, -0.00, 0.00, 0.00, -0.00, 0.00, 0.00, -12.45, -3.45, -0.00, -0.00
1.1539859771728516, -3.14, 1.57, 0.96, 0.53, 1.42, -179.91, 89.95, 54.95, 30.31, 81.47, -0.00, 0.00, 0.00, -0.00, 0.00, 0.00, -12.45, -3.45, -0.00, -0.00
1.1919007301330566, -3.14, 1.57, 0.96, 0.53, 1.42, -179.91, 89.95, 54.95, 30.31, 81.47, -0.00, 0.00, 0.00, -0.00, 0.00, 0.00, -12.45, -3.45, -0.00, -0.00
1.238257884979248, -3.14, 1.57, 0.96, 0.53, 1.42, -179.91, 89.95, 54.95, 30.31, 81.47, -0.00, 0.00, 0.00, -0.00, 0.00, 0.00, -12.45, -3.45, -0.00, -0.00
1.2799961566925049, -3.14, 1.57, 0.96, 0.53, 1.42, -179.91, 89.95, 54.95, 30.31, 81.47, -0.00, 0.00, 0.00, -0.00, 0.00, 0.00, -12.45, -3.45, -0.00, -0.00
1.3239965438842773, -3.14, 1.57, 0.96, 0.53, 1.42, -179.91, 89.95, 54.95, 30.31, 81.47, -0.00, 0.00, 0.00, -0.00, 0.00, 0.00, -12.45, -3.45, -0.00, -0.00
1.3679955005645752, -3.14, 1.57, 0.96, 0.53, 1.42, -179.91, 89.95, 54.95, 30.31, 81.47, -0.00, 0.00, 0.00, -0.00, 0.00, 0.00, -12.45, -3.45, -0.00, -0.00
1.4105110168457031, -3.14, 1.57, 0.96, 0.53, 1.42, -179.91, 89.95, 54.95, 30.31, 81.47, -0.00, 0.00, 0.00, -0.00, 0.00, 0.00, -12.45, -3.45, -0.00, -0.00
1.4505140781402588, -3.14, 1.57, 0.96, 0.53, 1.42, -179.91, 89.95, 54.95, 30.31, 81.47, -0.00, 0.00, 0.00, -0.00, 0.00, 0.00, -12.45, -3.45, -0.00, -0.00
1.4915111064910889, -3.14, 1.57, 0.96, 0.53, 1.42, -179.91, 89.95, 54.95, 30.31, 81.47, -0.00, 0.00, 0.00, -0.00, 0.00, 0.00, -12.45, -3.45, -0.00, -0.00
1.5355112552642822, -3.14, 1.57, 0.96, 0.53, 1.42, -179.91, 89.95, 54.95, 30.31, 81.47, -0.00, 0.00, 0.00, -0.00, 0.00, 0.00, -12.45, -3.45, -0.00, -0.00
1.5745134353637695, -3.14, 1.57, 0.96, 0.53, 1.42, -179.91, 89.95, 54.95, 30.31, 81.47, -0.00, 0.00, 0.00, -0.00, 0.00, 0.00, -12.45, -3.45, -0.00, -0.00
1.6165108680725098, -3.14, 1.57, 0.96, 0.53, 1.42, -179.91, 89.95, 54.95, 30.31, 81.47, -0.00, 0.00, 0.00, -0.00, 0.00, 0.00, -12.45, -3.45, -0.00, -0.00
1.6585125923156738, -3.14, 1.57, 0.96, 0.53, 1.42, -179.91, 89.95, 54.95, 30.31, 81.47, -0.00, 0.00, 0.00, -0.00, 0.00, 0.00, -12.45, -3.45, -0.00, -0.00
1.7065112590789795, -3.14, 1.57, 0.96, 0.53, 1.42, -179.91, 89.95, 54.95, 30.31, 81.47, -0.00, 0.00, 0.00, -0.00, 0.00, 0.00, -12.45, -3.45, -0.00, -0.00
1.7475101947784424, -3.14, 1.57, 0.96, 0.53, 1.42, -179.91, 89.95, 54.95, 30.31, 81.47, -0.00, 0.00, 0.00, -0.00, 0.00, 0.00, -12.45, -3.45, -0.00, -0.00
1.799299716949463, -3.14, 1.57, 0.96, 0.53, 1.42, -179.91, 89.95, 54.95, 30.31, 81.47, -0.00, 0.00, 0.00, -0.00, 0.00, 0.00, -12.45, -3.45, -0.00, -0.00
1.8416001796722412, -3.14, 1.57, 0.96, 0.53, 1.42, -179.91, 89.95, 54.95, 30.31, 81.47, -0.00, 0.00, 0.00, -0.00, 0.00, 0.00, -12.45, -3.45, -0.00, -0.00
1.8852503299713135, -3.14, 1.57, 0.96, 0.53, 1.42, -179.91, 89.95, 54.95, 30.31, 81.47, -0.00, 0.00, 0.00, -0.00, 0.00, 0.00, -12.45, -3.45, -0.00, -0.00
1.9339778423309326, -3.14, 1.57, 0.96, 0.53, 1.42, -179.91, 89.95, 54.95, 30.31, 81.47, -0.00, 0.00, 0.00, -0.00, 0.00, 0.00, -12.45, -3.45, -0.00, -0.00
1.9809787273406982, -3.14, 1.57, 0.96, 0.53, 1.42, -179.91, 89.95, 54.95, 30.31, 81.47, -0.00, 0.00, 0.00, -0.00, 0.00, 0.00, -12.45, -3.45, -0.00, -0.00
2.0269787311553955, -3.14, 1.57, 0.96, 0.53, 1.42, -179.91, 89.95, 54.95, 30.31, 81.47, -0.00, 0.00, 0.00, -0.00, 0.00, 0.00, -12.45, -3.45, -0.00, -0.00
2.0649774074554443, -3.14, 1.57, 0.96, 0.53, 1.42, -179.91, 89.95, 54.95, 30.31, 81.47, -0.00, 0.00, 0.00, -0.00, 0.00, 0.00, -12.45, -3.45, -0.00, -0.00
2.1101293563842773, -3.14, 1.57, 0.96, 0.53, 1.42, -179.91, 89.95, 54.95, 30.31, 81.47, -0.00, 0.00, 0.00, -0.00, 0.00, 0.00, -12.45, -3.45, -0.00, -0.00
2.152411460876465, -3.14, 1.57, 0.96, 0.53, 1.42, -179.91, 89.95, 54.95, 30.31, 81.47, -0.00, 0.00, 0.00, -0.00, 0.00, 0.00, -12.45, -3.45, -0.00, -0.00
2.204146385192871, -3.14, 1.57, 0.96, 0.53, 1.42, -179.91, 89.95, 54.95, 30.31, 81.47, -0.00, 0.00, 0.00, -0.00, 0.00, 0.00, -12.45, -3.45, -0.00, -0.00
2.2551465034484863, -3.14, 1.57, 0.96, 0.53, 1.42, -179.91, 89.95, 54.95, 30.31, 81.47, -0.00, 0.00, 0.00, -0.00, 0.00, 0.00, -12.45, -3.45, -0.00, -0.00
2.2957379817962646, -3.14, 1.57, 0.96, 0.53, 1.42, -179.91, 89.95, 54.95, 30.31, 81.47, -0.00, 0.00, 0.00, -0.00, 0.00, 0.00, -12.45, -3.45, -0.00, -0.00
2.3384761810302734, -3.14, 1.57, 0.96, 0.53, 1.42, -179.91, 89.86, 54.95, 30.31, 81.47, -0.00, -0.38, 0.00, -0.00, 0.00, 0.00, -71.97, -29.13, -0.00, -0.00
2.3753206729888916, -3.14, 1.57, 0.96, 0.53, 1.42, -179.91, 89.69, 54.95, 30.31, 81.47, -0.00, -0.74, 0.00, -0.00, 0.00, 0.00, -69.07, -27.86, -0.00, -0.00
2.416124105453491, -3.14, 1.56, 0.96, 0.53, 1.42, -179.91, 89.15, 54.95, 30.31, 81.47, -0.00, -2.25, -0.00, 0.00, 0.00, 0.00, -251.09, -106.36, -0.00, -0.00
2.457608222961426, -3.14, 1.54, 0.96, 0.53, 1.42, -179.91, 88.48, 54.95, 30.31, 81.47, -0.00, -2.82, 0.00, -0.00, 0.00, 0.00, -102.27, -41.50, -0.00, -0.00
2.4996182918548584, -3.14, 1.53, 0.96, 0.53, 1.42, -179.91, 87.49, 54.95, 30.31, 81.47, -0.00, -4.12, 0.00, -0.00, 0.00, 0.00, -218.52, -91.27, -0.00, -0.00
2.5401036739349365, -3.14, 1.51, 0.96, 0.53, 1.42, -179.91, 86.32, 54.95, 30.31, 81.47, -0.00, -4.90, 0.00, -0.00, 0.00, 0.00, -135.62, -54.22, -0.00, -0.00
2.5810389518737793, -3.14, 1.48, 0.96, 0.53, 1.42, -179.91, 84.99, 54.95, 30.31, 81.47, -0.00, -5.60, -0.00, 0.00, 0.00, 0.00, -123.56, -48.04, -0.00, -0.00
2.6237447261810303, -3.14, 1.46, 0.96, 0.53, 1.42, -179.91, 83.59, 54.95, 30.31, 81.47, -0.00, -5.84, 0.00, -0.00, 0.00, 0.00, -50.17, -15.36, -0.00, -0.00
2.6685190200805664, -3.14, 1.43, 0.96, 0.53, 1.42, -179.91, 81.96, 54.95, 30.31, 81.47, -0.00, -6.84, -0.00, 0.00, 0.00, 0.00, -171.74, -67.50, -0.00, -0.00
2.708552598953247, -3.14, 1.40, 0.96, 0.53, 1.42, -179.91, 80.21, 54.95, 30.31, 81.47, -0.00, -7.35, 0.00, -0.00, 0.00, 0.00, -93.64, -32.01, -0.00, -0.00
2.749258041381836, -3.14, 1.37, 0.96, 0.53, 1.42, -179.91, 78.34, 54.95, 30.31, 81.47, -0.00, -7.80, -0.00, 0.00, 0.00, 0.00, -85.86, -27.69, -0.00, -0.00
2.7872588634490967, -3.14, 1.33, 0.96, 0.53, 1.42, -179.91, 76.48, 54.95, 30.31, 81.47, -0.00, -7.82, 0.00, -0.00, 0.00, 0.00, -16.30, 3.24, -0.00, -0.00
2.8252596855163574, -3.14, 1.30, 0.96, 0.53, 1.42, -179.91, 74.70, 54.95, 30.31, 81.47, -0.00, -7.43, -0.00, 0.00, 0.00, 0.00, 46.32, 30.17, 0.00, -0.00
2.8642578125, -3.14, 1.27, 0.96, 0.53, 1.42, -179.91, 72.73, 54.95, 30.31, 81.47, -0.00, -8.28, 0.00, -0.00, 0.00, 0.00, -147.23, -54.28, -0.00, -0.00
2.9012584686279297, -3.14, 1.23, 0.96, 0.53, 1.42, -179.91, 70.29, 54.95, 30.31, 81.47, -0.00, -10.23, 0.00, -0.00, 0.00, 0.00, -321.88, -127.81, -0.00, -0.00
2.9392600059509277, -3.14, 1.18, 0.96, 0.53, 1.42, -179.91, 67.43, 54.95, 30.31, 81.47, -0.00, -11.98, 0.00, -0.00, 0.00, 0.00, -291.69, -109.62, -0.00, -0.00
2.977259635925293, -3.14, 1.12, 0.96, 0.53, 1.42, -179.91, 63.90, 54.95, 30.31, 81.47, -0.00, -14.75, 0.00, -0.00, 0.00, 0.00, -452.23, -173.33, -0.00, -0.00
3.0212578773498535, -3.14, 1.05, 0.96, 0.53, 1.42, -179.91, 60.26, 54.95, 30.31, 81.47, -0.00, -15.26, 0.00, -0.00, 0.00, 0.00, -96.83, -9.29, -0.00, -0.00
3.0552592277526855, -3.14, 0.99, 0.96, 0.53, 1.42, -179.91, 56.70, 54.95, 30.31, 81.47, -0.00, -14.92, -0.00, 0.00, 0.00, 0.00, 36.13, 50.09, 0.00, -0.00
3.091257333755493, -3.14, 0.93, 0.96, 0.53, 1.42, -179.91, 53.21, 54.95, 30.31, 81.47, -0.00, -14.62, -0.00, 0.00, 0.00, 0.00, 31.17, 46.27, 0.00, -0.00
3.1282572746276855, -3.14, 0.87, 0.96, 0.53, 1.42, -179.91, 49.88, 54.95, 30.31, 81.47, -0.00, -13.95, -0.00, 0.00, 0.00, 0.00, 89.29, 69.83, 0.00, -0.00
3.1642589569091797, -3.14, 0.81, 0.96, 0.53, 1.42, -179.91, 46.59, 54.95, 30.31, 81.47, -0.00, -13.75, -0.00, 0.00, 0.00, 0.00, 16.69, 35.50, 0.00, -0.00
3.196258306503296, -3.14, 0.76, 0.96, 0.53, 1.42, -179.91, 43.36, 54.95, 30.31, 81.47, -0.00, -13.56, -0.00, 0.00, 0.00, 0.00, 13.80, 33.22, 0.00, -0.00
3.228259563446045, -3.14, 0.70, 0.96, 0.53, 1.42, -179.91, 40.25, 54.95, 30.31, 81.47, -0.00, -13.00, -0.00, 0.00, 0.00, 0.00, 73.82, 58.19, 0.00, -0.00
3.2622580528259277, -3.14, 0.65, 0.96, 0.53, 1.42, -179.91, 37.27, 54.95, 30.31, 81.47, -0.00, -12.50, -0.00, 0.00, 0.00, 0.00, 65.49, 52.22, 0.00, -0.00
3.2952582836151123, -3.14, 0.60, 0.96, 0.53, 1.42, -179.91, 34.20, 54.95, 30.31, 81.47, -0.00, -12.83, 0.00, -0.00, 0.00, 0.00, -67.01, -7.01, -0.00, -0.00
3.332258701324463, -3.14, 0.54, 0.96, 0.53, 1.42, -179.91, 31.16, 54.95, 30.31, 81.47, -0.00, -12.74, -0.00, 0.00, 0.00, 0.00, 1.01, 23.40, 0.00, -0.00
3.37025785446167, -3.14, 0.49, 0.96, 0.53, 1.42, -179.91, 28.33, 54.95, 30.31, 81.47, -0.00, -11.86, -0.00, 0.00, 0.00, 0.00, 125.16, 76.47, 0.00, -0.00
3.4042606353759766, -3.14, 0.45, 0.96, 0.53, 1.42, -179.91, 25.59, 54.95, 30.31, 81.47, -0.00, -11.47, -0.00, 0.00, 0.00, 0.00, 49.49, 40.50, 0.00, -0.00
3.44225811958313, -3.14, 0.40, 0.96, 0.53, 1.42, -179.91, 23.13, 54.95, 30.31, 81.47, -0.00, -10.32, -0.00, 0.00, 0.00, 0.00, 168.98, 90.57, 0.00, -0.00
3.482773542404175, -3.14, 0.36, 0.96, 0.53, 1.42, -179.91, 20.91, 54.95, 30.31, 81.47, -0.00, -9.29, -0.00, 0.00, 0.00, 0.00, 151.64, 79.28, 0.00, -0.00
3.522770404815674, -3.14, 0.33, 0.96, 0.53, 1.42, -179.91, 18.91, 54.95, 30.31, 81.47, -0.00, -8.36, -0.00, 0.00, 0.00, 0.00, 136.05, 69.47, 0.00, -0.00
3.566771984100342, -3.14, 0.30, 0.96, 0.53, 1.42, -179.91, 17.12, 54.95, 30.31, 81.47, -0.00, -7.53, -0.00, 0.00, 0.00, 0.00, 121.99, 60.90, 0.00, -0.00
3.6097705364227295, -3.14, 0.27, 0.96, 0.53, 1.42, -179.91, 15.22, 54.95, 30.31, 81.47, -0.00, -7.96, 0.00, -0.00, 0.00, 0.00, -78.28, -27.54, -0.00, -0.00
3.658770799636841, -3.14, 0.24, 0.96, 0.53, 1.42, -179.91, 13.50, 54.95, 30.31, 81.47, -0.00, -7.17, -0.00, 0.00, 0.00, 0.00, 116.43, 57.36, 0.00, -0.00
3.7027721405029297, -3.14, 0.21, 0.96, 0.53, 1.42, -179.91, 11.97, 54.95, 30.31, 81.47, -0.00, -6.45, -0.00, 0.00, 0.00, 0.00, 104.42, 50.34, 0.00, -0.00
3.74476957321167, -3.14, 0.18, 0.96, 0.53, 1.42, -179.91, 10.58, 54.95, 30.31, 81.47, -0.00, -5.81, -0.00, 0.00, 0.00, 0.00, 93.58, 44.16, 0.00, -0.00
3.806082248687744, -3.14, 0.16, 0.96, 0.53, 1.42, -179.91, 9.33, 54.95, 30.31, 81.47, -0.00, -5.23, -0.00, 0.00, 0.00, 0.00, 83.80, 38.72, 0.00, -0.00
3.8680925369262695, -3.14, 0.14, 0.96, 0.53, 1.42, -179.91, 8.21, 54.95, 30.31, 81.47, -0.00, -4.70, -0.00, 0.00, 0.00, 0.00, 74.99, 33.93, 0.00, -0.00
3.9310929775238037, -3.14, 0.13, 0.96, 0.53, 1.42, -179.91, 7.20, 54.95, 30.31, 81.47, -0.00, -4.23, -0.00, 0.00, 0.00, 0.00, 67.07, 29.70, 0.00, -0.00
3.9910964965820312, -3.14, 0.11, 0.96, 0.53, 1.42, -179.91, 6.29, 54.95, 30.31, 81.47, -0.00, -3.81, -0.00, 0.00, 0.00, 0.00, 59.94, 25.97, 0.00, -0.00
4.067243814468384, -3.14, 0.10, 0.96, 0.53, 1.42, -179.91, 5.47, 54.95, 30.31, 81.47, -0.00, -3.43, -0.00, 0.00, 0.00, 0.00, 53.51, 22.66, 0.00, -0.00
4.122764348983765, -3.14, 0.08, 0.96, 0.53, 1.42, -179.91, 4.73, 54.95, 30.31, 81.47, -0.00, -3.09, -0.00, 0.00, 0.00, 0.00, 47.71, 19.72, 0.00, -0.00
4.180123567581177, -3.14, 0.07, 0.96, 0.53, 1.42, -179.91, 4.07, 54.95, 30.31, 81.47, -0.00, -2.78, -0.00, 0.00, 0.00, 0.00, 42.51, 17.12, 0.00, -0.00
4.233389616012573, -3.14, 0.06, 0.96, 0.53, 1.42, -179.91, 3.47, 54.95, 30.31, 81.47, -0.00, -2.50, -0.00, 0.00, 0.00, 0.00, 37.82, 14.80, 0.00, -0.00
4.281379222869873, -3.14, 0.05, 0.96, 0.53, 1.42, -179.91, 2.94, 54.95, 30.31, 81.47, -0.00, -2.25, -0.00, 0.00, 0.00, 0.00, 33.58, 12.74, 0.00, -0.00
4.324379920959473, -3.14, 0.04, 0.96, 0.53, 1.42, -179.91, 2.45, 54.95, 30.31, 81.47, -0.00, -2.02, -0.00, 0.00, 0.00, 0.00, 29.79, 10.91, 0.00, -0.00
4.371978282928467, -3.14, 0.04, 0.96, 0.53, 1.42, -179.91, 2.02, 54.95, 30.31, 81.47, -0.00, -1.82, -0.00, 0.00, 0.00, 0.00, 26.36, 9.27, 0.00, -0.00
4.417892932891846, -3.14, 0.03, 0.96, 0.53, 1.42, -179.91, 1.63, 54.95, 30.31, 81.47, -0.00, -1.64, -0.00, 0.00, 0.00, 0.00, 23.27, 7.80, 0.00, -0.00
4.460068225860596, -3.14, 0.02, 0.96, 0.53, 1.42, -179.91, 1.28, 54.95, 30.31, 81.47, -0.00, -1.48, -0.00, 0.00, 0.00, 0.00, 20.51, 6.51, 0.00, -0.00
4.502068519592285, -3.14, 0.02, 0.96, 0.53, 1.42, -179.91, 0.96, 54.95, 30.31, 81.47, -0.00, -1.33, -0.00, 0.00, 0.00, 0.00, 18.01, 5.34, 0.00, -0.00
4.545067071914673, -3.14, 0.01, 0.96, 0.53, 1.42, -179.91, 0.29, 54.95, 30.31, 81.47, -0.00, -2.78, 0.00, -0.00, 0.00, 0.00, -234.39, -103.62, -0.00, -0.00
4.599066734313965, -3.14, -0.02, 0.96, 0.53, 1.42, -179.91, -0.87, 54.95, 30.31, 81.47, -0.00, -4.89, 0.00, -0.00, 0.00, 0.00, -336.60, -146.88, -0.00, -0.00
4.664583206176758, -3.14, -0.04, 0.96, 0.53, 1.42, -179.91, -2.49, 54.95, 30.31, 81.47, -0.00, -6.78, 0.00, -0.00, 0.00, 0.00, -303.47, -130.26, -0.00, -0.00
4.732580900192261, -3.14, -0.08, 0.96, 0.53, 1.42, -179.91, -4.80, 54.95, 30.31, 81.47, -0.00, -9.67, 0.00, -0.00, 0.00, 0.00, -461.27, -195.15, -0.00, -0.00
4.774581670761108, -3.14, -0.15, 0.96, 0.53, 1.42, -179.91, -8.77, 54.95, 30.31, 81.47, -0.00, -16.64, 0.00, -0.00, 0.00, 0.00, -1103.86, -465.50, -0.00, -0.00
4.811583042144775, -3.14, -0.23, 0.96, 0.53, 1.42, -179.91, -13.29, 54.95, 30.31, 81.47, -0.00, -18.95, 0.00, -0.00, 0.00, 0.00, -370.29, -122.12, -0.00, -0.00
4.84858250617981, -3.14, -0.31, 0.96, 0.53, 1.42, -179.91, -17.55, 54.95, 30.31, 81.47, -0.00, -17.84, -0.00, 0.00, 0.00, 0.00, 166.33, 121.35, 0.00, -0.00
4.88658332824707, -3.14, -0.37, 0.96, 0.53, 1.42, -179.91, -21.39, 54.95, 30.31, 81.47, -0.00, -16.06, -0.00, 0.00, 0.00, 0.00, 275.70, 162.52, 0.00, -0.00
4.922582387924194, -3.14, -0.43, 0.96, 0.53, 1.42, -179.91, -24.84, 54.95, 30.31, 81.47, -0.00, -14.45, -0.00, 0.00, 0.00, 0.00, 249.30, 142.18, 0.00, -0.00
4.9595818519592285, -3.14, -0.49, 0.96, 0.53, 1.42, -179.91, -27.94, 54.95, 30.31, 81.47, -0.00, -13.01, -0.00, 0.00, 0.00, 0.00, 225.47, 124.65, 0.00, -0.00
5.003448724746704, -3.14, -0.54, 0.96, 0.53, 1.42, -179.91, -30.74, 54.95, 30.31, 81.47, -0.00, -11.71, -0.00, 0.00, 0.00, -0.00, 203.98, 109.52, 0.00, -0.00
5.047088623046875, -3.14, -0.58, 0.96, 0.53, 1.42, -179.91, -33.26, 54.95, 30.31, 81.47, -0.00, -10.54, -0.00, 0.00, 0.00, -0.00, 184.58, 96.41, 0.00, -0.00
5.09955358505249, -3.14, -0.62, 0.96, 0.53, 1.42, -179.91, -35.52, 54.95, 30.31, 81.47, -0.00, -9.48, -0.00, 0.00, 0.00, -0.00, 167.06, 85.01, 0.00, -0.00
5.189553260803223, -3.14, -0.66, 0.96, 0.53, 1.42, -179.91, -37.56, 54.95, 30.31, 81.47, -0.00, -8.53, -0.00, 0.00, 0.00, -0.00, 151.29, 75.11, 0.00, -0.00
5.323708772659302, -3.14, -0.68, 0.96, 0.53, 1.42, -179.91, -39.01, 54.95, 30.31, 81.47, -0.00, -6.09, -0.00, 0.00, 0.00, -0.00, 387.25, 174.42, 0.00, -0.00
5.557636976242065, -3.14, -0.69, 0.96, 0.53, 1.42, -179.91, -39.75, 54.95, 30.31, 81.47, -0.00, -3.10, -0.00, 0.00, 0.00, -0.00, 474.73, 206.91, 0.00, 0.00
5.691145896911621, -3.14, -0.68, 0.96, 0.53, 1.42, -179.91, -38.71, 54.95, 30.31, 81.47, -0.00, 4.35, 0.00, -0.00, 0.00, 0.00, 1178.76, 506.66, 0.00, 0.00
5.729143857955933, -3.14, -0.65, 0.96, 0.53, 1.42, -179.91, -37.12, 54.95, 30.31, 81.47, -0.00, 6.69, -0.00, 0.00, 0.00, 0.00, 373.66, 160.64, 0.00, 0.00
5.769145250320435, -3.14, -0.62, 0.96, 0.53, 1.42, -179.91, -35.58, 54.95, 30.31, 81.47, -0.00, 6.42, 0.00, -0.00, 0.00, 0.00, -38.53, -13.39, -0.00, 0.00
5.808756589889526, -3.14, -0.60, 0.96, 0.53, 1.42, -179.91, -34.20, 54.95, 30.31, 81.47, -0.00, 5.78, 0.00, -0.00, 0.00, 0.00, -97.24, -39.26, -0.00, 0.00
5.84874415397644, -3.14, -0.58, 0.96, 0.53, 1.42, -179.91, -32.96, 54.95, 30.31, 81.47, -0.00, 5.20, 0.00, -0.00, 0.00, 0.00, -87.56, -36.24, -0.00, 0.00
5.890859127044678, -3.14, -0.56, 0.96, 0.53, 1.42, -179.91, -31.85, 54.95, 30.31, 81.47, -0.00, 4.68, 0.00, -0.00, 0.00, 0.00, -78.83, -33.41, -0.00, 0.00
5.930212736129761, -3.14, -0.54, 0.96, 0.53, 1.42, -179.91, -30.84, 54.95, 30.31, 81.47, -0.00, 4.21, 0.00, -0.00, 0.00, 0.00, -70.96, -30.77, -0.00, 0.00
5.967277765274048, -3.14, -0.52, 0.96, 0.53, 1.42, -179.91, -29.65, 54.95, 30.31, 81.47, -0.00, 4.98, -0.00, 0.00, 0.00, 0.00, 123.70, 52.60, 0.00, 0.00
6.007670164108276, -3.14, -0.50, 0.96, 0.53, 1.42, -179.91, -28.58, 54.95, 30.31, 81.47, -0.00, 4.48, 0.00, -0.00, 0.00, 0.00, -76.11, -32.54, -0.00, 0.00
6.049668550491333, -3.14, -0.48, 0.96, 0.53, 1.42, -179.91, -27.33, 54.95, 30.31, 81.47, -0.00, 5.23, -0.00, 0.00, 0.00, 0.00, 118.94, 50.91, 0.00, 0.00
6.090184926986694, -3.14, -0.46, 0.96, 0.53, 1.42, -179.91, -26.12, 54.95, 30.31, 81.47, -0.00, 5.10, 0.00, -0.00, 0.00, 0.00, -17.92, -7.05, -0.00, 0.00
6.1271843910217285, -3.14, -0.43, 0.96, 0.53, 1.42, -179.91, -24.83, 54.95, 30.31, 81.47, -0.00, 5.38, -0.00, 0.00, 0.00, 0.00, 46.20, 20.41, 0.00, 0.00
6.166184663772583, -3.14, -0.41, 0.96, 0.53, 1.42, -179.91, -23.67, 54.95, 30.31, 81.47, -0.00, 4.85, 0.00, -0.00, 0.00, 0.00, -83.51, -35.08, -0.00, 0.00
6.204184293746948, -3.14, -0.40, 0.96, 0.53, 1.42, -179.91, -22.63, 54.95, 30.31, 81.47, -0.00, 4.36, 0.00, -0.00, 0.00, 0.00, -75.43, -32.41, -0.00, 0.00
6.245184898376465, -3.14, -0.38, 0.96, 0.53, 1.42, -179.91, -21.60, 54.95, 30.31, 81.47, -0.00, 4.32, 0.00, -0.00, 0.00, 0.00, -5.58, -2.92, -0.00, 0.00
6.280184268951416, -3.14, -0.36, 0.96, 0.53, 1.42, -179.91, -20.48, 54.95, 30.31, 81.47, -0.00, 4.68, -0.00, 0.00, 0.00, 0.00, 57.31, 24.17, 0.00, 0.00
6.32172155380249, -3.14, -0.34, 0.96, 0.53, 1.42, -179.91, -19.48, 54.95, 30.31, 81.47, -0.00, 4.21, 0.00, -0.00, 0.00, 0.00, -73.59, -31.79, -0.00, 0.00
6.361438989639282, -3.14, -0.32, 0.96, 0.53, 1.42, -179.91, -18.57, 54.95, 30.31, 81.47, -0.00, 3.79, 0.00, -0.00, 0.00, 0.00, -66.58, -29.38, -0.00, 0.00
6.399093151092529, -3.14, -0.31, 0.96, 0.53, 1.42, -179.91, -17.76, 54.95, 30.31, 81.47, -0.00, 3.41, 0.00, -0.00, 0.00, 0.00, -60.20, -27.11, -0.00, 0.00
6.436093091964722, -3.14, -0.30, 0.96, 0.53, 1.42, -179.91, -16.93, 54.95, 30.31, 81.47, -0.00, 3.47, -0.00, 0.00, 0.00, 0.00, 8.05, 1.94, 0.00, 0.00
6.4710938930511475, -3.14, -0.28, 0.96, 0.53, 1.42, -179.91, -16.18, 54.95, 30.31, 81.47, -0.00, 3.12, 0.00, -0.00, 0.00, 0.00, -55.46, -25.37, -0.00, 0.00
6.509092569351196, -3.14, -0.27, 0.96, 0.53, 1.42, -179.91, -15.51, 54.95, 30.31, 81.47, -0.00, 2.81, 0.00, -0.00, 0.00, 0.00, -50.25, -23.46, -0.00, -0.00
6.550092935562134, -3.14, -0.26, 0.96, 0.53, 1.42, -179.91, -14.91, 54.95, 30.31, 81.47, -0.00, 2.53, 0.00, -0.00, 0.00, 0.00, -45.53, -21.68, -0.00, -0.00
6.58609414100647, -3.14, -0.25, 0.96, 0.53, 1.42, -179.91, -14.36, 54.95, 30.31, 81.47, -0.00, 2.28, 0.00, -0.00, 0.00, 0.00, -41.26, -20.05, -0.00, -0.00
6.6241538524627686, -3.14, -0.24, 0.96, 0.53, 1.42, -179.91, -13.88, 54.95, 30.31, 81.47, -0.00, 2.05, 0.00, -0.00, 0.00, 0.00, -37.42, -18.57, -0.00, -0.00
6.665017127990723, -3.14, -0.23, 0.96, 0.53, 1.42, -179.91, -13.44, 54.95, 30.31, 81.47, -0.00, 1.84, 0.00, -0.00, 0.00, 0.00, -33.96, -17.20, -0.00, -0.00
6.701015472412109, -3.14, -0.23, 0.96, 0.53, 1.42, -179.91, -13.04, 54.95, 30.31, 81.47, -0.00, 1.66, 0.00, -0.00, 0.00, 0.00, -30.86, -15.98, -0.00, -0.00
6.7410173416137695, -3.14, -0.22, 0.96, 0.53, 1.42, -179.91, -12.68, 54.95, 30.31, 81.47, -0.00, 1.49, 0.00, -0.00, 0.00, 0.00, -28.06, -14.85, -0.00, -0.00
6.781014442443848, -3.14, -0.22, 0.96, 0.53, 1.42, -179.91, -12.36, 54.95, 30.31, 81.47, -0.00, 1.34, 0.00, -0.00, 0.00, 0.00, -25.53, -13.84, -0.00, -0.00
6.823608875274658, -3.14, -0.21, 0.96, 0.53, 1.42, -179.91, -12.07, 54.95, 30.31, 81.47, -0.00, 1.21, 0.00, -0.00, 0.00, 0.00, -23.25, -12.90, -0.00, -0.00
6.868297815322876, -3.14, -0.20, 0.96, 0.53, 1.42, -179.91, -11.62, 54.95, 30.31, 81.47, -0.00, 1.88, -0.00, 0.00, 0.00, 0.00, 103.82, 41.87, 0.00, -0.00
6.9029388427734375, -3.14, -0.19, 0.96, 0.53, 1.42, -179.91, -11.12, 54.95, 30.31, 81.47, -0.00, 2.09, -0.00, 0.00, 0.00, 0.00, 30.68, 10.64, 0.00, -0.00
6.940501689910889, -3.14, -0.19, 0.96, 0.53, 1.42, -179.91, -10.67, 54.95, 30.31, 81.47, -0.00, 1.88, 0.00, -0.00, 0.00, 0.00, -35.20, -17.64, -0.00, -0.00
6.983401536941528, -3.14, -0.18, 0.96, 0.53, 1.42, -179.91, -10.27, 54.95, 30.31, 81.47, -0.00, 1.69, 0.00, -0.00, 0.00, 0.00, -32.09, -16.43, -0.00, -0.00
7.035844087600708, -3.14, -0.17, 0.96, 0.53, 1.42, -179.91, -9.91, 54.95, 30.31, 81.47, -0.00, 1.52, 0.00, -0.00, 0.00, 0.00, -29.23, -15.28, -0.00, -0.00
7.082845687866211, -3.14, -0.17, 0.96, 0.53, 1.42, -179.91, -9.58, 54.95, 30.31, 81.47, -0.00, 1.37, 0.00, -0.00, 0.00, 0.00, -26.66, -14.24, -0.00, -0.00
7.12584376335144, -3.14, -0.16, 0.96, 0.53, 1.42, -179.91, -9.28, 54.95, 30.31, 81.47, -0.00, 1.23, 0.00, -0.00, 0.00, 0.00, -24.34, -13.30, -0.00, -0.00
7.1675426959991455, -3.14, -0.16, 0.96, 0.53, 1.42, -179.91, -9.02, 54.95, 30.31, 81.47, -0.00, 1.11, 0.00, -0.00, 0.00, 0.00, -22.24, -12.44, -0.00, -0.00
7.208308935165405, -3.14, -0.15, 0.96, 0.53, 1.42, -179.91, -8.69, 54.95, 30.31, 81.47, -0.00, 1.40, -0.00, 0.00, 0.00, 0.00, 42.12, 15.28, 0.00, -0.00
7.250288248062134, -3.14, -0.14, 0.96, 0.53, 1.42, -179.91, -8.29, 54.95, 30.31, 81.47, -0.00, 1.65, -0.00, 0.00, 0.00, 0.00, 37.63, 13.47, 0.00, 0.00
7.294285774230957, -3.14, -0.14, 0.96, 0.53, 1.42, -179.91, -7.94, 54.95, 30.31, 81.47, -0.00, 1.49, 0.00, -0.00, 0.00, 0.00, -29.00, -15.14, -0.00, -0.00
7.342286586761475, -3.14, -0.13, 0.96, 0.53, 1.42, -179.91, -7.62, 54.95, 30.31, 81.47, -0.00, 1.34, 0.00, -0.00, 0.00, 0.00, -26.55, -14.16, -0.00, -0.00
7.387288808822632, -3.14, -0.13, 0.96, 0.53, 1.42, -179.91, -7.23, 54.95, 30.31, 81.47, -0.00, 1.60, -0.00, 0.00, 0.00, 0.00, 38.22, 13.72, 0.00, -0.00
7.426736354827881, -3.14, -0.12, 0.96, 0.53, 1.42, -179.91, -6.89, 54.95, 30.31, 81.47, -0.00, 1.44, 0.00, -0.00, 0.00, 0.00, -28.44, -14.89, -0.00, -0.00
7.470576286315918, -3.14, -0.11, 0.96, 0.53, 1.42, -179.91, -6.58, 54.95, 30.31, 81.47, -0.00, 1.30, 0.00, -0.00, 0.00, 0.00, -26.06, -13.94, -0.00, -0.00
7.513352394104004, -3.14, -0.11, 0.96, 0.53, 1.42, -179.91, -6.21, 54.95, 30.31, 81.47, -0.00, 1.57, -0.00, 0.00, 0.00, 0.00, 38.64, 13.92, 0.00, -0.00
7.558600425720215, -3.14, -0.10, 0.96, 0.53, 1.42, -179.91, -5.87, 54.95, 30.31, 81.47, -0.00, 1.41, 0.00, -0.00, 0.00, 0.00, -28.08, -14.73, -0.00, -0.00
7.603196382522583, -3.14, -0.10, 0.96, 0.53, 1.42, -179.91, -5.57, 54.95, 30.31, 81.47, -0.00, 1.27, 0.00, -0.00, 0.00, 0.00, -25.76, -13.80, -0.00, -0.00
7.645976305007935, -3.14, -0.09, 0.96, 0.53, 1.42, -179.91, -5.29, 54.95, 30.31, 81.47, -0.00, 1.14, 0.00, -0.00, 0.00, 0.00, -23.60, -12.91, -0.00, -0.00
7.692447662353516, -3.14, -0.09, 0.96, 0.53, 1.42, -179.91, -5.05, 54.95, 30.31, 81.47, -0.00, 1.03, 0.00, -0.00, 0.00, 0.00, -21.69, -12.12, -0.00, 0.00
7.738985776901245, -3.14, -0.08, 0.96, 0.53, 1.42, -179.91, -4.83, 54.95, 30.31, 81.47, -0.00, 0.92, 0.00, -0.00, 0.00, -0.00, -19.95, -11.40, -0.00, 0.00
7.781562328338623, -3.14, -0.08, 0.96, 0.53, 1.42, -179.91, -4.53, 54.95, 30.31, 81.47, -0.00, 1.23, -0.00, 0.00, 0.00, -0.00, 44.11, 16.20, 0.00, 0.00
7.828259229660034, -3.14, -0.07, 0.96, 0.53, 1.42, -179.91, -4.27, 54.95, 30.31, 81.47, -0.00, 1.11, 0.00, -0.00, 0.00, -0.00, -23.16, -12.69, -0.00, 0.00
7.879271030426025, -3.14, -0.07, 0.96, 0.53, 1.42, -179.91, -4.03, 54.95, 30.31, 81.47, -0.00, 1.00, 0.00, -0.00, 0.00, -0.00, -21.36, -11.96, -0.00, 0.00
7.923271656036377, -3.14, -0.07, 0.96, 0.53, 1.42, -179.91, -3.82, 54.95, 30.31, 81.47, -0.00, 0.90, 0.00, -0.00, 0.00, -0.00, -19.68, -11.26, -0.00, 0.00
7.964271068572998, -3.14, -0.06, 0.96, 0.53, 1.42, -179.91, -3.63, 54.95, 30.31, 81.47, -0.00, 0.81, 0.00, -0.00, 0.00, -0.00, -18.16, -10.63, -0.00, 0.00
8.004788398742676, -3.14, -0.06, 0.96, 0.53, 1.42, -179.91, -3.45, 54.95, 30.31, 81.47, -0.00, 0.73, 0.00, -0.00, 0.00, -0.00, -16.79, -10.06, -0.00, 0.00
8.045490980148315, -3.14, -0.06, 0.96, 0.53, 1.42, -179.91, -3.30, 54.95, 30.31, 81.47, -0.00, 0.65, 0.00, -0.00, 0.00, -0.00, -15.55, -9.54, -0.00, 0.00
8.084770202636719, -3.14, -0.06, 0.96, 0.53, 1.42, -179.91, -3.16, 54.95, 30.31, 81.47, -0.00, 0.59, 0.00, -0.00, 0.00, -0.00, -14.46, -9.08, -0.00, 0.00
8.129285097122192, -3.14, -0.05, 0.96, 0.53, 1.42, -179.91, -2.94, 54.95, 30.31, 81.47, -0.00, 0.93, -0.00, 0.00, 0.00, -0.00, 49.03, 18.30, 0.00, 0.00
8.170392513275146, -3.14, -0.05, 0.96, 0.53, 1.42, -179.91, -2.64, 54.95, 30.31, 81.47, -0.00, 1.23, -0.00, 0.00, 0.00, -0.00, 43.74, 16.11, 0.00, 0.00
8.213077306747437, -3.14, -0.04, 0.96, 0.53, 1.42, -179.91, -2.28, 54.95, 30.31, 81.47, -0.00, 1.50, -0.00, 0.00, 0.00, -0.00, 38.89, 14.13, 0.00, 0.00
8.258400678634644, -3.14, -0.03, 0.96, 0.53, 1.42, -179.91, -1.87, 54.95, 30.31, 81.47, -0.00, 1.75, -0.00, 0.00, 0.00, -0.00, 34.50, 12.35, 0.00, 0.00
8.308615922927856, -3.14, -0.03, 0.96, 0.53, 1.42, -179.91, -1.49, 54.95, 30.31, 81.47, -0.00, 1.58, 0.00, -0.00, 0.00, -0.00, -31.94, -16.17, -0.00, 0.00
8.353291511535645, -3.14, -0.02, 0.96, 0.53, 1.42, -179.91, -1.15, 54.95, 30.31, 81.47, -0.00, 1.42, 0.00, -0.00, 0.00, -0.00, -29.35, -15.14, -0.00, 0.00
8.39742112159729, -3.14, -0.01, 0.96, 0.53, 1.42, -179.91, -0.85, 54.95, 30.31, 81.47, -0.00, 1.28, 0.00, -0.00, 0.00, -0.00, -26.95, -14.16, -0.00, 0.00
8.442845582962036, -3.14, -0.01, 0.96, 0.53, 1.42, -179.91, -0.57, 54.95, 30.31, 81.47, -0.00, 1.15, 0.00, -0.00, 0.00, -0.00, -24.79, -13.28, -0.00, 0.00
8.48384428024292, -3.14, -0.01, 0.96, 0.53, 1.42, -179.91, -0.33, 54.95, 30.31, 81.47, -0.00, 1.03, 0.00, -0.00, 0.00, -0.00, -22.83, -12.47, -0.00, 0.00
8.52784538269043, -3.14, -0.00, 0.96, 0.53, 1.42, -179.91, -0.10, 54.95, 30.31, 81.47, -0.00, 0.93, 0.00, -0.00, 0.00, -0.00, -21.09, -11.75, -0.00, 0.00
8.573844909667969, -3.14, 0.00, 0.96, 0.53, 1.42, -179.91, 0.10, 54.95, 30.31, 81.47, -0.00, 0.84, 0.00, -0.00, 0.00, -0.00, -19.52, -11.09, -0.00, 0.00
8.617862462997437, -3.14, 0.00, 0.96, 0.53, 1.42, -179.91, 0.09, 54.95, 30.31, 81.47, -0.00, -0.04, 0.00, -0.00, 0.00, -0.00, -143.20, -64.47, -0.00, 0.00
8.654979944229126, -3.14, 0.00, 0.96, 0.53, 1.42, -179.91, 0.08, 54.95, 30.31, 81.47, -0.00, -0.04, 0.00, -0.00, 0.00, 0.00, -4.30, -4.64, 0.00, -0.00
8.694725751876831, -3.14, -0.00, 0.96, 0.53, 1.42, -179.91, -0.12, 54.95, 30.31, 81.47, -0.00, -0.83, 0.00, -0.00, 0.00, 0.00, -129.46, -58.65, -0.00, -0.00
8.73212718963623, -3.14, -0.01, 0.96, 0.53, 1.42, -179.91, -0.30, 54.95, 30.31, 81.47, -0.00, -0.74, -0.00, 0.00, 0.00, 0.00, 8.06, 0.77, 0.00, -0.00
8.769678592681885, -3.14, -0.01, 0.96, 0.53, 1.42, -179.91, -0.46, 54.95, 30.31, 81.47, -0.00, -0.67, -0.00, 0.00, 0.00, 0.00, 6.85, 0.23, 0.00, -0.00
8.805047035217285, -3.14, -0.01, 0.96, 0.53, 1.42, -179.91, -0.60, 54.95, 30.31, 81.47, -0.00, -0.60, -0.00, 0.00, 0.00, 0.00, 5.72, -0.27, 0.00, -0.00
8.845460891723633, -3.14, -0.01, 0.96, 0.53, 1.42, -179.91, -0.73, 54.95, 30.31, 81.47, -0.00, -0.54, -0.00, 0.00, 0.00, 0.00, 4.69, -0.74, 0.00, -0.00
8.89037537574768, -3.14, -0.01, 0.96, 0.53, 1.42, -179.91, -0.85, 54.95, 30.31, 81.47, -0.00, -0.49, -0.00, 0.00, 0.00, 0.00, 3.78, -1.14, 0.00, -0.00
8.929173469543457, -3.14, -0.02, 0.96, 0.53, 1.42, -179.91, -0.95, 54.95, 30.31, 81.47, -0.00, -0.44, -0.00, 0.00, 0.00, 0.00, 2.95, -1.51, 0.00, -0.00
8.969808340072632, -3.14, -0.02, 0.96, 0.53, 1.42, -179.91, -1.05, 54.95, 30.31, 81.47, -0.00, -0.40, -0.00, 0.00, 0.00, 0.00, 2.20, -1.85, 0.00, -0.00
9.011807441711426, -3.14, -0.02, 0.96, 0.53, 1.42, -179.91, -1.13, 54.95, 30.31, 81.47, -0.00, -0.36, -0.00, 0.00, 0.00, 0.00, 1.53, -2.14, 0.00, -0.00
9.054809093475342, -3.14, -0.02, 0.96, 0.53, 1.42, -179.91, -1.21, 54.95, 30.31, 81.47, -0.00, -0.32, -0.00, 0.00, 0.00, 0.00, 0.94, -2.41, 0.00, -0.00
9.094808578491211, -3.14, -0.02, 0.96, 0.53, 1.42, -179.91, -1.28, 54.95, 30.31, 81.47, -0.00, -0.29, -0.00, 0.00, 0.00, 0.00, 0.39, -2.65, 0.00, -0.00
9.136808633804321, -3.14, -0.02, 0.96, 0.53, 1.42, -179.91, -1.34, 54.95, 30.31, 81.47, -0.00, -0.26, 0.00, -0.00, 0.00, 0.00, -0.04, -2.83, 0.00, -0.00
9.179808855056763, -3.14, -0.02, 0.96, 0.53, 1.42, -179.91, -1.39, 54.95, 30.31, 81.47, -0.00, -0.23, 0.00, -0.00, 0.00, 0.00, -0.55, -3.07, 0.00, -0.00
9.218806743621826, -3.14, -0.03, 0.96, 0.53, 1.42, -179.91, -1.44, 54.95, 30.31, 81.47, -0.00, -0.21, 0.00, -0.00, 0.00, 0.00, -0.94, -3.23, 0.00, -0.00
9.259809970855713, -3.14, -0.03, 0.96, 0.53, 1.42, -179.91, -1.49, 54.95, 30.31, 81.47, -0.00, -0.19, 0.00, -0.00, 0.00, 0.00, -1.30, -3.39, 0.00, -0.00
9.296807050704956, -3.14, -0.03, 0.96, 0.53, 1.42, -179.91, -1.53, 54.95, 30.31, 81.47, -0.00, -0.17, 0.00, -0.00, 0.00, 0.00, -1.62, -3.54, 0.00, -0.00
9.333807229995728, -3.14, -0.03, 0.96, 0.53, 1.42, -179.91, -1.57, 54.95, 30.31, 81.47, -0.00, -0.15, 0.00, -0.00, 0.00, 0.00, -1.90, -3.66, 0.00, -0.00
9.373810052871704, -3.14, -0.03, 0.96, 0.53, 1.42, -179.91, -1.60, 54.95, 30.31, 81.47, -0.00, -0.14, 0.00, -0.00, 0.00, 0.00, -2.16, -3.77, 0.00, -0.00
9.41480827331543, -3.14, -0.03, 0.96, 0.53, 1.42, -179.91, -1.63, 54.95, 30.31, 81.47, -0.00, -0.12, 0.00, -0.00, 0.00, 0.00, -2.40, -3.88, 0.00, -0.00
9.45080828666687, -3.14, -0.03, 0.96, 0.53, 1.42, -179.91, -1.56, 54.95, 30.31, 81.47, -0.00, 0.29, -0.00, 0.00, 0.00, 0.00, 59.89, 22.99, 0.00, -0.00
9.516807079315186, -3.14, -0.02, 0.96, 0.53, 1.42, -179.91, -1.31, 54.95, 30.31, 81.47, -0.00, 1.05, -0.00, 0.00, 0.00, -0.00, 116.05, 47.24, 0.00, 0.00
9.566807508468628, -3.14, -0.02, 0.96, 0.53, 1.42, -179.91, -0.99, 54.95, 30.31, 81.47, -0.00, 1.34, -0.00, 0.00, 0.00, -0.00, 41.41, 15.19, 0.00, 0.00
9.615808248519897, -3.14, -0.01, 0.96, 0.53, 1.42, -179.91, -0.70, 54.95, 30.31, 81.47, -0.00, 1.21, 0.00, -0.00, 0.00, -0.00, -25.74, -13.65, -0.00, 0.00
9.658807039260864, -3.14, -0.01, 0.96, 0.53, 1.42, -179.91, -0.44, 54.95, 30.31, 81.47, -0.00, 1.09, 0.00, -0.00, 0.00, -0.00, -23.74, -12.84, -0.00, 0.00
9.69980764389038, -3.14, -0.00, 0.96, 0.53, 1.42, -179.91, -0.21, 54.95, 30.31, 81.47, -0.00, 0.98, 0.00, -0.00, 0.00, -0.00, -21.91, -12.09, -0.00, 0.00
9.739806652069092, -3.14, 0.00, 0.96, 0.53, 1.42, -179.91, 0.00, 54.95, 30.31, 81.47, -0.00, 0.88, 0.00, -0.00, 0.00, -0.00, -20.26, -11.40, -0.00, 0.00
9.77980637550354, -3.14, 0.00, 0.96, 0.53, 1.42, -179.91, 0.19, 54.95, 30.31, 81.47, -0.00, 0.79, 0.00, -0.00, 0.00, -0.00, -18.76, -10.77, -0.00, 0.00
9.82280683517456, -3.14, 0.01, 0.96, 0.53, 1.42, -179.91, 0.36, 54.95, 30.31, 81.47, -0.00, 0.71, 0.00, -0.00, 0.00, -0.00, -17.42, -10.21, -0.00, 0.00
9.866323709487915, -3.14, 0.01, 0.96, 0.53, 1.42, -179.91, 0.52, 54.95, 30.31, 81.47, -0.00, 0.64, 0.00, -0.00, 0.00, -0.00, -16.20, -9.69, -0.00, 0.00
9.910323143005371, -3.14, 0.01, 0.96, 0.53, 1.42, -179.91, 0.65, 54.95, 30.31, 81.47, -0.00, 0.58, 0.00, -0.00, 0.00, -0.00, -15.12, -9.24, -0.00, 0.00
9.947322368621826, -3.14, 0.01, 0.96, 0.53, 1.42, -179.91, 0.68, 54.95, 30.31, 81.47, -0.00, 0.12, 0.00, -0.00, 0.00, -0.00, -76.69, -35.81, -0.00, 0.00
9.989322423934937, -3.14, 0.01, 0.96, 0.53, 1.42, -179.91, 0.71, 54.95, 30.31, 81.47, -0.00, 0.11, 0.00, -0.00, 0.00, -0.00, -7.00, -5.79, -0.00, 0.00
10.02932095527649, -3.14, 0.01, 0.96, 0.53, 1.42, -179.91, 0.73, 54.95, 30.31, 81.47, -0.00, 0.10, 0.00, -0.00, 0.00, -0.00, -6.81, -5.71, -0.00, 0.00
10.071324586868286, -3.14, 0.01, 0.96, 0.53, 1.42, -179.91, 0.75, 54.95, 30.31, 81.47, -0.00, 0.09, 0.00, -0.00, 0.00, -0.00, -6.64, -5.63, -0.00, 0.00
10.108322620391846, -3.14, 0.01, 0.96, 0.53, 1.42, -179.91, 0.77, 54.95, 30.31, 81.47, -0.00, 0.08, 0.00, -0.00, 0.00, -0.00, -6.49, -5.57, -0.00, 0.00
10.147883176803589, -3.14, 0.01, 0.96, 0.53, 1.42, -179.91, 0.79, 54.95, 30.31, 81.47, -0.00, 0.07, 0.00, -0.00, 0.00, -0.00, -6.35, -5.51, -0.00, 0.00
10.185880899429321, -3.14, 0.01, 0.96, 0.53, 1.42, -179.91, 0.81, 54.95, 30.31, 81.47, -0.00, 0.07, 0.00, -0.00, 0.00, -0.00, -6.23, -5.45, -0.00, 0.00
10.222882509231567, -3.14, 0.01, 0.96, 0.53, 1.42, -179.91, 0.82, 54.95, 30.31, 81.47, -0.00, 0.06, 0.00, -0.00, 0.00, -0.00, -6.12, -5.40, -0.00, 0.00
10.259101152420044, -3.14, 0.01, 0.96, 0.53, 1.42, -179.91, 0.83, 54.95, 30.31, 81.47, -0.00, 0.05, 0.00, -0.00, 0.00, -0.00, -6.02, -5.36, -0.00, 0.00
10.295572757720947, -3.14, 0.01, 0.96, 0.53, 1.42, -179.91, 0.84, 54.95, 30.31, 81.47, -0.00, 0.05, 0.00, -0.00, 0.00, -0.00, -5.93, -5.32, -0.00, 0.00
10.330604314804077, -3.14, 0.01, 0.96, 0.53, 1.42, -179.91, 0.86, 54.95, 30.31, 81.47, -0.00, 0.04, 0.00, -0.00, 0.00, -0.00, -5.85, -5.29, -0.00, 0.00
10.368138551712036, -3.14, 0.01, 0.96, 0.53, 1.42, -179.91, 0.77, 54.95, 30.31, 81.47, -0.00, -0.36, 0.00, -0.00, 0.00, -0.00, -68.32, -32.24, -0.00, 0.00
10.404651165008545, -3.14, 0.01, 0.96, 0.53, 1.42, -179.91, 0.69, 54.95, 30.31, 81.47, -0.00, -0.32, -0.00, 0.00, 0.00, 0.00, 0.50, -2.54, 0.00, -0.00
10.447722673416138, -3.14, 0.01, 0.96, 0.53, 1.42, -179.91, 0.62, 54.95, 30.31, 81.47, -0.00, -0.29, -0.00, 0.00, 0.00, 0.00, 0.02, -2.74, 0.00, -0.00
10.486971378326416, -3.14, 0.01, 0.96, 0.53, 1.42, -179.91, 0.56, 54.95, 30.31, 81.47, -0.00, -0.26, 0.00, -0.00, 0.00, 0.00, -0.43, -2.93, 0.00, -0.00
10.527280807495117, -3.14, 0.01, 0.96, 0.53, 1.42, -179.91, 0.50, 54.95, 30.31, 81.47, -0.00, -0.24, 0.00, -0.00, 0.00, 0.00, -0.93, -3.16, 0.00, -0.00
10.563470602035522, -3.14, 0.01, 0.96, 0.53, 1.42, -179.91, 0.45, 54.95, 30.31, 81.47, -0.00, -0.21, 0.00, -0.00, 0.00, 0.00, -1.33, -3.34, 0.00, -0.00
10.603137493133545, -3.14, 0.01, 0.96, 0.53, 1.42, -179.91, 0.41, 54.95, 30.31, 81.47, -0.00, -0.19, 0.00, -0.00, 0.00, 0.00, -1.69, -3.50, 0.00, -0.00
10.637816429138184, -3.14, 0.01, 0.96, 0.53, 1.42, -179.91, 0.37, 54.95, 30.31, 81.47, -0.00, -0.17, 0.00, -0.00, 0.00, 0.00, -2.00, -3.64, 0.00, -0.00
10.674725770950317, -3.14, 0.01, 0.96, 0.53, 1.42, -179.91, 0.33, 54.95, 30.31, 81.47, -0.00, -0.15, 0.00, -0.00, 0.00, 0.00, -2.29, -3.76, 0.00, -0.00
10.715511560440063, -3.14, 0.01, 0.96, 0.53, 1.42, -179.91, 0.30, 54.95, 30.31, 81.47, -0.00, -0.14, 0.00, -0.00, 0.00, 0.00, -2.57, -3.89, 0.00, -0.00
10.755462646484375, -3.14, 0.00, 0.96, 0.53, 1.42, -179.91, 0.27, 54.95, 30.31, 81.47, -0.00, -0.12, 0.00, -0.00, 0.00, 0.00, -2.79, -3.98, 0.00, -0.00
10.793760299682617, -3.14, 0.00, 0.96, 0.53, 1.42, -179.91, 0.24, 54.95, 30.31, 81.47, -0.00, -0.11, 0.00, -0.00, 0.00, 0.00, -3.00, -4.08, 0.00, -0.00
10.834732294082642, -3.14, 0.00, 0.96, 0.53, 1.42, -179.91, 0.22, 54.95, 30.31, 81.47, -0.00, -0.10, 0.00, -0.00, 0.00, 0.00, -3.19, -4.16, 0.00, -0.00
10.870668649673462, -3.14, 0.00, 0.96, 0.53, 1.42, -179.91, 0.20, 54.95, 30.31, 81.47, -0.00, -0.09, 0.00, -0.00, 0.00, 0.00, -3.37, -4.24, 0.00, -0.00
10.908668994903564, -3.14, 0.00, 0.96, 0.53, 1.42, -179.91, 0.18, 54.95, 30.31, 81.47, -0.00, -0.08, -0.00, 0.00, 0.00, 0.00, -3.53, -4.31, 0.00, -0.00
10.944671392440796, -3.14, 0.00, 0.96, 0.53, 1.42, -179.91, 0.16, 54.95, 30.31, 81.47, -0.00, -0.07, -0.00, 0.00, 0.00, 0.00, -3.66, -4.36, 0.00, -0.00
10.98166799545288, -3.14, 0.00, 0.96, 0.53, 1.42, -179.91, 0.14, 54.95, 30.31, 81.47, -0.00, -0.07, -0.00, 0.00, 0.00, 0.00, -3.78, -4.42, 0.00, -0.00
11.020668029785156, -3.14, 0.00, 0.96, 0.53, 1.42, -179.91, 0.13, 54.95, 30.31, 81.47, -0.00, -0.06, 0.00, -0.00, 0.00, 0.00, -3.90, -4.47, 0.00, -0.00
11.066670656204224, -3.14, 0.00, 0.96, 0.53, 1.42, -179.91, 0.12, 54.95, 30.31, 81.47, -0.00, -0.05, 0.00, -0.00, 0.00, 0.00, -4.00, -4.51, 0.00, -0.00
11.112670421600342, -3.14, 0.00, 0.96, 0.53, 1.42, -179.91, 0.10, 54.95, 30.31, 81.47, -0.00, -0.05, 0.00, -0.00, 0.00, 0.00, -4.09, -4.55, 0.00, -0.00
11.153669357299805, -3.14, 0.00, 0.96, 0.53, 1.42, -179.91, 0.09, 54.95, 30.31, 81.47, -0.00, -0.04, 0.00, -0.00, 0.00, 0.00, -4.17, -4.59, 0.00, -0.00
11.199670314788818, -3.14, 0.00, 0.96, 0.53, 1.42, -179.91, 0.08, 54.95, 30.31, 81.47, -0.00, -0.04, 0.00, -0.00, 0.00, 0.00, -4.25, -4.62, 0.00, -0.00
11.240668296813965, -3.14, 0.00, 0.96, 0.53, 1.42, -179.91, 0.08, 54.95, 30.31, 81.47, -0.00, -0.04, 0.00, -0.00, 0.00, 0.00, -4.31, -4.65, 0.00, -0.00
11.286667108535767, -3.14, 0.00, 0.96, 0.53, 1.42, -179.91, 0.07, 54.95, 30.31, 81.47, -0.00, -0.03, 0.00, -0.00, 0.00, 0.00, -4.37, -4.68, 0.00, -0.00
11.325668811798096, -3.14, 0.00, 0.96, 0.53, 1.42, -179.91, 0.06, 54.95, 30.31, 81.47, -0.00, -0.03, 0.00, -0.00, 0.00, 0.00, -4.43, -4.70, 0.00, -0.00
11.36466932296753, -3.14, 0.00, 0.96, 0.53, 1.42, -179.91, 0.06, 54.95, 30.31, 81.47, -0.00, -0.03, 0.00, -0.00, 0.00, 0.00, -4.48, -4.72, 0.00, -0.00
11.40366792678833, -3.14, 0.00, 0.96, 0.53, 1.42, -179.91, 0.05, 54.95, 30.31, 81.47, -0.00, -0.02, 0.00, -0.00, 0.00, 0.00, -4.52, -4.74, 0.00, -0.00
11.44566798210144, -3.14, 0.00, 0.96, 0.53, 1.42, -179.91, 0.04, 54.95, 30.31, 81.47, -0.00, -0.02, 0.00, -0.00, 0.00, 0.00, -4.56, -4.76, 0.00, -0.00
11.486669301986694, -3.14, 0.00, 0.96, 0.53, 1.42, -179.91, 0.04, 54.95, 30.31, 81.47, -0.00, -0.02, 0.00, -0.00, 0.00, 0.00, -4.59, -4.77, 0.00, -0.00
11.525669813156128, -3.14, 0.00, 0.96, 0.53, 1.42, -179.91, 0.04, 54.95, 30.31, 81.47, -0.00, -0.02, 0.00, -0.00, 0.00, 0.00, -4.63, -4.79, 0.00, -0.00
11.56466817855835, -3.14, 0.00, 0.96, 0.53, 1.42, -179.91, 0.03, 54.95, 30.31, 81.47, -0.00, -0.02, 0.00, -0.00, 0.00, 0.00, -4.65, -4.80, 0.00, 0.00
11.600966453552246, -3.14, 0.00, 0.96, 0.53, 1.42, -179.91, 0.03, 54.95, 30.31, 81.47, -0.00, -0.01, 0.00, -0.00, 0.00, 0.00, -4.68, -4.81, 0.00, 0.00
11.638408899307251, -3.14, 0.00, 0.96, 0.53, 1.42, -179.91, 0.03, 54.95, 30.31, 81.47, -0.00, -0.01, 0.00, -0.00, 0.00, -0.00, -4.70, -4.82, 0.00, 0.00
11.675038814544678, -3.14, 0.00, 0.96, 0.53, 1.42, -179.91, 0.02, 54.95, 30.31, 81.47, -0.00, -0.01, 0.00, -0.00, 0.00, 0.00, -4.72, -4.83, 0.00, 0.00
11.710688829421997, -3.14, 0.00, 0.96, 0.53, 1.42, -179.91, 0.02, 54.95, 30.31, 81.47, -0.00, -0.01, 0.00, -0.00, 0.00, 0.00, -4.74, -4.84, 0.00, 0.00
11.749511003494263, -3.14, 0.00, 0.96, 0.53, 1.42, -179.91, 0.02, 54.95, 30.31, 81.47, -0.00, -0.01, 0.00, -0.00, 0.00, -0.00, -4.76, -4.85, 0.00, 0.00
11.783645868301392, -3.14, 0.00, 0.96, 0.53, 1.42, -179.91, 0.02, 54.95, 30.31, 81.47, -0.00, -0.01, 0.00, -0.00, 0.00, -0.00, -4.77, -4.85, 0.00, 0.00
11.820778131484985, -3.14, 0.00, 0.96, 0.53, 1.42, -179.91, 0.02, 54.95, 30.31, 81.47, -0.00, -0.01, 0.00, -0.00, 0.00, -0.00, -4.79, -4.86, 0.00, 0.00
11.85738229751587, -3.14, 0.00, 0.96, 0.53, 1.42, -179.91, 0.01, 54.95, 30.31, 81.47, -0.00, -0.01, 0.00, -0.00, 0.00, -0.00, -4.80, -4.86, 0.00, 0.00
11.895828008651733, -3.14, 0.00, 0.96, 0.53, 1.42, -179.91, 0.01, 54.95, 30.31, 81.47, -0.00, -0.01, 0.00, -0.00, 0.00, -0.00, -4.81, -4.87, 0.00, 0.00
11.931501626968384, -3.14, 0.00, 0.96, 0.53, 1.42, -179.91, 0.01, 54.95, 30.31, 81.47, -0.00, -0.01, 0.00, -0.00, 0.00, -0.00, -4.82, -4.87, 0.00, 0.00
11.970316886901855, -3.14, 0.00, 0.96, 0.53, 1.42, -179.91, 0.01, 54.95, 30.31, 81.47, -0.00, -0.00, 0.00, -0.00, 0.00, -0.00, -4.83, -4.88, 0.00, 0.00
12.018598318099976, -3.14, 0.00, 0.96, 0.53, 1.42, -179.91, 0.01, 54.95, 30.31, 81.47, -0.00, -0.00, 0.00, -0.00, 0.00, -0.00, -4.84, -4.88, 0.00, 0.00
12.062597036361694, -3.14, 0.00, 0.96, 0.53, 1.42, -179.91, 0.01, 54.95, 30.31, 81.47, -0.00, -0.00, 0.00, -0.00, 0.00, -0.00, -4.85, -4.88, 0.00, 0.00
12.099596977233887, -3.14, 0.00, 0.96, 0.53, 1.42, -179.91, 0.01, 54.95, 30.31, 81.47, -0.00, -0.00, 0.00, -0.00, 0.00, -0.00, -4.85, -4.89, 0.00, 0.00
12.134543895721436, -3.14, 0.00, 0.96, 0.53, 1.42, -179.91, 0.01, 54.95, 30.31, 81.47, -0.00, -0.00, 0.00, -0.00, 0.00, -0.00, -4.86, -4.89, 0.00, 0.00
12.17278265953064, -3.14, 0.00, 0.96, 0.53, 1.42, -179.91, 0.01, 54.95, 30.31, 81.47, -0.00, -0.00, 0.00, -0.00, 0.00, -0.00, -4.86, -4.89, 0.00, 0.00
12.209101915359497, -3.14, 0.00, 0.96, 0.53, 1.42, -179.91, 0.01, 54.95, 30.31, 81.47, -0.00, -0.00, 0.00, -0.00, 0.00, -0.00, -4.87, -4.89, 0.00, 0.00
12.246536254882812, -3.14, 0.00, 0.96, 0.53, 1.42, -179.91, 0.00, 54.95, 30.31, 81.47, -0.00, -0.00, 0.00, -0.00, 0.00, -0.00, -4.87, -4.89, 0.00, 0.00
12.284457683563232, -3.14, 0.00, 0.96, 0.53, 1.42, -179.91, 0.00, 54.95, 30.31, 81.47, -0.00, -0.00, 0.00, -0.00, 0.00, -0.00, -4.88, -4.90, 0.00, 0.00
12.324459314346313, -3.14, 0.00, 0.96, 0.53, 1.42, -179.91, 0.00, 54.95, 30.31, 81.47, -0.00, -0.00, 0.00, -0.00, 0.00, -0.00, -4.88, -4.90, 0.00, 0.00
12.364458799362183, -3.14, 0.00, 0.96, 0.53, 1.42, -179.91, 0.00, 54.95, 30.31, 81.47, -0.00, -0.00, 0.00, -0.00, 0.00, -0.00, -4.88, -4.90, 0.00, 0.00
12.403459072113037, -3.14, 0.00, 0.96, 0.53, 1.42, -179.91, 0.00, 54.95, 30.31, 81.47, -0.00, -0.00, 0.00, -0.00, 0.00, -0.00, -4.89, -4.90, 0.00, 0.00
12.44245982170105, -3.14, 0.00, 0.96, 0.53, 1.42, -179.91, 0.00, 54.95, 30.31, 81.47, -0.00, -0.00, 0.00, -0.00, 0.00, -0.00, -4.89, -4.90, 0.00, 0.00
12.482459545135498, -3.14, 0.00, 0.96, 0.53, 1.42, -179.91, 0.00, 54.95, 30.31, 81.47, -0.00, -0.00, 0.00, -0.00, 0.00, -0.00, -4.89, -4.90, 0.00, 0.00
12.529459476470947, -3.14, 0.00, 0.96, 0.53, 1.42, -179.91, 0.00, 54.95, 30.31, 81.47, -0.00, -0.00, 0.00, -0.00, 0.00, -0.00, -4.89, -4.90, 0.00, 0.00
12.572460412979126, -3.14, 0.00, 0.96, 0.53, 1.42, -179.91, 0.00, 54.95, 30.31, 81.47, -0.00, -0.00, 0.00, -0.00, 0.00, -0.00, -4.90, -4.90, 0.00, 0.00
12.61245846748352, -3.14, 0.00, 0.96, 0.53, 1.42, -179.91, 0.00, 54.95, 30.31, 81.47, -0.00, -0.00, 0.00, -0.00, 0.00, -0.00, -4.90, -4.91, 0.00, 0.00
12.648459672927856, -3.14, 0.00, 0.96, 0.53, 1.42, -179.91, 0.00, 54.95, 30.31, 81.47, -0.00, -0.00, 0.00, -0.00, 0.00, -0.00, -4.90, -4.91, 0.00, 0.00
12.688458919525146, -3.14, 0.00, 0.96, 0.53, 1.42, -179.91, 0.00, 54.95, 30.31, 81.47, -0.00, -0.00, 0.00, -0.00, 0.00, -0.00, -4.90, -4.91, 0.00, 0.00
12.728459119796753, -3.14, 0.00, 0.96, 0.53, 1.42, -179.91, 0.00, 54.95, 30.31, 81.47, -0.00, -0.00, 0.00, -0.00, 0.00, -0.00, -4.90, -4.91, 0.00, 0.00
12.76545786857605, -3.14, 0.00, 0.96, 0.53, 1.42, -179.91, 0.00, 54.95, 30.31, 81.47, -0.00, -0.00, 0.00, -0.00, 0.00, -0.00, -4.90, -4.91, 0.00, 0.00
12.8024582862854, -3.14, 0.00, 0.96, 0.53, 1.42, -179.91, 0.00, 54.95, 30.31, 81.47, -0.00, -0.00, 0.00, -0.00, 0.00, -0.00, -4.90, -4.91, 0.00, 0.00
12.842459917068481, -3.14, 0.00, 0.96, 0.53, 1.42, -179.91, 0.00, 54.95, 30.31, 81.47, -0.00, -0.00, 0.00, -0.00, 0.00, -0.00, -4.90, -4.91, 0.00, 0.00
12.883458614349365, -3.14, 0.00, 0.96, 0.53, 1.42, -179.91, 0.00, 54.95, 30.31, 81.47, -0.00, -0.00, 0.00, -0.00, 0.00, -0.00, -4.90, -4.91, 0.00, 0.00
12.920459032058716, -3.14, 0.00, 0.96, 0.53, 1.42, -179.91, 0.00, 54.95, 30.31, 81.47, -0.00, -0.00, 0.00, -0.00, 0.00, -0.00, -4.91, -4.91, 0.00, 0.00
12.962046384811401, -3.14, 0.00, 0.96, 0.53, 1.42, -179.91, 0.00, 54.95, 30.31, 81.47, -0.00, -0.00, 0.00, -0.00, 0.00, -0.00, -4.91, -4.91, 0.00, 0.00
13.002125978469849, -3.14, 0.00, 0.96, 0.53, 1.42, -179.91, 0.00, 54.95, 30.31, 81.47, -0.00, -0.00, 0.00, -0.00, 0.00, -0.00, -4.91, -4.91, 0.00, 0.00
13.04220724105835, -3.14, 0.00, 0.96, 0.53, 1.42, -179.91, 0.00, 54.95, 30.31, 81.47, -0.00, -0.00, 0.00, -0.00, 0.00, -0.00, -4.91, -4.91, 0.00, 0.00
13.083460092544556, -3.14, 0.00, 0.96, 0.53, 1.42, -179.91, 0.00, 54.95, 30.31, 81.47, -0.00, -0.00, 0.00, -0.00, 0.00, -0.00, -4.91, -4.91, 0.00, 0.00
13.120690107345581, -3.14, 0.00, 0.96, 0.53, 1.42, -179.91, 0.00, 54.95, 30.31, 81.47, -0.00, -0.00, 0.00, -0.00, 0.00, -0.00, -4.91, -4.91, 0.00, 0.00
13.162627696990967, -3.14, 0.00, 0.96, 0.53, 1.42, -179.91, 0.00, 54.95, 30.31, 81.47, -0.00, -0.00, 0.00, -0.00, 0.00, -0.00, -4.91, -4.91, 0.00, 0.00
13.200294256210327, -3.14, 0.00, 0.96, 0.53, 1.42, -179.91, 0.00, 54.95, 30.31, 81.47, -0.00, -0.00, 0.00, -0.00, 0.00, -0.00, -4.91, -4.91, 0.00, 0.00
13.236940145492554, -3.14, 0.00, 0.96, 0.53, 1.42, -179.91, 0.00, 54.95, 30.31, 81.47, -0.00, -0.00, 0.00, -0.00, 0.00, -0.00, -4.91, -4.91, 0.00, 0.00
13.277289867401123, -3.14, 0.00, 0.96, 0.53, 1.42, -179.91, 0.00, 54.95, 30.31, 81.47, -0.00, -0.00, 0.00, -0.00, 0.00, -0.00, -4.91, -4.91, 0.00, 0.00
13.31863284111023, -3.14, 0.00, 0.96, 0.53, 1.42, -179.91, 0.00, 54.95, 30.31, 81.47, -0.00, -0.00, 0.00, -0.00, 0.00, -0.00, -4.91, -4.91, 0.00, 0.00
13.359633922576904, -3.14, 0.00, 0.96, 0.53, 1.42, -179.91, 0.00, 54.95, 30.31, 81.47, -0.00, -0.00, 0.00, -0.00, 0.00, -0.00, -4.91, -4.91, 0.00, 0.00
13.398633003234863, -3.14, 0.00, 0.96, 0.53, 1.42, -179.91, 0.00, 54.95, 30.31, 81.47, -0.00, -0.00, 0.00, -0.00, 0.00, -0.00, -4.91, -4.91, 0.00, 0.00
13.436633825302124, -3.14, 0.00, 0.96, 0.53, 1.42, -179.91, 0.00, 54.95, 30.31, 81.47, -0.00, -0.00, 0.00, -0.00, 0.00, -0.00, -4.91, -4.91, 0.00, 0.00
13.47663426399231, -3.14, 0.00, 0.96, 0.53, 1.42, -179.91, 0.00, 54.95, 30.31, 81.47, -0.00, -0.00, 0.00, -0.00, 0.00, -0.00, -4.91, -4.91, 0.00, 0.00
13.51605224609375, -3.14, 0.00, 0.96, 0.53, 1.42, -179.91, 0.00, 54.95, 30.31, 81.47, -0.00, -0.00, 0.00, -0.00, 0.00, -0.00, -4.91, -4.91, 0.00, 0.00
13.560842275619507, -3.14, 0.00, 0.96, 0.53, 1.42, -179.91, 0.00, 54.95, 30.31, 81.47, -0.00, -0.00, 0.00, -0.00, 0.00, -0.00, -4.91, -4.91, 0.00, 0.00
13.60237741470337, -3.14, 0.00, 0.96, 0.53, 1.42, -179.91, 0.00, 54.95, 30.31, 81.47, -0.00, -0.00, 0.00, -0.00, 0.00, -0.00, -4.91, -4.91, 0.00, 0.00
13.637902021408081, -3.14, 0.00, 0.96, 0.53, 1.42, -179.91, 0.00, 54.95, 30.31, 81.47, -0.00, -0.00, 0.00, -0.00, 0.00, -0.00, -4.91, -4.91, 0.00, 0.00
13.674896001815796, -3.14, 0.00, 0.96, 0.53, 1.42, -179.91, 0.00, 54.95, 30.31, 81.47, -0.00, -0.00, 0.00, -0.00, 0.00, -0.00, -4.91, -4.91, 0.00, 0.00
13.712900400161743, -3.14, 0.00, 0.96, 0.53, 1.42, -179.91, 0.00, 54.95, 30.31, 81.47, -0.00, -0.00, 0.00, -0.00, 0.00, -0.00, -4.91, -4.91, 0.00, 0.00
13.753895998001099, -3.14, 0.00, 0.96, 0.53, 1.42, -179.91, 0.00, 54.95, 30.31, 81.47, -0.00, -0.00, 0.00, -0.00, 0.00, -0.00, -4.91, -4.91, 0.00, 0.00
13.794896841049194, -3.14, 0.00, 0.96, 0.53, 1.42, -179.91, 0.00, 54.95, 30.31, 81.47, -0.00, -0.00, 0.00, -0.00, 0.00, -0.00, -4.91, -4.91, 0.00, 0.00
13.830896854400635, -3.14, 0.00, 0.96, 0.53, 1.42, -179.91, 0.00, 54.95, 30.31, 81.47, -0.00, -0.00, 0.00, -0.00, 0.00, -0.00, -4.91, -4.91, 0.00, 0.00
13.869897365570068, -3.14, 0.00, 0.96, 0.53, 1.42, -179.91, 0.00, 54.95, 30.31, 81.47, -0.00, -0.00, 0.00, -0.00, 0.00, -0.00, -4.91, -4.91, 0.00, 0.00
13.910897016525269, -3.14, 0.00, 0.96, 0.53, 1.42, -179.91, 0.00, 54.95, 30.31, 81.47, -0.00, -0.00, 0.00, -0.00, 0.00, -0.00, -4.91, -4.91, 0.00, 0.00
13.950897932052612, -3.14, 0.00, 0.96, 0.53, 1.42, -179.91, 0.00, 54.95, 30.31, 81.47, -0.00, -0.00, 0.00, -0.00, 0.00, -0.00, -4.91, -4.91, 0.00, 0.00
13.987895250320435, -3.14, 0.00, 0.96, 0.53, 1.42, -179.91, 0.00, 54.95, 30.31, 81.47, -0.00, -0.00, 0.00, -0.00, 0.00, -0.00, -4.91, -4.91, 0.00, 0.00
14.025898456573486, -3.14, 0.00, 0.96, 0.53, 1.42, -179.91, 0.00, 54.95, 30.31, 81.47, -0.00, -0.00, 0.00, -0.00, 0.00, -0.00, -4.91, -4.91, 0.00, 0.00
14.065898418426514, -3.14, 0.00, 0.96, 0.53, 1.42, -179.91, 0.00, 54.95, 30.31, 81.47, -0.00, -0.00, 0.00, -0.00, 0.00, -0.00, -4.91, -4.91, 0.00, 0.00
14.102872133255005, -3.14, 0.00, 0.96, 0.53, 1.42, -179.91, 0.00, 54.95, 30.31, 81.47, -0.00, -0.00, 0.00, -0.00, 0.00, -0.00, -4.91, -4.91, 0.00, 0.00
14.14353609085083, -3.14, 0.00, 0.96, 0.53, 1.42, -179.91, 0.00, 54.95, 30.31, 81.47, -0.00, -0.00, 0.00, -0.00, 0.00, -0.00, -4.91, -4.91, 0.00, 0.00
14.184911489486694, -3.14, 0.00, 0.96, 0.53, 1.42, -179.91, 0.00, 54.95, 30.31, 81.47, -0.00, -0.00, 0.00, -0.00, 0.00, -0.00, -4.91, -4.91, 0.00, 0.00
14.224171161651611, -3.14, 0.00, 0.96, 0.53, 1.42, -179.91, 0.00, 54.95, 30.31, 81.47, -0.00, -0.00, 0.00, -0.00, 0.00, -0.00, -4.91, -4.91, 0.00, 0.00
14.262635707855225, -3.14, 0.00, 0.96, 0.53, 1.42, -179.91, 0.00, 54.95, 30.31, 81.47, -0.00, -0.00, 0.00, -0.00, 0.00, -0.00, -4.91, -4.91, 0.00, 0.00
14.328469514846802, -3.14, 0.00, 0.96, 0.53, 1.42, -179.91, 0.00, 54.95, 30.31, 81.47, -0.00, -0.00, 0.00, -0.00, 0.00, -0.00, -4.91, -4.91, 0.00, 0.00
14.372469186782837, -3.14, 0.00, 0.96, 0.53, 1.42, -179.91, 0.00, 54.95, 30.31, 81.47, -0.00, -0.00, 0.00, -0.00, 0.00, -0.00, -4.91, -4.91, 0.00, 0.00
14.407468795776367, -3.14, 0.00, 0.96, 0.53, 1.42, -179.91, 0.00, 54.95, 30.31, 81.47, -0.00, -0.00, 0.00, -0.00, 0.00, -0.00, -4.91, -4.91, 0.00, 0.00
14.447468996047974, -3.14, 0.00, 0.96, 0.53, 1.42, -179.91, 0.00, 54.95, 30.31, 81.47, -0.00, -0.00, 0.00, -0.00, 0.00, -0.00, -4.91, -4.91, 0.00, 0.00
14.482467651367188, -3.14, 0.00, 0.96, 0.53, 1.42, -179.91, 0.00, 54.95, 30.31, 81.47, -0.00, -0.00, 0.00, -0.00, 0.00, -0.00, -4.91, -4.91, 0.00, 0.00
14.520471334457397, -3.14, 0.00, 0.96, 0.53, 1.42, -179.91, 0.00, 54.95, 30.31, 81.47, -0.00, -0.00, 0.00, -0.00, 0.00, -0.00, -4.91, -4.91, 0.00, 0.00
14.561469078063965, -3.14, 0.00, 0.96, 0.53, 1.42, -179.91, 0.00, 54.95, 30.31, 81.47, -0.00, -0.00, 0.00, -0.00, 0.00, -0.00, -4.91, -4.91, 0.00, 0.00
14.605469703674316, -3.14, 0.00, 0.96, 0.53, 1.42, -179.91, 0.00, 54.95, 30.31, 81.47, -0.00, -0.00, 0.00, -0.00, 0.00, -0.00, -4.91, -4.91, 0.00, 0.00
14.6464684009552, -3.14, 0.00, 0.96, 0.53, 1.42, -179.91, 0.00, 54.95, 30.31, 81.47, -0.00, -0.00, 0.00, -0.00, 0.00, -0.00, -4.91, -4.91, 0.00, 0.00
14.692010164260864, -3.14, 0.00, 0.96, 0.53, 1.42, -179.91, 0.00, 54.95, 30.31, 81.47, -0.00, -0.00, 0.00, -0.00, 0.00, -0.00, -4.91, -4.91, 0.00, 0.00
14.732011318206787, -3.14, 0.00, 0.96, 0.53, 1.42, -179.91, 0.00, 54.95, 30.31, 81.47, -0.00, -0.00, 0.00, -0.00, 0.00, -0.00, -4.91, -4.91, 0.00, 0.00
14.778010606765747, -3.14, 0.00, 0.96, 0.53, 1.42, -179.91, 0.00, 54.95, 30.31, 81.47, -0.00, -0.00, 0.00, -0.00, 0.00, -0.00, -4.91, -4.91, 0.00, 0.00
14.81659722328186, -3.14, 0.00, 0.96, 0.53, 1.42, -179.91, 0.00, 54.95, 30.31, 81.47, -0.00, -0.00, 0.00, -0.00, 0.00, -0.00, -4.91, -4.91, 0.00, 0.00
14.856593370437622, -3.14, 0.00, 0.96, 0.53, 1.42, -179.91, 0.00, 54.95, 30.31, 81.47, -0.00, -0.00, 0.00, -0.00, 0.00, -0.00, -4.91, -4.91, 0.00, 0.00
14.900594711303711, -3.14, 0.00, 0.96, 0.53, 1.42, -179.91, 0.00, 54.95, 30.31, 81.47, -0.00, -0.00, 0.00, -0.00, 0.00, -0.00, -4.91, -4.91, 0.00, 0.00
14.944112539291382, -3.14, 0.00, 0.96, 0.53, 1.42, -179.91, 0.00, 54.95, 30.31, 81.47, -0.00, -0.00, 0.00, -0.00, 0.00, -0.00, -4.91, -4.91, 0.00, 0.00
14.987110376358032, -3.14, 0.00, 0.96, 0.53, 1.42, -179.91, 0.00, 54.95, 30.31, 81.47, -0.00, -0.00, 0.00, -0.00, 0.00, -0.00, -4.91, -4.91, 0.00, 0.00
15.027111053466797, -3.14, 0.00, 0.96, 0.53, 1.42, -179.91, 0.00, 54.95, 30.31, 81.47, -0.00, -0.00, 0.00, -0.00, 0.00, -0.00, -4.91, -4.91, 0.00, 0.00
15.071112394332886, -3.14, 0.00, 0.96, 0.53, 1.42, -179.91, 0.00, 54.95, 30.31, 81.47, -0.00, -0.00, 0.00, -0.00, 0.00, -0.00, -4.91, -4.91, 0.00, 0.00
15.10911226272583, -3.14, 0.00, 0.96, 0.53, 1.42, -179.91, 0.00, 54.95, 30.31, 81.47, -0.00, -0.00, 0.00, -0.00, 0.00, -0.00, -4.91, -4.91, 0.00, 0.00
15.145112991333008, -3.14, 0.00, 0.96, 0.53, 1.42, -179.91, 0.00, 54.95, 30.31, 81.47, -0.00, -0.00, 0.00, -0.00, 0.00, -0.00, -4.91, -4.91, 0.00, 0.00
15.182110071182251, -3.14, 0.00, 0.96, 0.53, 1.42, -179.91, 0.00, 54.95, 30.31, 81.47, -0.00, -0.00, 0.00, -0.00, 0.00, -0.00, -4.91, -4.91, 0.00, 0.00
15.222112894058228, -3.14, 0.00, 0.96, 0.53, 1.42, -179.91, 0.00, 54.95, 30.31, 81.47, -0.00, -0.00, 0.00, -0.00, 0.00, -0.00, -4.91, -4.91, 0.00, 0.00
15.259111881256104, -3.14, 0.00, 0.96, 0.53, 1.42, -179.91, 0.00, 54.95, 30.31, 81.47, -0.00, -0.00, 0.00, -0.00, 0.00, -0.00, -4.91, -4.91, 0.00, 0.00
15.301111698150635, -3.14, 0.00, 0.96, 0.53, 1.42, -179.91, 0.00, 54.95, 30.31, 81.47, -0.00, -0.00, 0.00, -0.00, 0.00, -0.00, -4.91, -4.91, 0.00, 0.00
15.343629121780396, -3.14, 0.00, 0.96, 0.53, 1.42, -179.91, 0.00, 54.95, 30.31, 81.47, -0.00, -0.00, 0.00, -0.00, 0.00, -0.00, -4.91, -4.91, 0.00, 0.00
15.386175632476807, -3.14, 0.00, 0.96, 0.53, 1.42, -179.91, 0.00, 54.95, 30.31, 81.47, -0.00, -0.00, 0.00, -0.00, 0.00, -0.00, -4.91, -4.91, 0.00, 0.00
15.426177501678467, -3.14, 0.00, 0.96, 0.53, 1.42, -179.91, 0.00, 54.95, 30.31, 81.47, -0.00, -0.00, 0.00, -0.00, 0.00, -0.00, -4.91, -4.91, 0.00, 0.00
15.470176219940186, -3.14, 0.00, 0.96, 0.53, 1.42, -179.91, 0.00, 54.95, 30.31, 81.47, -0.00, -0.00, 0.00, -0.00, 0.00, -0.00, -4.91, -4.91, 0.00, 0.00
15.512176275253296, -3.14, 0.00, 0.96, 0.53, 1.42, -179.91, 0.00, 54.95, 30.31, 81.47, -0.00, -0.00, 0.00, -0.00, 0.00, -0.00, -4.91, -4.91, 0.00, 0.00
15.554175615310669, -3.14, 0.00, 0.96, 0.53, 1.42, -179.91, 0.00, 54.95, 30.31, 81.47, -0.00, -0.00, 0.00, -0.00, 0.00, -0.00, -4.91, -4.91, 0.00, 0.00
15.596174716949463, -3.14, 0.00, 0.96, 0.53, 1.42, -179.91, 0.00, 54.95, 30.31, 81.47, -0.00, -0.00, 0.00, -0.00, 0.00, -0.00, -4.91, -4.91, 0.00, 0.00
15.638174772262573, -3.14, 0.00, 0.96, 0.53, 1.42, -179.91, 0.00, 54.95, 30.31, 81.47, -0.00, -0.00, 0.00, -0.00, 0.00, -0.00, -4.91, -4.91, 0.00, 0.00
15.679175615310669, -3.14, 0.00, 0.96, 0.53, 1.42, -179.91, 0.00, 54.95, 30.31, 81.47, -0.00, -0.00, 0.00, -0.00, 0.00, -0.00, -4.91, -4.91, 0.00, 0.00
15.716176986694336, -3.14, 0.00, 0.96, 0.53, 1.42, -179.91, 0.00, 54.95, 30.31, 81.47, -0.00, -0.00, 0.00, -0.00, 0.00, -0.00, -4.91, -4.91, 0.00, 0.00
15.75511884689331, -3.14, 0.00, 0.96, 0.53, 1.42, -179.91, 0.00, 54.95, 30.31, 81.47, -0.00, -0.00, 0.00, -0.00, 0.00, -0.00, -4.91, -4.91, 0.00, 0.00
15.79504656791687, -3.14, 0.00, 0.96, 0.53, 1.42, -179.91, 0.00, 54.95, 30.31, 81.47, -0.00, -0.00, 0.00, -0.00, 0.00, -0.00, -4.91, -4.91, 0.00, 0.00
15.831861019134521, -3.14, 0.00, 0.96, 0.53, 1.42, -179.91, 0.00, 54.95, 30.31, 81.47, -0.00, -0.00, 0.00, -0.00, 0.00, -0.00, -4.91, -4.91, 0.00, 0.00
15.872091054916382, -3.14, 0.00, 0.96, 0.53, 1.42, -179.91, 0.00, 54.95, 30.31, 81.47, -0.00, -0.00, 0.00, -0.00, 0.00, -0.00, -4.91, -4.91, 0.00, 0.00
15.908531904220581, -3.14, 0.00, 0.96, 0.53, 1.42, -179.91, 0.00, 54.95, 30.31, 81.47, -0.00, -0.00, 0.00, -0.00, 0.00, -0.00, -4.91, -4.91, 0.00, 0.00
15.94778823852539, -3.14, 0.00, 0.96, 0.53, 1.42, -179.91, 0.00, 54.95, 30.31, 81.47, -0.00, -0.00, 0.00, -0.00, 0.00, -0.00, -4.91, -4.91, 0.00, 0.00
15.991291522979736, -3.14, 0.00, 0.96, 0.53, 1.42, -179.91, 0.00, 54.95, 30.31, 81.47, -0.00, -0.00, 0.00, -0.00, 0.00, -0.00, -4.91, -4.91, 0.00, 0.00
16.033316612243652, -3.14, 0.00, 0.96, 0.53, 1.42, -179.91, 0.00, 54.95, 30.31, 81.47, -0.00, -0.00, 0.00, -0.00, 0.00, -0.00, -4.91, -4.91, 0.00, 0.00
16.074288845062256, -3.14, 0.00, 0.96, 0.53, 1.42, -179.91, 0.00, 54.95, 30.31, 81.47, -0.00, -0.00, 0.00, -0.00, 0.00, -0.00, -4.91, -4.91, 0.00, 0.00
16.11254572868347, -3.14, 0.00, 0.96, 0.53, 1.42, -179.91, 0.00, 54.95, 30.31, 81.47, -0.00, -0.00, 0.00, -0.00, 0.00, -0.00, -4.91, -4.91, 0.00, 0.00
16.151562929153442, -3.14, 0.00, 0.96, 0.53, 1.42, -179.91, 0.00, 54.95, 30.31, 81.47, -0.00, -0.00, 0.00, -0.00, 0.00, -0.00, -4.91, -4.91, 0.00, 0.00
16.190184831619263, -3.14, 0.00, 0.96, 0.53, 1.42, -179.91, 0.00, 54.95, 30.31, 81.47, -0.00, -0.00, 0.00, -0.00, 0.00, -0.00, -4.91, -4.91, 0.00, 0.00
16.23033833503723, -3.14, 0.00, 0.96, 0.53, 1.42, -179.91, 0.00, 54.95, 30.31, 81.47, -0.00, -0.00, 0.00, -0.00, 0.00, -0.00, -4.91, -4.91, 0.00, 0.00
16.276559829711914, -3.14, 0.00, 0.96, 0.53, 1.42, -179.91, 0.00, 54.95, 30.31, 81.47, -0.00, -0.00, 0.00, -0.00, 0.00, -0.00, -4.91, -4.91, 0.00, 0.00
16.31391668319702, -3.14, 0.00, 0.96, 0.53, 1.42, -179.91, 0.00, 54.95, 30.31, 81.47, -0.00, -0.00, 0.00, -0.00, 0.00, -0.00, -4.91, -4.91, 0.00, 0.00
16.353085041046143, -3.14, 0.00, 0.96, 0.53, 1.42, -179.91, 0.00, 54.95, 30.31, 81.47, -0.00, -0.00, 0.00, -0.00, 0.00, -0.00, -4.91, -4.91, 0.00, 0.00
16.39278483390808, -3.14, 0.00, 0.96, 0.53, 1.42, -179.91, 0.00, 54.95, 30.31, 81.47, -0.00, -0.00, 0.00, -0.00, 0.00, -0.00, -4.91, -4.91, 0.00, 0.00
16.433606386184692, -3.14, 0.00, 0.96, 0.53, 1.42, -179.91, 0.00, 54.95, 30.31, 81.47, -0.00, -0.00, 0.00, -0.00, 0.00, -0.00, -4.91, -4.91, 0.00, 0.00
16.471277952194214, -3.14, 0.00, 0.96, 0.53, 1.42, -179.91, 0.00, 54.95, 30.31, 81.47, -0.00, -0.00, 0.00, -0.00, 0.00, -0.00, -4.91, -4.91, 0.00, 0.00
16.507765293121338, -3.14, 0.00, 0.96, 0.53, 1.42, -179.91, 0.00, 54.95, 30.31, 81.47, -0.00, -0.00, 0.00, -0.00, 0.00, -0.00, -4.91, -4.91, 0.00, 0.00
16.546376943588257, -3.14, 0.00, 0.96, 0.53, 1.42, -179.91, 0.00, 54.95, 30.31, 81.47, -0.00, -0.00, 0.00, -0.00, 0.00, -0.00, -4.91, -4.91, 0.00, 0.00
16.580315589904785, -3.14, 0.00, 0.96, 0.53, 1.42, -179.91, 0.00, 54.95, 30.31, 81.47, -0.00, -0.00, 0.00, -0.00, 0.00, -0.00, -4.91, -4.91, 0.00, 0.00
16.617316722869873, -3.14, 0.00, 0.96, 0.53, 1.42, -179.91, 0.00, 54.95, 30.31, 81.47, -0.00, -0.00, 0.00, -0.00, 0.00, -0.00, -4.91, -4.91, 0.00, 0.00
16.654315948486328, -3.14, 0.00, 0.96, 0.53, 1.42, -179.91, 0.00, 54.95, 30.31, 81.47, -0.00, -0.00, 0.00, -0.00, 0.00, -0.00, -4.91, -4.91, 0.00, 0.00
16.696317434310913, -3.14, 0.00, 0.96, 0.53, 1.42, -179.91, 0.00, 54.95, 30.31, 81.47, -0.00, -0.00, 0.00, -0.00, 0.00, -0.00, -4.91, -4.91, 0.00, 0.00
16.73231530189514, -3.14, 0.00, 0.96, 0.53, 1.42, -179.91, 0.00, 54.95, 30.31, 81.47, -0.00, -0.00, 0.00, -0.00, 0.00, -0.00, -4.91, -4.91, 0.00, 0.00
16.771318912506104, -3.14, 0.00, 0.96, 0.53, 1.42, -179.91, 0.00, 54.95, 30.31, 81.47, -0.00, -0.00, 0.00, -0.00, 0.00, -0.00, -4.91, -4.91, 0.00, 0.00
16.81531572341919, -3.14, 0.00, 0.96, 0.53, 1.42, -179.91, 0.00, 54.95, 30.31, 81.47, -0.00, -0.00, 0.00, -0.00, 0.00, -0.00, -4.91, -4.91, 0.00, 0.00
16.867316722869873, -3.14, 0.00, 0.96, 0.53, 1.42, -179.91, 0.00, 54.95, 30.31, 81.47, -0.00, -0.00, 0.00, -0.00, 0.00, -0.00, -4.91, -4.91, 0.00, 0.00
16.9073166847229, -3.14, 0.00, 0.96, 0.53, 1.42, -179.91, 0.00, 54.95, 30.31, 81.47, -0.00, -0.00, 0.00, -0.00, 0.00, -0.00, -4.91, -4.91, 0.00, 0.00
16.94731593132019, -3.14, 0.00, 0.96, 0.53, 1.42, -179.91, 0.00, 54.95, 30.31, 81.47, -0.00, -0.00, 0.00, -0.00, 0.00, -0.00, -4.91, -4.91, 0.00, 0.00
16.985316038131714, -3.14, 0.00, 0.96, 0.53, 1.42, -179.91, 0.00, 54.95, 30.31, 81.47, -0.00, -0.00, 0.00, -0.00, 0.00, -0.00, -4.91, -4.91, 0.00, 0.00
17.022316694259644, -3.14, 0.00, 0.96, 0.53, 1.42, -179.91, 0.00, 54.95, 30.31, 81.47, -0.00, -0.00, 0.00, -0.00, 0.00, -0.00, -4.91, -4.91, 0.00, 0.00
17.05931544303894, -3.14, 0.00, 0.96, 0.53, 1.42, -179.91, 0.00, 54.95, 30.31, 81.47, -0.00, -0.00, 0.00, -0.00, 0.00, -0.00, -4.91, -4.91, 0.00, 0.00
17.098512411117554, -3.14, 0.00, 0.96, 0.53, 1.42, -179.91, 0.00, 54.95, 30.31, 81.47, -0.00, -0.00, 0.00, -0.00, 0.00, -0.00, -4.91, -4.91, 0.00, 0.00
17.1368670463562, -3.14, 0.00, 0.96, 0.53, 1.42, -179.91, 0.00, 54.95, 30.31, 81.47, -0.00, -0.00, 0.00, -0.00, 0.00, -0.00, -4.91, -4.91, 0.00, 0.00
17.186814308166504, -3.14, 0.00, 0.96, 0.53, 1.42, -179.91, 0.00, 54.95, 30.31, 81.47, -0.00, -0.00, 0.00, -0.00, 0.00, -0.00, -4.91, -4.91, 0.00, 0.00
17.227845668792725, -3.14, 0.00, 0.96, 0.53, 1.42, -179.91, 0.00, 54.95, 30.31, 81.47, -0.00, -0.00, 0.00, -0.00, 0.00, -0.00, -4.91, -4.91, 0.00, 0.00
17.268845319747925, -3.14, 0.00, 0.96, 0.53, 1.42, -179.91, 0.00, 54.95, 30.31, 81.47, -0.00, -0.00, 0.00, -0.00, 0.00, -0.00, -4.91, -4.91, 0.00, 0.00
17.304363250732422, -3.14, 0.00, 0.96, 0.53, 1.42, -179.91, 0.00, 54.95, 30.31, 81.47, -0.00, -0.00, 0.00, -0.00, 0.00, -0.00, -4.91, -4.91, 0.00, 0.00
17.34112548828125, -3.14, 0.00, 0.96, 0.53, 1.42, -179.91, 0.00, 54.95, 30.31, 81.47, -0.00, -0.00, 0.00, -0.00, 0.00, -0.00, -4.91, -4.91, 0.00, 0.00
17.379647493362427, -3.14, 0.00, 0.96, 0.53, 1.42, -179.91, 0.00, 54.95, 30.31, 81.47, -0.00, -0.00, 0.00, -0.00, 0.00, -0.00, -4.91, -4.91, 0.00, 0.00
17.415738582611084, -3.14, 0.00, 0.96, 0.53, 1.42, -179.91, 0.00, 54.95, 30.31, 81.47, -0.00, -0.00, 0.00, -0.00, 0.00, -0.00, -4.91, -4.91, 0.00, 0.00
17.454349279403687, -3.14, 0.00, 0.96, 0.53, 1.42, -179.91, 0.00, 54.95, 30.31, 81.47, -0.00, -0.00, 0.00, -0.00, 0.00, -0.00, -4.91, -4.91, 0.00, 0.00
17.494637489318848, -3.14, 0.00, 0.96, 0.53, 1.42, -179.91, 0.00, 54.95, 30.31, 81.47, -0.00, -0.00, 0.00, -0.00, 0.00, -0.00, -4.91, -4.91, 0.00, 0.00
17.53463864326477, -3.14, 0.00, 0.96, 0.53, 1.42, -179.91, 0.00, 54.95, 30.31, 81.47, -0.00, -0.00, 0.00, -0.00, 0.00, -0.00, -4.91, -4.91, 0.00, 0.00
17.574637413024902, -3.14, 0.00, 0.96, 0.53, 1.42, -179.91, 0.00, 54.95, 30.31, 81.47, -0.00, -0.00, 0.00, -0.00, 0.00, -0.00, -4.91, -4.91, 0.00, 0.00
17.611636877059937, -3.14, 0.00, 0.96, 0.53, 1.42, -179.91, 0.00, 54.95, 30.31, 81.47, -0.00, -0.00, 0.00, -0.00, 0.00, -0.00, -4.91, -4.91, 0.00, 0.00
17.652637720108032, -3.14, 0.00, 0.96, 0.53, 1.42, -179.91, 0.00, 54.95, 30.31, 81.47, -0.00, -0.00, 0.00, -0.00, 0.00, -0.00, -4.91, -4.91, 0.00, 0.00
17.694637298583984, -3.14, 0.00, 0.96, 0.53, 1.42, -179.91, 0.00, 54.95, 30.31, 81.47, -0.00, -0.00, 0.00, -0.00, 0.00, -0.00, -4.91, -4.91, 0.00, 0.00
17.734641313552856, -3.14, 0.00, 0.96, 0.53, 1.42, -179.91, 0.00, 54.95, 30.31, 81.47, -0.00, -0.00, 0.00, -0.00, 0.00, -0.00, -4.91, -4.91, 0.00, 0.00
17.76963758468628, -3.14, 0.00, 0.96, 0.53, 1.42, -179.91, 0.00, 54.95, 30.31, 81.47, -0.00, -0.00, 0.00, -0.00, 0.00, -0.00, -4.91, -4.91, 0.00, 0.00
17.80963969230652, -3.14, 0.00, 0.96, 0.53, 1.42, -179.91, 0.00, 54.95, 30.31, 81.47, -0.00, -0.00, 0.00, -0.00, 0.00, -0.00, -4.91, -4.91, 0.00, 0.00
17.84749436378479, -3.14, 0.00, 0.96, 0.53, 1.42, -179.91, 0.00, 54.95, 30.31, 81.47, -0.00, -0.00, 0.00, -0.00, 0.00, -0.00, -4.91, -4.91, 0.00, 0.00
17.884273767471313, -3.14, 0.00, 0.96, 0.53, 1.42, -179.91, 0.00, 54.95, 30.31, 81.47, -0.00, -0.00, 0.00, -0.00, 0.00, -0.00, -4.91, -4.91, 0.00, 0.00
17.92126202583313, -3.14, 0.00, 0.96, 0.53, 1.42, -179.91, 0.00, 54.95, 30.31, 81.47, -0.00, -0.00, 0.00, -0.00, 0.00, -0.00, -4.91, -4.91, 0.00, 0.00
17.95861530303955, -3.14, 0.00, 0.96, 0.53, 1.42, -179.91, 0.00, 54.95, 30.31, 81.47, -0.00, -0.00, 0.00, -0.00, 0.00, -0.00, -4.91, -4.91, 0.00, 0.00
17.995516777038574, -3.14, 0.00, 0.96, 0.53, 1.42, -179.91, 0.00, 54.95, 30.31, 81.47, -0.00, -0.00, 0.00, -0.00, 0.00, -0.00, -4.91, -4.91, 0.00, 0.00
18.033211946487427, -3.14, 0.00, 0.96, 0.53, 1.42, -179.91, 0.00, 54.95, 30.31, 81.47, -0.00, -0.00, 0.00, -0.00, 0.00, -0.00, -4.91, -4.91, 0.00, 0.00
18.0704665184021, -3.14, 0.00, 0.96, 0.53, 1.42, -179.91, 0.00, 54.95, 30.31, 81.47, -0.00, -0.00, 0.00, -0.00, 0.00, -0.00, -4.91, -4.91, 0.00, 0.00
18.112467050552368, -3.14, 0.00, 0.96, 0.53, 1.42, -179.91, 0.00, 54.95, 30.31, 81.47, -0.00, -0.00, 0.00, -0.00, 0.00, -0.00, -4.91, -4.91, 0.00, 0.00
18.15046763420105, -3.14, 0.00, 0.96, 0.53, 1.42, -179.91, 0.00, 54.95, 30.31, 81.47, -0.00, -0.00, 0.00, -0.00, 0.00, -0.00, -4.91, -4.91, 0.00, 0.00
18.19046688079834, -3.14, 0.00, 0.96, 0.53, 1.42, -179.91, 0.00, 54.95, 30.31, 81.47, -0.00, -0.00, 0.00, -0.00, 0.00, -0.00, -4.91, -4.91, 0.00, 0.00
18.23698353767395, -3.14, 0.00, 0.96, 0.53, 1.42, -179.91, 0.00, 54.76, 30.31, 81.47, -0.00, -0.00, -0.79, 0.00, 0.00, -0.00, -58.87, -39.19, -0.00, 0.00
18.275502681732178, -3.14, 0.00, 0.94, 0.53, 1.42, -179.91, 0.00, 53.92, 30.31, 81.47, -0.00, -0.00, -3.49, 0.00, 0.00, 0.00, -188.85, -121.48, -0.00, -0.00
18.31722593307495, -3.14, 0.00, 0.92, 0.53, 1.42, -179.91, 0.00, 52.89, 30.31, 81.47, -0.00, -0.00, -4.33, 0.00, 0.00, 0.00, -64.46, -41.25, -0.00, -0.00
18.35884976387024, -3.14, 0.00, 0.90, 0.53, 1.42, -179.91, 0.00, 51.77, 30.31, 81.47, -0.00, -0.00, -4.69, -0.00, 0.00, 0.00, -32.55, -20.42, -0.00, -0.00
18.406848430633545, -3.14, 0.00, 0.88, 0.53, 1.42, -179.91, 0.00, 50.67, 30.31, 81.47, -0.00, -0.00, -4.62, 0.00, 0.00, 0.00, -2.89, -1.66, 0.00, -0.00
18.449532508850098, -3.14, 0.00, 0.86, 0.53, 1.42, -179.91, 0.00, 49.29, 30.31, 81.47, -0.00, -0.00, -5.75, -0.00, 0.00, 0.00, -87.16, -53.33, -0.00, -0.00
18.49686908721924, -3.14, 0.00, 0.84, 0.53, 1.42, -179.91, 0.00, 47.97, 30.31, 81.47, -0.00, -0.00, -5.57, 0.00, 0.00, 0.00, 3.38, 2.98, 0.00, -0.00
18.54775834083557, -3.14, 0.00, 0.81, 0.53, 1.42, -179.91, 0.00, 46.48, 30.31, 81.47, -0.00, -0.00, -6.20, -0.00, 0.00, 0.00, -54.41, -31.89, -0.00, -0.00
18.59762215614319, -3.14, 0.00, 0.78, 0.53, 1.42, -179.91, 0.00, 44.96, 30.31, 81.47, -0.00, -0.00, -6.38, -0.00, 0.00, 0.00, -22.24, -11.97, -0.00, -0.00
18.646605253219604, -3.14, 0.00, 0.76, 0.53, 1.42, -179.91, 0.00, 43.50, 30.31, 81.47, -0.00, -0.00, -6.14, 0.00, 0.00, 0.00, 8.05, 5.99, 0.00, -0.00
18.694604635238647, -3.14, 0.00, 0.73, 0.53, 1.42, -179.91, 0.00, 41.99, 30.31, 81.47, -0.00, -0.00, -6.31, -0.00, 0.00, 0.00, -22.37, -12.00, -0.00, -0.00
18.74360489845276, -3.14, 0.00, 0.70, 0.53, 1.42, -179.91, 0.00, 40.35, 30.31, 81.47, -0.00, 0.00, -6.87, 0.00, 0.00, 0.00, -51.12, -28.29, -0.00, -0.00
18.79160499572754, -3.14, 0.00, 0.67, 0.53, 1.42, -179.91, 0.00, 38.30, 30.31, 81.47, -0.00, 0.00, -8.57, 0.00, 0.00, 0.00, -138.43, -77.13, -0.00, -0.00
18.83960509300232, -3.14, 0.00, 0.62, 0.53, 1.42, -179.91, 0.00, 35.70, 30.31, 81.47, -0.00, 0.00, -10.89, 0.00, 0.00, 0.00, -190.83, -103.99, -0.00, -0.00
18.8796067237854, -3.14, 0.00, 0.58, 0.53, 1.42, -179.91, 0.00, 33.18, 30.31, 81.47, -0.00, -0.00, -10.59, 0.00, 0.00, 0.00, 6.03, 8.68, 0.00, -0.00
18.934030771255493, -3.14, 0.00, 0.54, 0.53, 1.42, -179.91, 0.00, 30.90, 30.31, 81.47, -0.00, -0.00, -9.53, 0.00, 0.00, 0.00, 68.84, 42.03, 0.00, -0.00
18.984320163726807, -3.14, -0.00, 0.50, 0.53, 1.42, -179.91, -0.00, 28.76, 30.31, 81.47, -0.00, -0.00, -8.98, 0.00, 0.00, 0.00, 32.84, 20.76, 0.00, -0.00
19.038488388061523, -3.14, -0.00, 0.47, 0.53, 1.42, -179.91, -0.00, 26.83, 30.31, 81.47, -0.00, -0.00, -8.08, 0.00, 0.00, 0.00, 62.14, 35.51, 0.00, -0.00
19.088292837142944, -3.14, -0.00, 0.44, 0.53, 1.42, -179.91, -0.00, 25.09, 30.31, 81.47, -0.00, -0.00, -7.27, 0.00, 0.00, 0.00, 57.61, 31.97, 0.00, -0.00
19.140066146850586, -3.14, -0.00, 0.41, 0.53, 1.42, -179.91, -0.00, 23.25, 30.31, 81.47, -0.00, 0.00, -7.73, 0.00, 0.00, 0.00, -43.73, -22.15, -0.00, -0.00
19.189183473587036, -3.14, 0.00, 0.37, 0.53, 1.42, -179.91, 0.00, 21.30, 30.31, 81.47, -0.00, 0.00, -8.15, 0.00, 0.00, 0.00, -41.53, -20.57, -0.00, -0.00
19.239097356796265, -3.14, -0.00, 0.34, 0.53, 1.42, -179.91, -0.00, 19.55, 30.31, 81.47, -0.00, -0.01, -7.34, 0.00, 0.00, 0.00, 59.12, 31.95, 0.00, -0.00
19.2897891998291, -3.14, 0.00, 0.31, 0.53, 1.42, -179.91, 0.00, 17.69, 30.31, 81.47, -0.00, 0.01, -7.79, 0.00, 0.00, 0.00, -41.60, -20.88, -0.00, -0.00
19.34662699699402, -3.14, -0.00, 0.28, 0.53, 1.42, -179.91, -0.00, 16.02, 30.31, 81.47, -0.00, -0.01, -7.01, 0.00, 0.00, 0.00, 57.52, 30.45, 0.00, -0.00
19.409143924713135, -3.14, -0.00, 0.25, 0.53, 1.42, -179.91, -0.00, 14.51, 30.31, 81.47, -0.00, -0.01, -6.31, 0.00, 0.00, 0.00, 55.04, 28.50, 0.00, -0.00
19.45323896408081, -3.14, -0.00, 0.23, 0.53, 1.42, -179.91, -0.00, 12.96, 30.31, 81.47, -0.00, 0.00, -6.47, 0.00, 0.00, 0.00, -14.96, -7.58, -0.00, -0.00
19.50155472755432, -3.14, -0.00, 0.20, 0.53, 1.42, -179.91, -0.00, 11.57, 30.31, 81.47, -0.00, -0.01, -5.83, 0.00, 0.00, 0.00, 49.42, 25.38, 0.00, -0.00
19.546421766281128, -3.14, -0.00, 0.18, 0.53, 1.42, -179.91, -0.01, 10.32, 30.31, 81.47, -0.00, -0.01, -5.24, 0.00, 0.00, 0.00, 47.28, 23.90, 0.00, -0.00
19.593475580215454, -3.14, -0.00, 0.16, 0.53, 1.42, -179.91, -0.01, 9.19, 30.31, 81.47, -0.00, -0.01, -4.72, 0.00, 0.00, 0.00, 43.01, 21.58, 0.00, -0.00
19.63428544998169, -3.14, -0.00, 0.14, 0.53, 1.42, -179.91, -0.01, 8.18, 30.31, 81.47, -0.00, -0.01, -4.25, 0.00, 0.00, 0.00, 38.98, 19.45, 0.00, -0.00
19.671586275100708, -3.14, -0.00, 0.13, 0.53, 1.42, -179.91, -0.01, 7.27, 30.31, 81.47, -0.00, -0.00, -3.82, 0.00, 0.00, 0.00, 35.28, 17.53, 0.00, -0.00
19.703319787979126, -3.14, -0.00, 0.11, 0.53, 1.42, -179.91, -0.01, 6.45, 30.31, 81.47, -0.00, -0.00, -3.44, 0.00, 0.00, 0.00, 31.90, 15.79, 0.00, -0.00
19.742719173431396, -3.14, -0.00, 0.10, 0.53, 1.42, -179.91, -0.01, 5.71, 30.31, 81.47, -0.00, -0.00, -3.10, 0.00, 0.00, 0.00, 28.81, 14.22, 0.00, -0.00
19.77600121498108, -3.14, -0.00, 0.09, 0.53, 1.42, -179.91, -0.01, 5.04, 30.31, 81.47, -0.00, -0.00, -2.79, 0.00, 0.00, 0.00, 26.00, 12.81, 0.00, -0.00
19.80949068069458, -3.14, -0.00, 0.08, 0.53, 1.42, -179.91, -0.01, 4.44, 30.31, 81.47, -0.00, -0.00, -2.51, 0.00, 0.00, 0.00, 23.46, 11.54, 0.00, -0.00
19.841620206832886, -3.14, -0.00, 0.07, 0.53, 1.42, -179.91, -0.01, 3.90, 30.31, 81.47, -0.00, -0.00, -2.26, 0.00, 0.00, 0.00, 21.15, 10.40, 0.00, -0.00
19.871715307235718, -3.14, -0.00, 0.06, 0.53, 1.42, -179.91, -0.01, 3.42, 30.31, 81.47, -0.00, 0.00, -2.03, 0.00, 0.00, 0.00, 19.07, 9.37, 0.00, -0.00
19.911152124404907, -3.14, -0.00, 0.05, 0.53, 1.42, -179.91, -0.01, 2.98, 30.31, 81.47, -0.00, 0.00, -1.83, 0.00, 0.00, 0.00, 17.18, 8.44, 0.00, -0.00
19.946508169174194, -3.14, -0.00, 0.05, 0.53, 1.42, -179.91, -0.01, 2.59, 30.31, 81.47, -0.00, 0.00, -1.65, 0.00, 0.00, 0.00, 15.48, 7.60, 0.00, -0.00
19.9800066947937, -3.14, -0.00, 0.04, 0.53, 1.42, -179.91, -0.01, 2.24, 30.31, 81.47, -0.00, 0.00, -1.48, 0.00, 0.00, 0.00, 13.95, 6.85, 0.00, -0.00
20.01336646080017, -3.14, -0.00, 0.03, 0.53, 1.42, -179.91, -0.01, 1.92, 30.31, 81.47, -0.00, 0.00, -1.33, 0.00, 0.00, 0.00, 12.56, 6.17, 0.00, -0.00
20.045501470565796, -3.14, -0.00, 0.03, 0.53, 1.42, -179.91, -0.01, 1.63, 30.31, 81.47, -0.00, 0.00, -1.20, 0.00, 0.00, 0.00, 11.31, 5.56, 0.00, -0.00
20.082504987716675, -3.14, -0.00, 0.02, 0.53, 1.42, -179.91, -0.01, 1.37, 30.31, 81.47, -0.00, 0.00, -1.08, 0.00, 0.00, 0.00, 10.19, 5.01, 0.00, -0.00
20.118149042129517, -3.14, -0.00, 0.02, 0.53, 1.42, -179.91, -0.01, 1.14, 30.31, 81.47, -0.00, 0.00, -0.97, 0.00, 0.00, 0.00, 9.18, 4.52, 0.00, -0.00
20.15129041671753, -3.14, -0.00, 0.02, 0.53, 1.42, -179.91, -0.01, 0.93, 30.31, 81.47, -0.00, 0.00, -0.87, 0.00, 0.00, 0.00, 8.27, 4.08, 0.00, -0.00
20.18238377571106, -3.14, -0.00, 0.01, 0.53, 1.42, -179.91, -0.01, 0.74, 30.31, 81.47, -0.00, 0.00, -0.79, 0.00, 0.00, 0.00, 7.45, 3.68, 0.00, -0.00
20.214385986328125, -3.14, -0.00, 0.01, 0.53, 1.42, -179.91, -0.01, 0.57, 30.31, 81.47, -0.00, 0.00, -0.71, 0.00, 0.00, 0.00, 6.71, 3.32, 0.00, -0.00
20.248100996017456, -3.14, -0.00, 0.01, 0.53, 1.42, -179.91, -0.01, 0.42, 30.31, 81.47, -0.00, 0.00, -0.64, 0.00, 0.00, 0.00, 6.05, 2.99, 0.00, -0.00
20.27948784828186, -3.14, -0.00, 0.00, 0.53, 1.42, -179.91, -0.01, 0.29, 30.31, 81.47, -0.00, 0.00, -0.57, 0.00, 0.00, 0.00, 5.45, 2.70, 0.00, -0.00
20.316556930541992, -3.14, -0.00, 0.00, 0.53, 1.42, -179.91, -0.01, 0.26, 30.31, 81.47, -0.00, -0.01, -0.12, 0.00, 0.00, 0.00, 37.39, 18.78, 0.00, -0.00
20.349563360214233, -3.14, -0.00, 0.00, 0.53, 1.42, -179.91, -0.01, 0.23, 30.31, 81.47, -0.00, 0.00, -0.11, 0.00, 0.00, 0.00, 3.06, 1.40, 0.00, -0.00
20.38162136077881, -3.14, -0.00, 0.00, 0.53, 1.42, -179.91, -0.01, 0.21, 30.31, 81.47, -0.00, 0.00, -0.10, 0.00, 0.00, 0.00, 0.96, 0.46, 0.00, -0.00
20.413135051727295, -3.14, -0.00, 0.00, 0.53, 1.42, -179.91, -0.01, 0.28, 30.31, 81.47, -0.00, -0.01, 0.31, -0.00, 0.00, 0.00, 33.24, 16.72, 0.00, -0.00
20.44509220123291, -3.14, -0.00, 0.01, 0.53, 1.42, -179.91, -0.01, 0.35, 30.31, 81.47, -0.00, 0.00, 0.28, -0.00, 0.00, -0.00, -0.68, -0.47, -0.00, 0.00
20.477003812789917, -3.14, -0.00, 0.01, 0.53, 1.42, -179.91, -0.01, 0.41, 30.31, 81.47, -0.00, 0.00, 0.25, 0.00, 0.00, -0.00, -2.43, -1.24, -0.00, 0.00
20.510027170181274, -3.14, -0.00, 0.01, 0.53, 1.42, -179.91, -0.01, 0.46, 30.31, 81.47, -0.00, 0.00, 0.23, 0.00, 0.00, -0.00, -2.30, -1.16, -0.00, 0.00
20.542096853256226, -3.14, -0.00, 0.01, 0.53, 1.42, -179.91, -0.01, 0.51, 30.31, 81.47, -0.00, 0.00, 0.20, 0.00, 0.00, -0.00, -2.08, -1.06, -0.00, 0.00
20.580098628997803, -3.14, -0.00, 0.01, 0.53, 1.42, -179.91, -0.01, 0.55, 30.31, 81.47, -0.00, 0.00, 0.18, 0.00, 0.00, -0.00, -1.88, -0.96, -0.00, 0.00
20.612097024917603, -3.14, -0.00, 0.01, 0.53, 1.42, -179.91, -0.00, 0.59, 30.31, 81.47, -0.00, 0.00, 0.16, 0.00, 0.00, -0.00, -1.70, -0.88, -0.00, 0.00
20.65109944343567, -3.14, -0.00, 0.01, 0.53, 1.42, -179.91, -0.00, 0.63, 30.31, 81.47, -0.00, 0.00, 0.15, 0.00, 0.00, -0.00, -1.54, -0.80, -0.00, 0.00
20.682131052017212, -3.14, -0.00, 0.01, 0.53, 1.42, -179.91, -0.00, 0.66, 30.31, 81.47, -0.00, 0.00, 0.13, 0.00, 0.00, -0.00, -1.40, -0.73, -0.00, 0.00
20.71730089187622, -3.14, -0.00, 0.01, 0.53, 1.42, -179.91, -0.00, 0.69, 30.31, 81.47, -0.00, 0.00, 0.12, 0.00, 0.00, -0.00, -1.27, -0.66, -0.00, 0.00
20.74576711654663, -3.14, -0.00, 0.01, 0.53, 1.42, -179.91, -0.00, 0.81, 30.31, 81.47, -0.00, -0.01, 0.50, 0.00, 0.00, -0.00, 31.34, 15.73, 0.00, 0.00
20.774577379226685, -3.14, -0.00, 0.02, 0.53, 1.42, -179.91, -0.00, 0.92, 30.31, 81.47, -0.00, 0.00, 0.45, 0.00, 0.00, -0.00, -2.42, -1.36, -0.00, 0.00
20.808577299118042, -3.14, -0.00, 0.02, 0.53, 1.42, -179.91, -0.00, 1.02, 30.31, 81.47, -0.00, 0.00, 0.41, 0.00, 0.00, -0.00, -3.98, -2.04, -0.00, 0.00
20.838579177856445, -3.14, -0.00, 0.02, 0.53, 1.42, -179.91, -0.00, 1.10, 30.31, 81.47, -0.00, 0.00, 0.37, 0.00, 0.00, -0.00, -3.70, -1.90, -0.00, 0.00
20.872093439102173, -3.14, -0.00, 0.02, 0.53, 1.42, -179.91, -0.00, 1.18, 30.31, 81.47, -0.00, 0.00, 0.33, 0.00, 0.00, -0.00, -3.36, -1.73, -0.00, 0.00
20.9084370136261, -3.14, -0.00, 0.02, 0.53, 1.42, -179.91, -0.00, 1.25, 30.31, 81.47, -0.00, 0.00, 0.30, 0.00, 0.00, -0.00, -3.04, -1.58, -0.00, 0.00
20.946236848831177, -3.14, -0.00, 0.02, 0.53, 1.42, -179.91, -0.00, 1.32, 30.31, 81.47, -0.00, 0.00, 0.27, 0.00, 0.00, -0.00, -2.75, -1.44, -0.00, 0.00
20.98132061958313, -3.14, -0.00, 0.02, 0.53, 1.42, -179.91, -0.00, 1.38, 30.31, 81.47, -0.00, 0.00, 0.24, 0.00, 0.00, -0.00, -2.50, -1.31, -0.00, 0.00
21.012323141098022, -3.14, -0.00, 0.02, 0.53, 1.42, -179.91, -0.00, 1.43, 30.31, 81.47, -0.00, 0.00, 0.22, 0.00, 0.00, -0.00, -2.27, -1.20, -0.00, 0.00
21.04431986808777, -3.14, -0.00, 0.03, 0.53, 1.42, -179.91, -0.00, 1.47, 30.31, 81.47, -0.00, 0.00, 0.20, 0.00, 0.00, -0.00, -2.06, -1.10, -0.00, 0.00
21.081321477890015, -3.14, -0.00, 0.03, 0.53, 1.42, -179.91, -0.00, 1.52, 30.31, 81.47, -0.00, 0.00, 0.18, 0.00, 0.00, -0.00, -1.87, -1.01, -0.00, 0.00
21.117254495620728, -3.14, -0.00, 0.03, 0.53, 1.42, -179.91, -0.00, 1.55, 30.31, 81.47, -0.00, 0.00, 0.16, 0.00, 0.00, -0.00, -1.70, -0.93, -0.00, 0.00
21.151179552078247, -3.14, -0.00, 0.03, 0.53, 1.42, -179.91, -0.00, 1.59, 30.31, 81.47, -0.00, 0.00, 0.14, 0.00, 0.00, -0.00, -1.55, -0.86, -0.00, 0.00
21.18182873725891, -3.14, -0.00, 0.03, 0.53, 1.42, -179.91, -0.00, 1.62, 30.31, 81.47, -0.00, 0.00, 0.13, 0.00, 0.00, -0.00, -1.41, -0.79, -0.00, 0.00
21.21333074569702, -3.14, -0.00, 0.03, 0.53, 1.42, -179.91, -0.00, 1.65, 30.31, 81.47, -0.00, 0.00, 0.12, 0.00, 0.00, -0.00, -1.29, -0.73, -0.00, 0.00
21.246851444244385, -3.14, 0.00, 0.03, 0.53, 1.42, -179.91, 0.00, 1.67, 30.31, 81.47, -0.00, 0.00, 0.10, 0.00, 0.00, -0.00, -1.18, -0.68, -0.00, 0.00
21.276460647583008, -3.14, 0.00, 0.03, 0.53, 1.42, -179.91, 0.00, 1.69, 30.31, 81.47, -0.00, 0.00, 0.09, 0.00, 0.00, -0.00, -1.08, -0.63, -0.00, 0.00
21.31132459640503, -3.14, 0.00, 0.03, 0.53, 1.42, -179.91, 0.00, 1.71, 30.31, 81.47, -0.00, 0.00, 0.08, 0.00, 0.00, -0.00, -0.99, -0.59, -0.00, 0.00
21.34641408920288, -3.14, 0.00, 0.03, 0.53, 1.42, -179.91, 0.00, 1.73, 30.31, 81.47, -0.00, -0.00, 0.08, -0.00, 0.00, -0.00, -0.91, -0.54, -0.00, 0.00
21.376792430877686, -3.14, 0.00, 0.03, 0.53, 1.42, -179.91, 0.00, 1.75, 30.31, 81.47, -0.00, -0.00, 0.07, -0.00, 0.00, -0.00, -0.84, -0.51, -0.00, 0.00
21.409635066986084, -3.14, 0.00, 0.03, 0.53, 1.42, -179.91, 0.00, 1.76, 30.31, 81.47, -0.00, -0.00, 0.06, -0.00, 0.00, -0.00, -0.78, -0.48, -0.00, 0.00
21.439711809158325, -3.14, 0.00, 0.03, 0.53, 1.42, -179.91, 0.00, 1.78, 30.31, 81.47, -0.00, -0.00, 0.06, -0.00, 0.00, -0.00, -0.71, -0.45, -0.00, 0.00
21.48071026802063, -3.14, 0.00, 0.03, 0.53, 1.42, -179.91, 0.00, 1.79, 30.31, 81.47, -0.00, -0.00, 0.05, -0.00, 0.00, -0.00, -0.66, -0.42, -0.00, 0.00
21.51623010635376, -3.14, 0.00, 0.03, 0.53, 1.42, -179.91, 0.00, 1.80, 30.31, 81.47, -0.00, -0.00, 0.05, -0.00, 0.00, -0.00, -0.62, -0.40, -0.00, 0.00
21.54923129081726, -3.14, 0.00, 0.03, 0.53, 1.42, -179.91, 0.00, 1.81, 30.31, 81.47, -0.00, -0.00, 0.04, -0.00, 0.00, -0.00, -0.57, -0.38, -0.00, 0.00
21.58223247528076, -3.14, 0.00, 0.03, 0.53, 1.42, -179.91, 0.00, 1.82, 30.31, 81.47, -0.00, -0.00, 0.04, -0.00, 0.00, -0.00, -0.54, -0.37, -0.00, 0.00
21.619227647781372, -3.14, 0.00, 0.03, 0.53, 1.42, -179.91, 0.00, 1.83, 30.31, 81.47, -0.00, -0.00, 0.03, -0.00, 0.00, -0.00, -0.50, -0.35, -0.00, 0.00
21.6508309841156, -3.14, 0.00, 0.03, 0.53, 1.42, -179.91, 0.00, 1.83, 30.31, 81.47, -0.00, -0.00, 0.03, -0.00, 0.00, -0.00, -0.48, -0.33, -0.00, 0.00
21.685636281967163, -3.14, 0.00, 0.03, 0.53, 1.42, -179.91, 0.00, 1.84, 30.31, 81.47, -0.00, -0.00, 0.03, -0.00, 0.00, -0.00, -0.44, -0.32, -0.00, 0.00
21.716364860534668, -3.14, 0.00, 0.03, 0.53, 1.42, -179.91, 0.00, 1.84, 30.31, 81.47, -0.00, -0.00, 0.02, -0.00, 0.00, -0.00, -0.42, -0.31, -0.00, -0.00
21.74920392036438, -3.14, 0.00, 0.03, 0.53, 1.42, -179.91, 0.00, 1.85, 30.31, 81.47, -0.00, -0.00, 0.02, -0.00, 0.00, -0.00, -0.40, -0.29, -0.00, -0.00
21.78357481956482, -3.14, 0.00, 0.03, 0.53, 1.42, -179.91, 0.00, 1.85, 30.31, 81.47, -0.00, -0.00, 0.02, -0.00, 0.00, -0.00, -0.38, -0.29, -0.00, -0.00
21.815528869628906, -3.14, 0.00, 0.03, 0.53, 1.42, -179.91, 0.00, 1.86, 30.31, 81.47, -0.00, -0.00, 0.02, -0.00, 0.00, -0.00, -0.36, -0.28, -0.00, -0.00
21.852367162704468, -3.14, 0.00, 0.03, 0.53, 1.42, -179.91, 0.00, 1.86, 30.31, 81.47, -0.00, -0.00, 0.02, -0.00, 0.00, -0.00, -0.34, -0.27, -0.00, -0.00
21.883053064346313, -3.14, 0.00, 0.03, 0.53, 1.42, -179.91, 0.00, 1.87, 30.31, 81.47, -0.00, -0.00, 0.01, -0.00, 0.00, -0.00, -0.33, -0.26, -0.00, -0.00
21.91829752922058, -3.14, 0.00, 0.03, 0.53, 1.42, -179.91, 0.00, 1.87, 30.31, 81.47, -0.00, -0.00, 0.01, -0.00, 0.00, -0.00, -0.32, -0.26, -0.00, -0.00
21.957225561141968, -3.14, 0.00, 0.03, 0.53, 1.42, -179.91, 0.00, 1.87, 30.31, 81.47, -0.00, -0.00, 0.01, -0.00, 0.00, -0.00, -0.30, -0.25, -0.00, -0.00
21.99422311782837, -3.14, 0.00, 0.03, 0.53, 1.42, -179.91, 0.00, 1.87, 30.31, 81.47, -0.00, -0.00, 0.01, -0.00, 0.00, -0.00, -0.30, -0.25, -0.00, -0.00
22.02822232246399, -3.14, 0.00, 0.03, 0.53, 1.42, -179.91, 0.00, 1.78, 30.31, 81.47, -0.00, 0.01, -0.39, 0.00, 0.00, -0.00, -32.81, -16.61, -0.00, -0.00
22.06022357940674, -3.14, 0.00, 0.03, 0.53, 1.42, -179.91, 0.00, 1.70, 30.31, 81.47, -0.00, -0.00, -0.35, 0.00, 0.00, 0.00, 1.11, 0.58, 0.00, -0.00
22.096224784851074, -3.14, 0.00, 0.03, 0.53, 1.42, -179.91, 0.00, 1.62, 30.31, 81.47, -0.00, -0.00, -0.31, 0.00, 0.00, 0.00, 2.77, 1.30, 0.00, -0.00
22.1322238445282, -3.14, 0.00, 0.03, 0.53, 1.42, -179.91, 0.00, 1.56, 30.31, 81.47, -0.00, -0.00, -0.28, 0.00, 0.00, 0.00, 2.58, 1.20, 0.00, -0.00
22.16622281074524, -3.14, 0.00, 0.02, 0.53, 1.42, -179.91, 0.00, 1.40, 30.31, 81.47, -0.00, 0.01, -0.65, 0.00, 0.00, 0.00, -30.17, -15.27, -0.00, -0.00
22.199225664138794, -3.14, 0.00, 0.02, 0.53, 1.42, -179.91, 0.00, 1.26, 30.31, 81.47, -0.00, -0.00, -0.59, 0.00, 0.00, 0.00, 3.45, 1.77, 0.00, -0.00
22.232223987579346, -3.14, 0.00, 0.02, 0.53, 1.42, -179.91, 0.00, 1.13, 30.31, 81.47, -0.00, -0.00, -0.53, 0.00, 0.00, 0.00, 4.89, 2.38, 0.00, -0.00
22.266223907470703, -3.14, 0.00, 0.02, 0.53, 1.42, -179.91, 0.00, 1.02, 30.31, 81.47, -0.00, -0.00, -0.47, 0.00, 0.00, 0.00, 4.50, 2.19, 0.00, -0.00
22.29722547531128, -3.14, 0.00, 0.02, 0.53, 1.42, -179.91, 0.00, 0.92, 30.31, 81.47, -0.00, -0.00, -0.43, 0.00, 0.00, 0.00, 4.05, 1.97, 0.00, -0.00
22.33222508430481, -3.14, 0.00, 0.01, 0.53, 1.42, -179.91, 0.00, 0.83, 30.31, 81.47, -0.00, -0.00, -0.38, 0.00, 0.00, 0.00, 3.65, 1.77, 0.00, -0.00
22.362222909927368, -3.14, 0.00, 0.01, 0.53, 1.42, -179.91, 0.00, 0.74, 30.31, 81.47, -0.00, -0.00, -0.35, 0.00, 0.00, 0.00, 3.28, 1.59, 0.00, -0.00
22.39522361755371, -3.14, 0.00, 0.01, 0.53, 1.42, -179.91, 0.00, 0.67, 30.31, 81.47, -0.00, -0.00, -0.31, 0.00, 0.00, 0.00, 2.95, 1.43, 0.00, -0.00
22.43022322654724, -3.14, -0.00, 0.01, 0.53, 1.42, -179.91, -0.00, 0.60, 30.31, 81.47, -0.00, -0.00, -0.28, 0.00, 0.00, 0.00, 2.65, 1.29, 0.00, -0.00
22.460222721099854, -3.14, -0.00, 0.01, 0.53, 1.42, -179.91, -0.00, 0.54, 30.31, 81.47, -0.00, -0.00, -0.25, 0.00, 0.00, 0.00, 2.39, 1.16, 0.00, -0.00
22.492066621780396, -3.14, -0.00, 0.01, 0.53, 1.42, -179.91, -0.00, 0.49, 30.31, 81.47, -0.00, -0.00, -0.23, 0.00, 0.00, 0.00, 2.15, 1.04, 0.00, -0.00
22.52624535560608, -3.14, -0.00, 0.01, 0.53, 1.42, -179.91, -0.00, 0.44, 30.31, 81.47, -0.00, -0.00, -0.20, 0.00, 0.00, 0.00, 1.93, 0.94, 0.00, -0.00
22.55724549293518, -3.14, -0.00, 0.01, 0.53, 1.42, -179.91, -0.00, 0.40, 30.31, 81.47, -0.00, -0.00, -0.18, 0.00, 0.00, 0.00, 1.74, 0.84, 0.00, -0.00
22.588245153427124, -3.14, -0.00, 0.01, 0.53, 1.42, -179.91, -0.00, 0.36, 30.31, 81.47, -0.00, -0.00, -0.17, 0.00, 0.00, 0.00, 1.56, 0.76, 0.00, -0.00
22.624244689941406, -3.14, -0.00, 0.01, 0.53, 1.42, -179.91, -0.00, 0.32, 30.31, 81.47, -0.00, -0.00, -0.15, 0.00, 0.00, 0.00, 1.40, 0.68, 0.00, -0.00
22.65924382209778, -3.14, -0.00, 0.01, 0.53, 1.42, -179.91, -0.00, 0.29, 30.31, 81.47, -0.00, -0.00, -0.13, 0.00, 0.00, 0.00, 1.26, 0.61, 0.00, -0.00
22.68876075744629, -3.14, -0.00, 0.00, 0.53, 1.42, -179.91, -0.00, 0.26, 30.31, 81.47, -0.00, -0.00, -0.12, 0.00, 0.00, 0.00, 1.14, 0.55, 0.00, -0.00
22.717758893966675, -3.14, -0.00, 0.00, 0.53, 1.42, -179.91, -0.00, 0.23, 30.31, 81.47, -0.00, -0.00, -0.11, 0.00, 0.00, 0.00, 1.02, 0.50, 0.00, -0.00
22.748759984970093, -3.14, -0.00, 0.00, 0.53, 1.42, -179.91, -0.00, 0.21, 30.31, 81.47, -0.00, 0.00, -0.10, 0.00, 0.00, 0.00, 0.92, 0.44, 0.00, -0.00
22.781228065490723, -3.14, -0.00, 0.00, 0.53, 1.42, -179.91, -0.00, 0.19, 30.31, 81.47, -0.00, 0.00, -0.09, 0.00, 0.00, 0.00, 0.82, 0.40, 0.00, -0.00
22.81503129005432, -3.14, -0.00, 0.00, 0.53, 1.42, -179.91, -0.00, 0.17, 30.31, 81.47, -0.00, 0.00, -0.08, 0.00, 0.00, 0.00, 0.74, 0.36, 0.00, -0.00
22.847239017486572, -3.14, -0.00, 0.00, 0.53, 1.42, -179.91, -0.00, 0.15, 30.31, 81.47, -0.00, 0.00, -0.07, 0.00, 0.00, 0.00, 0.66, 0.32, 0.00, -0.00
22.880358695983887, -3.14, -0.00, 0.00, 0.53, 1.42, -179.91, -0.00, 0.14, 30.31, 81.47, -0.00, 0.00, -0.06, 0.00, 0.00, 0.00, 0.60, 0.29, 0.00, -0.00
22.914844274520874, -3.14, -0.00, 0.00, 0.53, 1.42, -179.91, -0.00, 0.12, 30.31, 81.47, -0.00, 0.00, -0.06, 0.00, 0.00, 0.00, 0.54, 0.26, 0.00, -0.00
22.965686559677124, -3.14, -0.00, 0.00, 0.53, 1.42, -179.91, -0.00, 0.11, 30.31, 81.47, -0.00, 0.00, -0.05, 0.00, 0.00, 0.00, 0.48, 0.24, 0.00, -0.00
23.00667929649353, -3.14, -0.00, 0.00, 0.53, 1.42, -179.91, -0.00, 0.10, 30.31, 81.47, -0.00, 0.00, -0.05, 0.00, 0.00, 0.00, 0.44, 0.21, 0.00, -0.00
23.038678407669067, -3.14, -0.00, 0.00, 0.53, 1.42, -179.91, -0.00, 0.09, 30.31, 81.47, -0.00, 0.00, -0.04, 0.00, 0.00, 0.00, 0.39, 0.19, 0.00, -0.00
23.069679737091064, -3.14, -0.00, 0.00, 0.53, 1.42, -179.91, -0.00, 0.08, 30.31, 81.47, -0.00, 0.00, -0.04, 0.00, 0.00, 0.00, 0.36, 0.17, 0.00, -0.00
23.10267972946167, -3.14, -0.00, 0.00, 0.53, 1.42, -179.91, -0.00, 0.07, 30.31, 81.47, -0.00, 0.00, -0.03, 0.00, 0.00, 0.00, 0.32, 0.15, 0.00, -0.00
23.13867974281311, -3.14, -0.00, 0.00, 0.53, 1.42, -179.91, -0.00, 0.06, 30.31, 81.47, -0.00, 0.00, -0.03, 0.00, 0.00, 0.00, 0.28, 0.14, 0.00, -0.00
23.175678730010986, -3.14, -0.00, 0.00, 0.53, 1.42, -179.91, -0.00, 0.06, 30.31, 81.47, -0.00, 0.00, -0.03, 0.00, 0.00, 0.00, 0.26, 0.12, 0.00, -0.00
23.20767855644226, -3.14, -0.00, 0.00, 0.53, 1.42, -179.91, -0.00, 0.05, 30.31, 81.47, -0.00, 0.00, -0.02, 0.00, 0.00, 0.00, 0.24, 0.12, 0.00, -0.00
23.23967957496643, -3.14, -0.00, 0.00, 0.53, 1.42, -179.91, -0.00, 0.05, 30.31, 81.47, -0.00, 0.00, -0.02, 0.00, 0.00, 0.00, 0.21, 0.10, 0.00, -0.00
23.27367925643921, -3.14, -0.00, 0.00, 0.53, 1.42, -179.91, -0.00, 0.04, 30.31, 81.47, -0.00, 0.00, -0.02, 0.00, 0.00, 0.00, 0.19, 0.09, 0.00, -0.00
23.312679290771484, -3.14, -0.00, 0.00, 0.53, 1.42, -179.91, -0.00, 0.04, 30.31, 81.47, -0.00, 0.00, -0.02, 0.00, 0.00, 0.00, 0.17, 0.08, 0.00, -0.00
23.347678661346436, -3.14, -0.00, 0.00, 0.53, 1.42, -179.91, -0.00, 0.03, 30.31, 81.47, -0.00, 0.00, -0.02, 0.00, 0.00, 0.00, 0.16, 0.08, 0.00, -0.00
23.3806791305542, -3.14, -0.00, 0.00, 0.53, 1.42, -179.91, -0.00, 0.03, 30.31, 81.47, -0.00, 0.00, -0.01, 0.00, 0.00, 0.00, 0.14, 0.07, 0.00, -0.00
23.415679931640625, -3.14, -0.00, 0.00, 0.53, 1.42, -179.91, -0.00, 0.03, 30.31, 81.47, -0.00, 0.00, -0.01, 0.00, 0.00, 0.00, 0.12, 0.06, 0.00, -0.00
23.448681592941284, -3.14, -0.00, 0.00, 0.53, 1.42, -179.91, -0.00, 0.02, 30.31, 81.47, -0.00, 0.00, -0.01, 0.00, 0.00, 0.00, 0.11, 0.06, 0.00, -0.00
23.486679077148438, -3.14, -0.00, 0.00, 0.53, 1.42, -179.91, -0.00, 0.02, 30.31, 81.47, -0.00, 0.00, -0.01, 0.00, 0.00, 0.00, 0.10, 0.05, 0.00, -0.00
23.519663333892822, -3.14, -0.00, 0.00, 0.53, 1.42, -179.91, -0.00, 0.02, 30.31, 81.47, -0.00, 0.00, -0.01, 0.00, 0.00, 0.00, 0.09, 0.05, 0.00, -0.00
23.553835153579712, -3.14, -0.00, 0.00, 0.53, 1.42, -179.91, -0.00, 0.02, 30.31, 81.47, -0.00, 0.00, -0.01, 0.00, 0.00, 0.00, 0.08, 0.04, 0.00, -0.00
23.585631132125854, -3.14, -0.00, 0.00, 0.53, 1.42, -179.91, -0.00, 0.02, 30.31, 81.47, -0.00, 0.00, -0.01, 0.00, 0.00, 0.00, 0.07, 0.03, 0.00, -0.00
23.616828680038452, -3.14, -0.00, 0.00, 0.53, 1.42, -179.91, -0.00, 0.01, 30.31, 81.47, -0.00, 0.00, -0.01, 0.00, 0.00, 0.00, 0.07, 0.03, 0.00, -0.00
23.652534008026123, -3.14, -0.00, 0.00, 0.53, 1.42, -179.91, -0.00, 0.01, 30.31, 81.47, -0.00, 0.00, -0.01, 0.00, 0.00, 0.00, 0.06, 0.03, 0.00, -0.00
23.684038400650024, -3.14, -0.00, 0.00, 0.53, 1.42, -179.91, -0.00, 0.01, 30.31, 81.47, -0.00, 0.00, -0.01, 0.00, 0.00, 0.00, 0.05, 0.03, 0.00, -0.00
23.719539880752563, -3.14, -0.00, 0.00, 0.53, 1.42, -179.91, -0.00, 0.01, 30.31, 81.47, -0.00, 0.00, -0.01, 0.00, 0.00, 0.00, 0.04, 0.02, 0.00, -0.00
23.752269983291626, -3.14, -0.00, 0.00, 0.53, 1.42, -179.91, -0.00, 0.01, 30.31, 81.47, -0.00, 0.00, -0.00, 0.00, 0.00, 0.00, 0.04, 0.02, 0.00, -0.00
23.791152477264404, -3.14, -0.00, 0.00, 0.53, 1.42, -179.91, -0.00, 0.01, 30.31, 81.47, -0.00, 0.00, -0.00, 0.00, 0.00, 0.00, 0.04, 0.02, 0.00, -0.00
23.826364040374756, -3.14, -0.00, 0.00, 0.53, 1.42, -179.91, -0.00, 0.01, 30.31, 81.47, -0.00, 0.00, -0.00, 0.00, 0.00, 0.00, 0.03, 0.02, 0.00, -0.00
23.85836386680603, -3.14, -0.00, 0.00, 0.53, 1.42, -179.91, -0.00, 0.01, 30.31, 81.47, -0.00, 0.00, -0.00, 0.00, 0.00, -0.00, 0.03, 0.02, 0.00, -0.00
23.891364097595215, -3.14, -0.00, 0.00, 0.53, 1.42, -179.91, -0.00, 0.01, 30.31, 81.47, -0.00, 0.00, -0.00, 0.00, 0.00, 0.00, 0.03, 0.02, 0.00, -0.00
23.92836594581604, -3.14, -0.00, 0.00, 0.52, 1.42, -179.91, -0.00, 0.00, 29.84, 81.47, -0.00, 0.00, -0.00, -1.98, 0.00, -0.00, 0.02, 0.01, -0.00, -0.00
23.959364891052246, -3.14, -0.00, 0.00, 0.51, 1.42, -179.91, -0.00, 0.00, 29.22, 81.47, -0.00, 0.00, -0.00, -2.58, 0.00, 0.00, 0.02, 0.01, -0.00, -0.00
23.992364406585693, -3.14, -0.00, 0.00, 0.50, 1.42, -179.91, -0.00, 0.00, 28.57, 81.47, -0.00, 0.00, -0.00, -2.72, 0.00, 0.00, 0.02, 0.01, -0.00, -0.00
24.026365756988525, -3.14, -0.00, 0.00, 0.49, 1.42, -179.91, -0.00, 0.00, 27.99, 81.47, -0.00, 0.00, -0.00, -2.44, 0.00, 0.00, 0.02, 0.01, 0.00, -0.00
24.060364246368408, -3.14, -0.00, 0.00, 0.48, 1.42, -179.91, -0.00, 0.00, 27.46, 81.47, -0.00, 0.00, -0.00, -2.20, 0.00, 0.00, 0.01, 0.01, 0.00, -0.00
24.093363523483276, -3.14, -0.00, 0.00, 0.47, 1.42, -179.91, -0.00, 0.00, 26.80, 81.47, -0.00, 0.00, -0.00, -2.77, 0.00, 0.00, 0.01, 0.01, -0.00, -0.00
24.126363277435303, -3.14, -0.00, 0.00, 0.46, 1.42, -179.91, -0.00, 0.00, 26.21, 81.47, -0.00, 0.00, -0.00, -2.50, 0.00, 0.00, 0.01, 0.01, 0.00, -0.00
24.15937614440918, -3.14, -0.00, 0.00, 0.45, 1.42, -179.91, -0.00, 0.00, 25.58, 81.47, -0.00, 0.00, -0.00, -2.64, 0.00, 0.00, 0.01, 0.01, -0.00, -0.00
24.19109344482422, -3.14, -0.00, 0.00, 0.43, 1.42, -179.91, -0.00, 0.00, 24.82, 81.47, -0.00, 0.00, -0.00, -3.17, 0.00, 0.00, 0.01, 0.01, -0.00, -0.00
24.224514484405518, -3.14, -0.00, 0.00, 0.42, 1.42, -179.91, -0.00, 0.00, 23.85, 81.47, -0.00, 0.00, -0.00, -4.05, 0.00, 0.00, 0.01, 0.01, -0.00, -0.00
24.261487007141113, -3.14, -0.00, 0.00, 0.40, 1.42, -179.91, -0.00, 0.00, 22.89, 81.47, -0.00, 0.00, -0.00, -4.04, 0.00, 0.00, 0.01, 0.01, 0.00, -0.00
24.29833722114563, -3.14, -0.00, 0.00, 0.38, 1.42, -179.91, -0.00, 0.00, 21.83, 81.47, -0.00, 0.00, -0.00, -4.43, 0.00, 0.00, 0.01, 0.01, -0.00, -0.00
24.341004133224487, -3.14, -0.00, 0.00, 0.36, 1.42, -179.91, -0.00, 0.00, 20.78, 81.47, -0.00, 0.00, -0.00, -4.38, 0.00, 0.00, 0.01, 0.00, 0.00, -0.00
24.376391172409058, -3.14, -0.00, 0.00, 0.35, 1.42, -179.91, -0.00, 0.00, 19.84, 81.47, -0.00, 0.00, -0.00, -3.94, 0.00, 0.00, 0.01, 0.00, 0.00, -0.00
24.414392471313477, -3.14, -0.00, 0.00, 0.33, 1.42, -179.91, -0.00, 0.00, 19.00, 81.47, -0.00, 0.00, -0.00, -3.55, 0.00, 0.00, 0.01, 0.00, 0.00, -0.00
24.451390504837036, -3.14, -0.00, 0.00, 0.32, 1.42, -179.91, -0.00, 0.00, 18.23, 81.47, -0.00, 0.00, -0.00, -3.19, 0.00, 0.00, 0.01, 0.00, 0.00, -0.00
24.488389492034912, -3.14, -0.00, 0.00, 0.31, 1.42, -179.91, -0.00, 0.00, 17.55, 81.47, -0.00, -0.00, -0.00, -2.88, 0.00, 0.00, 0.00, 0.00, 0.00, -0.00
24.52639150619507, -3.14, -0.00, 0.00, 0.29, 1.42, -179.91, -0.00, 0.00, 16.74, 81.47, -0.00, -0.00, -0.00, -3.38, 0.00, 0.00, 0.00, 0.00, -0.00, -0.00
24.559391021728516, -3.14, -0.00, 0.00, 0.28, 1.42, -179.91, -0.00, 0.00, 15.92, 81.47, -0.00, -0.00, -0.00, -3.44, 0.00, 0.00, 0.00, 0.00, -0.00, -0.00
24.59491777420044, -3.14, -0.00, 0.00, 0.26, 1.42, -179.91, -0.00, 0.00, 15.08, 81.47, -0.00, -0.00, -0.00, -3.49, 0.00, 0.00, 0.00, 0.00, -0.00, -0.00
24.630905628204346, -3.14, -0.00, 0.00, 0.25, 1.42, -179.91, -0.00, 0.00, 14.33, 81.47, -0.00, -0.00, -0.00, -3.14, 0.00, 0.00, 0.00, 0.00, 0.00, -0.00
24.664904356002808, -3.14, -0.00, 0.00, 0.24, 1.42, -179.91, -0.00, 0.00, 13.47, 81.47, -0.00, -0.00, -0.00, -3.62, 0.00, 0.00, 0.00, 0.00, -0.00, -0.00
24.695923805236816, -3.14, -0.00, 0.00, 0.22, 1.42, -179.91, -0.00, 0.00, 12.69, 81.47, -0.00, -0.00, -0.00, -3.26, 0.00, 0.00, 0.00, 0.00, 0.00, -0.00
24.729193449020386, -3.14, -0.00, 0.00, 0.21, 1.42, -179.91, -0.00, 0.00, 11.99, 81.47, -0.00, -0.00, -0.00, -2.93, 0.00, -0.00, 0.00, 0.00, 0.00, -0.00
24.762228965759277, -3.14, -0.00, 0.00, 0.20, 1.42, -179.91, -0.00, 0.00, 11.36, 81.47, -0.00, -0.00, -0.00, -2.64, 0.00, -0.00, 0.00, 0.00, 0.00, -0.00
24.79851746559143, -3.14, -0.00, 0.00, 0.19, 1.42, -179.91, -0.00, 0.00, 10.79, 81.47, -0.00, -0.00, -0.00, -2.38, 0.00, -0.00, 0.00, 0.00, 0.00, -0.00
24.831073760986328, -3.14, -0.00, 0.00, 0.18, 1.42, -179.91, -0.00, 0.00, 10.19, 81.47, -0.00, -0.00, -0.00, -2.54, 0.00, -0.00, 0.00, 0.00, -0.00, -0.00
24.866944313049316, -3.14, -0.00, 0.00, 0.17, 1.42, -179.91, -0.00, 0.00, 9.64, 81.47, -0.00, 0.00, -0.00, -2.28, 0.00, -0.00, 0.00, 0.00, 0.00, -0.00
24.899158477783203, -3.14, -0.00, 0.00, 0.16, 1.42, -179.91, -0.00, 0.00, 9.15, 81.47, -0.00, 0.00, -0.00, -2.05, 0.00, -0.00, 0.00, 0.00, 0.00, -0.00
24.93213415145874, -3.14, -0.00, 0.00, 0.15, 1.42, -179.91, -0.00, 0.00, 8.71, 81.47, -0.00, 0.00, -0.00, -1.85, 0.00, -0.00, 0.00, 0.00, 0.00, -0.00
24.964383363723755, -3.14, -0.00, 0.00, 0.14, 1.42, -179.91, -0.00, 0.00, 8.22, 81.47, -0.00, 0.00, -0.00, -2.06, 0.00, -0.00, 0.00, 0.00, -0.00, -0.00
24.997004508972168, -3.14, -0.00, 0.00, 0.14, 1.42, -179.91, -0.00, 0.00, 7.77, 81.47, -0.00, 0.00, -0.00, -1.85, 0.00, -0.00, 0.00, 0.00, 0.00, -0.00
25.027897119522095, -3.14, -0.00, 0.00, 0.13, 1.42, -179.91, -0.00, 0.00, 7.38, 81.47, -0.00, 0.00, -0.00, -1.67, 0.00, -0.00, 0.00, 0.00, 0.00, -0.00
25.06220579147339, -3.14, -0.00, 0.00, 0.12, 1.42, -179.91, -0.00, 0.00, 7.02, 81.47, -0.00, 0.00, -0.00, -1.50, 0.00, -0.00, 0.00, 0.00, 0.00, -0.00
25.092615604400635, -3.14, -0.00, 0.00, 0.12, 1.42, -179.91, -0.00, 0.00, 6.69, 81.47, -0.00, 0.00, -0.00, -1.35, 0.00, -0.00, 0.00, 0.00, 0.00, -0.00
25.126086711883545, -3.14, -0.00, 0.00, 0.11, 1.42, -179.91, -0.00, 0.00, 6.40, 81.47, -0.00, 0.00, -0.00, -1.22, 0.00, -0.00, 0.00, 0.00, 0.00, -0.00
25.186463594436646, -3.14, -0.00, 0.00, 0.11, 1.42, -179.91, -0.00, 0.00, 6.14, 81.47, -0.00, 0.00, -0.00, -1.10, 0.00, -0.00, 0.00, 0.00, 0.00, -0.00
25.2204647064209, -3.14, -0.00, 0.00, 0.10, 1.42, -179.91, -0.00, 0.00, 5.81, 81.47, -0.00, 0.00, -0.00, -1.38, 0.00, -0.00, 0.00, 0.00, -0.00, -0.00
25.253456830978394, -3.14, -0.00, 0.00, 0.09, 1.42, -179.91, -0.00, 0.00, 5.42, 81.47, -0.00, 0.00, -0.00, -1.64, 0.00, -0.00, 0.00, -0.00, -0.00, -0.00
25.285050630569458, -3.14, -0.00, 0.00, 0.09, 1.42, -179.91, -0.00, 0.00, 4.88, 81.47, -0.00, 0.00, -0.00, -2.27, 0.00, -0.00, -0.00, -0.00, -0.00, -0.00
25.318509101867676, -3.14, -0.00, 0.00, 0.08, 1.42, -179.91, -0.00, 0.00, 4.39, 81.47, -0.00, 0.00, -0.00, -2.04, 0.00, -0.00, -0.00, -0.00, 0.00, -0.00
25.353535175323486, -3.14, -0.00, 0.00, 0.07, 1.42, -179.91, -0.00, 0.00, 3.95, 81.47, -0.00, 0.00, -0.00, -1.84, 0.00, -0.00, -0.00, -0.00, 0.00, -0.00
25.386534452438354, -3.14, -0.00, 0.00, 0.06, 1.42, -179.91, -0.00, 0.00, 3.56, 81.47, -0.00, 0.00, -0.00, -1.66, 0.00, -0.00, -0.00, -0.00, 0.00, -0.00
25.41813325881958, -3.14, -0.00, 0.00, 0.06, 1.42, -179.91, -0.00, 0.00, 3.20, 81.47, -0.00, 0.00, -0.00, -1.49, 0.00, -0.00, -0.00, -0.00, 0.00, -0.00
25.45115637779236, -3.14, -0.00, 0.00, 0.05, 1.42, -179.91, -0.00, 0.00, 2.88, 81.47, -0.00, 0.00, -0.00, -1.34, 0.00, -0.00, -0.00, -0.00, 0.00, -0.00
25.484188079833984, -3.14, -0.00, 0.00, 0.05, 1.42, -179.91, -0.00, 0.00, 2.59, 81.47, -0.00, 0.00, -0.00, -1.21, 0.00, -0.00, -0.00, -0.00, 0.00, -0.00
25.51990246772766, -3.14, -0.00, 0.00, 0.04, 1.42, -179.91, -0.00, 0.00, 2.33, 81.47, -0.00, 0.00, -0.00, -1.09, 0.00, -0.00, -0.00, -0.00, 0.00, -0.00
25.5585036277771, -3.14, -0.00, 0.00, 0.04, 1.42, -179.91, -0.00, 0.00, 2.10, 81.47, -0.00, 0.00, -0.00, -0.98, 0.00, -0.00, -0.00, -0.00, 0.00, -0.00
25.59723973274231, -3.14, -0.00, 0.00, 0.03, 1.42, -179.91, -0.00, 0.00, 1.89, 81.47, -0.00, 0.00, -0.00, -0.88, 0.00, -0.00, -0.00, -0.00, 0.00, -0.00
25.631239652633667, -3.14, -0.00, 0.00, 0.03, 1.42, -179.91, -0.00, 0.00, 1.70, 81.47, -0.00, 0.00, -0.00, -0.79, 0.00, -0.00, -0.00, -0.00, 0.00, -0.00
25.66582703590393, -3.14, -0.00, 0.00, 0.03, 1.42, -179.91, -0.00, 0.00, 1.53, 81.47, -0.00, 0.00, -0.00, -0.71, 0.00, -0.00, -0.00, -0.00, 0.00, -0.00
25.700688123703003, -3.14, 0.00, 0.00, 0.02, 1.42, -179.91, 0.00, 0.00, 1.38, 81.47, -0.00, 0.00, -0.00, -0.64, 0.00, -0.00, -0.00, -0.00, 0.00, -0.00
25.73625636100769, -3.14, 0.00, 0.00, 0.02, 1.42, -179.91, 0.00, 0.00, 1.24, 81.47, -0.00, 0.00, -0.00, -0.58, 0.00, -0.00, -0.00, -0.00, 0.00, -0.00
25.775261878967285, -3.14, 0.00, 0.00, 0.02, 1.42, -179.91, 0.00, 0.00, 1.12, 81.47, -0.00, 0.00, -0.00, -0.52, 0.00, -0.00, -0.00, -0.00, 0.00, -0.00
25.809581995010376, -3.14, 0.00, 0.00, 0.02, 1.42, -179.91, 0.00, 0.00, 1.00, 81.47, -0.00, 0.00, -0.00, -0.47, 0.00, -0.00, -0.00, -0.00, 0.00, -0.00
25.841739177703857, -3.14, 0.00, 0.00, 0.02, 1.42, -179.91, 0.00, 0.00, 0.90, 81.47, -0.00, 0.00, -0.00, -0.42, 0.00, -0.00, -0.00, -0.00, 0.00, -0.00
25.877447843551636, -3.14, 0.00, 0.00, 0.01, 1.42, -179.91, 0.00, 0.00, 0.81, 81.47, -0.00, 0.00, -0.00, -0.38, 0.00, -0.00, -0.00, -0.00, 0.00, -0.00
25.90879988670349, -3.14, 0.00, 0.00, 0.01, 1.42, -179.91, 0.00, 0.00, 0.73, 81.47, -0.00, 0.00, -0.00, -0.34, 0.00, -0.00, -0.00, -0.00, 0.00, -0.00
25.943852186203003, -3.14, 0.00, 0.00, 0.01, 1.42, -179.91, 0.00, 0.00, 0.66, 81.47, -0.00, 0.00, -0.00, -0.31, 0.00, -0.00, -0.00, -0.00, 0.00, -0.00
25.97873067855835, -3.14, 0.00, 0.00, 0.01, 1.42, -179.91, 0.00, 0.00, 0.59, 81.47, -0.00, 0.00, -0.00, -0.28, 0.00, -0.00, -0.00, -0.00, 0.00, -0.00
26.012272834777832, -3.14, 0.00, 0.00, 0.01, 1.42, -179.91, 0.00, 0.00, 0.53, 81.47, -0.00, 0.00, -0.00, -0.25, 0.00, -0.00, -0.00, -0.00, 0.00, -0.00
26.05006170272827, -3.14, 0.00, 0.00, 0.01, 1.42, -179.91, 0.00, 0.00, 0.48, 81.47, -0.00, 0.00, -0.00, -0.22, 0.00, -0.00, -0.00, -0.00, 0.00, -0.00
26.08245873451233, -3.14, 0.00, 0.00, 0.01, 1.42, -179.91, 0.00, 0.00, 0.43, 81.47, -0.00, 0.00, -0.00, -0.20, 0.00, -0.00, -0.00, -0.00, 0.00, -0.00
26.115458965301514, -3.14, 0.00, 0.00, 0.01, 1.42, -179.91, 0.00, 0.00, 0.39, 81.47, -0.00, -0.00, -0.00, -0.18, 0.00, -0.00, -0.00, -0.00, 0.00, -0.00
26.1514573097229, -3.14, 0.00, 0.00, 0.01, 1.42, -179.91, 0.00, 0.00, 0.35, 81.47, -0.00, -0.00, -0.00, -0.16, 0.00, -0.00, -0.00, -0.00, 0.00, -0.00
26.1874577999115, -3.14, 0.00, 0.00, 0.01, 1.42, -179.91, 0.00, 0.00, 0.32, 81.47, -0.00, -0.00, -0.00, -0.15, 0.00, -0.00, -0.00, -0.00, 0.00, -0.00
26.220457315444946, -3.14, 0.00, 0.00, 0.00, 1.42, -179.91, 0.00, 0.00, 0.28, 81.47, -0.00, -0.00, -0.00, -0.13, 0.00, -0.00, -0.00, -0.00, 0.00, -0.00
