sulimanbadour1/Project_S/control/InverseKinematics/robot_joint_data.csv
Time, Joint 1 Angle (Rad), Joint 2 Angle (Rad), Joint 3 Angle (Rad), Joint 4 Angle (Rad), Joint 5 Angle (Rad), Joint 1 Angle (Deg), Joint 2 Angle (Deg), Joint 3 Angle (Deg), Joint 4 Angle (Deg), Joint 5 Angle (Deg), Joint 1 Vel, Joint 2 Vel, Joint 3 Vel, Joint 4 Vel, Joint 5 Vel, Joint 1 Eff, Joint 2 Eff, Joint 3 Eff, Joint 4 Eff, Joint 5 Eff
0.001001596450805664, -3.14, 1.57, 0.96, 0.53, 1.42, -180.02, 90.01, 54.95, 30.31, 81.48, 0.02, -0.01, 0.01, -0.01, 0.01, -49.53, -0.66, -3.49, -0.22, 0.00
0.05630970001220703, -3.14, 1.57, 0.96, 0.53, 1.42, -180.01, 90.01, 54.95, 30.31, 81.48, 0.02, -0.01, 0.01, -0.00, 0.00, -20.21, -3.36, -3.87, -0.39, -0.00
0.10728168487548828, -3.14, 1.57, 0.96, 0.53, 1.42, -180.01, 90.01, 54.95, 30.31, 81.48, 0.01, -0.01, 0.00, -0.00, 0.00, -16.17, -3.16, -3.40, -0.22, -0.00
0.1627969741821289, -3.14, 1.57, 0.96, 0.53, 1.42, -180.01, 90.00, 54.95, 30.31, 81.48, 0.01, -0.00, 0.00, -0.00, 0.00, -12.93, -3.40, -3.40, -0.22, -0.00
0.2175288200378418, -3.14, 1.57, 0.96, 0.53, 1.42, -180.01, 90.00, 54.95, 30.31, 81.48, 0.01, -0.00, 0.00, -0.00, 0.00, -10.35, -3.60, -3.40, -0.22, 0.00
0.26813364028930664, -3.14, 1.57, 0.96, 0.53, 1.42, -180.01, 90.00, 54.95, 30.31, 81.48, 0.01, -0.00, 0.00, -0.00, 0.00, -8.28, -3.77, -3.41, -0.22, 0.00
0.32012128829956055, -3.14, 1.57, 0.96, 0.53, 1.42, -180.00, 90.00, 54.95, 30.31, 81.48, 0.01, -0.00, 0.00, 0.00, 0.00, -6.62, -3.90, -3.41, -0.22, 0.00
0.3706386089324951, -3.14, 1.57, 0.96, 0.53, 1.42, -180.00, 90.00, 54.95, 30.31, 81.48, 0.00, -0.00, -0.00, 0.00, 0.00, -5.30, -4.01, -3.42, -0.22, 0.00
0.42363929748535156, -3.14, 1.57, 0.96, 0.53, 1.42, -180.00, 90.00, 54.95, 30.31, 81.48, 0.00, -0.00, -0.00, 0.00, -0.00, -4.24, -4.09, -3.42, -0.22, 0.00
0.4746382236480713, -3.14, 1.57, 0.96, 0.53, 1.42, -180.00, 90.00, 54.95, 30.31, 81.48, 0.00, -0.00, -0.00, 0.00, -0.00, -3.39, -4.16, -3.42, -0.22, 0.00
0.52463698387146, -3.14, 1.57, 0.96, 0.53, 1.42, -180.00, 90.00, 54.95, 30.31, 81.48, 0.00, -0.00, -0.00, 0.00, -0.00, -2.71, -4.22, -3.43, -0.23, 0.00
0.5786395072937012, -3.14, 1.57, 0.96, 0.53, 1.42, -180.00, 90.00, 54.95, 30.31, 81.48, 0.00, -0.00, -0.00, 0.00, -0.00, -2.17, -4.26, -3.43, -0.23, 0.00
0.633638858795166, -3.14, 1.57, 0.96, 0.53, 1.42, -180.00, 90.00, 54.95, 30.31, 81.48, 0.00, -0.00, -0.00, 0.00, -0.00, -1.74, -4.30, -3.43, -0.23, 0.00
0.6856389045715332, -3.14, 1.57, 0.96, 0.53, 1.42, -180.00, 90.00, 54.95, 30.31, 81.48, 0.00, -0.00, -0.00, 0.00, -0.00, -1.39, -4.32, -3.43, -0.23, 0.00
0.7397925853729248, -3.14, 1.57, 0.96, 0.53, 1.42, -180.00, 90.00, 54.95, 30.31, 81.48, 0.00, -0.00, -0.00, 0.00, -0.00, -1.11, -4.35, -3.44, -0.23, 0.00
0.7959845066070557, -3.14, 1.57, 0.96, 0.53, 1.42, -180.00, 90.00, 54.95, 30.31, 81.48, 0.00, -0.00, -0.00, 0.00, -0.00, -0.89, -4.37, -3.44, -0.23, 0.00
0.8502719402313232, -3.14, 1.57, 0.96, 0.53, 1.42, -180.00, 90.00, 54.95, 30.31, 81.48, 0.00, -0.00, -0.00, 0.00, -0.00, -0.71, -4.38, -3.44, -0.23, 0.00
0.9060842990875244, -3.14, 1.57, 0.96, 0.53, 1.42, -180.00, 90.00, 54.95, 30.31, 81.48, 0.00, -0.00, -0.00, 0.00, -0.00, -0.57, -4.39, -3.44, -0.23, 0.00
0.9600863456726074, -3.14, 1.57, 0.96, 0.53, 1.42, -180.00, 90.00, 54.95, 30.31, 81.48, 0.00, -0.00, -0.00, 0.00, -0.00, -0.46, -4.40, -3.44, -0.23, 0.00
1.012746810913086, -3.14, 1.57, 0.96, 0.53, 1.42, -180.00, 90.00, 54.95, 30.31, 81.48, 0.00, -0.00, -0.00, 0.00, -0.00, -0.36, -4.41, -3.44, -0.23, 0.00
1.0656020641326904, -3.14, 1.57, 0.96, 0.53, 1.42, -180.00, 90.00, 54.95, 30.31, 81.48, 0.00, -0.00, -0.00, 0.00, -0.00, -0.29, -4.42, -3.44, -0.23, 0.00
1.1176025867462158, -3.14, 1.57, 0.96, 0.53, 1.42, -180.00, 90.00, 54.95, 30.31, 81.48, 0.00, -0.00, -0.00, 0.00, -0.00, -0.23, -4.42, -3.44, -0.23, 0.00
1.175804853439331, -3.14, 1.57, 0.96, 0.53, 1.42, -180.00, 90.00, 54.95, 30.31, 81.48, 0.00, -0.00, -0.00, 0.00, -0.00, -0.19, -4.43, -3.44, -0.23, 0.00
1.239804744720459, -3.14, 1.57, 0.96, 0.53, 1.42, -180.00, 90.00, 54.95, 30.31, 81.48, 0.00, -0.00, -0.00, 0.00, -0.00, -0.15, -4.43, -3.44, -0.23, 0.00
1.2938053607940674, -3.14, 1.57, 0.96, 0.53, 1.42, -180.00, 90.00, 54.95, 30.31, 81.48, 0.00, -0.00, -0.00, 0.00, -0.00, -0.12, -4.43, -3.44, -0.23, 0.00
1.3418068885803223, -3.14, 1.57, 0.96, 0.53, 1.42, -180.00, 90.00, 54.95, 30.31, 81.48, 0.00, -0.00, -0.00, 0.00, -0.00, -0.10, -4.43, -3.44, -0.23, 0.00
1.3948051929473877, -3.14, 1.57, 0.96, 0.53, 1.42, -180.00, 90.00, 54.95, 30.31, 81.48, 0.00, -0.00, -0.00, 0.00, -0.00, -0.08, -4.44, -3.44, -0.23, 0.00
1.454732894897461, -3.14, 1.57, 0.96, 0.53, 1.42, -180.00, 90.00, 54.95, 30.31, 81.48, 0.00, -0.00, -0.00, 0.00, -0.00, -0.06, -4.44, -3.44, -0.23, 0.00
1.5098097324371338, -3.14, 1.57, 0.96, 0.53, 1.42, -180.00, 90.00, 54.95, 30.31, 81.48, 0.00, -0.00, -0.00, 0.00, -0.00, -0.05, -4.44, -3.45, -0.23, 0.00
1.5603244304656982, -3.14, 1.54, 0.96, 0.53, 1.42, -180.00, 88.12, 55.01, 30.31, 81.53, 0.00, -7.88, 0.25, 0.00, 0.24, -0.04, -1364.85, -844.91, -278.63, -0.00
1.6143221855163574, -3.14, 1.47, 0.96, 0.53, 1.42, -180.00, 84.44, 55.06, 30.31, 81.58, 0.00, -15.43, 0.22, 0.00, 0.21, -0.03, -1337.55, -822.87, -270.05, -0.00
1.6613247394561768, -3.14, 1.38, 0.96, 0.53, 1.42, -180.00, 79.22, 55.10, 30.31, 81.62, 0.00, -21.83, 0.15, 0.00, 0.15, -0.03, -1143.35, -670.35, -211.26, -0.00
1.707322359085083, -3.14, 1.27, 0.96, 0.53, 1.42, -180.00, 72.73, 55.12, 30.31, 81.64, 0.00, -27.20, 0.10, 0.00, 0.09, -0.03, -965.28, -515.30, -148.34, -0.00
1.7493245601654053, -3.14, 1.15, 0.96, 0.53, 1.42, -180.00, 65.65, 55.12, 30.31, 81.64, 0.00, -29.66, -0.02, 0.00, -0.02, -0.02, -467.92, -157.17, -17.05, -0.00
1.7878384590148926, -3.14, 1.02, 0.96, 0.53, 1.42, -180.00, 58.23, 55.11, 30.31, 81.62, 0.00, -31.07, -0.06, 0.00, -0.05, -0.02, -279.54, -11.88, 38.49, -0.00
1.8288378715515137, -3.14, 0.88, 0.96, 0.53, 1.42, -180.00, 50.23, 55.10, 30.31, 81.62, 0.00, -33.51, -0.02, 0.00, -0.02, -0.02, -454.73, -104.49, 12.19, -0.00
1.866837739944458, -3.14, 0.73, 0.96, 0.53, 1.42, -180.00, 41.61, 55.10, 30.31, 81.61, 0.00, -36.11, -0.02, 0.00, -0.02, -0.01, -488.32, -97.99, 21.50, -0.00
1.9013564586639404, -3.14, 0.57, 0.96, 0.53, 1.42, -180.00, 32.43, 55.09, 30.31, 81.61, 0.00, -38.46, -0.03, 0.00, -0.03, -0.01, -447.75, -40.31, 49.09, -0.00
1.9383513927459717, -3.14, 0.41, 0.96, 0.53, 1.42, -180.00, 23.22, 55.06, 30.31, 81.58, 0.00, -38.60, -0.11, 0.00, -0.10, -0.01, -70.87, 225.71, 145.43, -0.00
1.9743549823760986, -3.14, 0.24, 0.96, 0.53, 1.42, -180.00, 13.98, 55.04, 30.31, 81.56, 0.00, -38.71, -0.10, 0.00, -0.09, -0.01, -57.10, 237.85, 150.50, -0.00
2.0108745098114014, -3.14, 0.09, 0.96, 0.53, 1.42, -180.00, 5.18, 55.00, 30.31, 81.53, 0.00, -36.83, -0.15, 0.00, -0.14, -0.00, 284.64, 451.11, 221.31, 0.00
2.0548744201660156, -3.14, -0.06, 0.96, 0.53, 1.42, -180.00, -3.67, 54.99, 30.31, 81.51, 0.00, -37.10, -0.07, 0.00, -0.06, -0.00, -71.99, 204.72, 133.43, -0.00
2.097872257232666, -3.14, -0.21, 0.96, 0.53, 1.42, -180.00, -12.22, 54.96, 30.31, 81.49, 0.00, -35.78, -0.11, 0.00, -0.10, -0.00, 194.58, 371.14, 188.61, 0.00
2.1358745098114014, -3.14, -0.35, 0.96, 0.53, 1.42, -180.00, -20.00, 54.92, 30.31, 81.45, 0.00, -32.61, -0.15, 0.00, -0.15, -0.00, 521.51, 557.70, 246.04, 0.00
2.174874782562256, -3.14, -0.47, 0.96, 0.53, 1.42, -180.00, -27.01, 54.89, 30.31, 81.42, 0.00, -29.35, -0.14, 0.00, -0.13, -0.00, 550.09, 536.95, 229.17, 0.00
2.2128725051879883, -3.14, -0.58, 0.96, 0.53, 1.42, -180.00, -33.32, 54.87, 30.31, 81.40, 0.00, -26.41, -0.11, 0.00, -0.10, -0.00, 500.46, 468.53, 196.68, 0.00
2.2533912658691406, -3.14, -0.68, 0.96, 0.53, 1.42, -180.00, -38.99, 54.85, 30.31, 81.38, 0.00, -23.77, -0.08, 0.00, -0.07, -0.00, 453.16, 408.30, 168.65, 0.00
2.2903895378112793, -3.14, -0.77, 0.96, 0.53, 1.42, -180.00, -44.10, 54.83, 30.31, 81.37, 0.00, -21.39, -0.06, 0.00, -0.05, -0.00, 410.20, 356.66, 145.00, 0.00
2.327937602996826, -3.14, -0.85, 0.96, 0.53, 1.42, -180.00, -48.69, 54.82, 30.31, 81.36, 0.00, -19.25, -0.04, 0.00, -0.04, -0.00, 371.28, 312.31, 125.01, 0.00
2.3649349212646484, -3.14, -0.92, 0.96, 0.53, 1.42, -180.00, -52.83, 54.82, 30.31, 81.35, 0.00, -17.32, -0.03, 0.00, -0.02, -0.00, 336.05, 274.12, 108.07, 0.00
2.4065439701080322, -3.14, -0.99, 0.96, 0.53, 1.42, -180.00, -56.55, 54.81, 30.31, 81.35, 0.00, -15.59, -0.01, 0.00, -0.01, -0.00, 304.17, 241.14, 93.68, 0.00
2.4535419940948486, -3.14, -1.05, 0.96, 0.53, 1.42, -180.00, -59.90, 54.81, 30.31, 81.35, 0.00, -14.03, -0.01, 0.00, -0.01, -0.00, 275.35, 212.57, 81.41, 0.00
2.4975438117980957, -3.14, -1.10, 0.96, 0.53, 1.42, -180.00, -62.91, 54.81, 30.31, 81.35, 0.00, -12.62, 0.00, 0.00, 0.00, -0.00, 249.31, 187.78, 70.92, 0.00
2.5395431518554688, -3.14, -1.15, 0.96, 0.53, 1.42, -180.00, -65.62, 54.82, 30.31, 81.35, 0.00, -11.36, 0.01, 0.00, 0.01, -0.00, 225.78, 166.20, 61.94, 0.00
2.585575819015503, -3.14, -1.19, 0.96, 0.53, 1.42, -180.00, -68.06, 54.82, 30.31, 81.35, 0.00, -10.22, 0.01, 0.00, 0.01, -0.00, 204.54, 147.37, 54.21, 0.00
2.6335737705230713, -3.14, -1.23, 0.96, 0.53, 1.42, -180.00, -70.26, 54.82, 30.31, 81.36, 0.00, -9.20, 0.02, 0.00, 0.01, -0.00, 185.37, 130.91, 47.56, 0.00
2.6875736713409424, -3.14, -1.26, 0.96, 0.53, 1.42, -180.00, -72.23, 54.83, 30.31, 81.36, 0.00, -8.28, 0.02, 0.00, 0.02, -0.00, 168.07, 116.48, 41.80, 0.00
2.7755722999572754, -3.14, -1.29, 0.96, 0.53, 1.42, -180.00, -74.01, 54.83, 30.31, 81.37, 0.00, -7.45, 0.02, 0.00, 0.02, -0.00, 152.47, 103.81, 36.82, 0.00
2.8845725059509277, -3.14, -1.32, 0.96, 0.53, 1.42, -180.00, -75.61, 54.84, 30.31, 81.37, 0.00, -6.70, 0.02, 0.00, 0.02, -0.00, 138.40, 92.67, 32.49, 0.00
3.0236616134643555, -3.14, -1.34, 0.96, 0.53, 1.42, -180.00, -77.05, 54.84, 30.31, 81.38, 0.00, -6.03, 0.02, 0.00, 0.02, -0.00, 125.71, 82.85, 28.72, 0.00
3.1751086711883545, -3.14, -1.37, 0.96, 0.53, 1.42, -180.00, -78.35, 54.85, 30.31, 81.38, 0.00, -5.43, 0.02, 0.00, 0.02, -0.00, 114.28, 74.18, 25.43, 0.00
3.3378183841705322, -3.14, -1.39, 0.96, 0.53, 1.42, -180.00, -79.51, 54.85, 30.31, 81.39, 0.00, -4.89, 0.02, 0.00, 0.02, -0.00, 103.98, 66.51, 22.55, 0.00
3.510819435119629, -3.14, -1.39, 0.96, 0.53, 1.42, -180.00, -79.72, 54.83, 30.31, 81.36, 0.00, -0.85, -0.09, 0.00, -0.09, -0.00, 704.41, 438.59, 145.39, 0.00
3.552818775177002, -3.14, -1.21, 0.95, 0.53, 1.41, -180.00, -69.08, 54.49, 30.31, 81.05, 0.00, 44.58, -1.42, 0.00, -1.33, -0.00, 7835.64, 4868.02, 1610.60, 0.01
3.6078197956085205, -3.14, -1.01, 0.95, 0.53, 1.41, -180.00, -58.10, 54.50, 30.31, 81.05, 0.00, 45.96, 0.02, 0.00, 0.02, -0.00, 465.30, 667.70, 320.35, 0.00
3.6688191890716553, -3.14, -0.81, 0.95, 0.53, 1.41, -180.00, -46.52, 54.50, 30.31, 81.05, 0.00, 48.50, 0.01, 0.00, 0.01, -0.00, 489.26, 691.09, 331.38, 0.00
3.735337018966675, -3.14, -0.61, 0.95, 0.53, 1.41, -180.00, -34.96, 54.52, 30.31, 81.07, 0.00, 48.43, 0.08, 0.00, 0.08, -0.00, 39.46, 455.99, 265.31, 0.00
3.8950114250183105, -3.14, -0.40, 0.95, 0.53, 1.42, -180.00, -23.04, 54.52, 30.31, 81.08, 0.00, 49.93, 0.03, 0.00, 0.03, -0.00, 296.66, 613.83, 317.13, 0.00
4.037952423095703, -3.14, -0.20, 0.95, 0.53, 1.42, -180.00, -11.74, 54.56, 30.31, 81.11, 0.00, 47.34, 0.15, 0.00, 0.14, -0.00, -400.52, 208.72, 190.40, -0.00
4.157952308654785, -3.14, -0.03, 0.95, 0.53, 1.42, -180.00, -1.56, 54.61, 30.31, 81.16, 0.00, 42.63, 0.22, 0.00, 0.21, -0.00, -790.20, -80.33, 82.36, -0.00
4.27021050453186, -3.14, 0.13, 0.95, 0.53, 1.42, -180.00, 7.60, 54.66, 30.31, 81.21, 0.00, 38.37, 0.20, 0.00, 0.19, -0.00, -729.57, -121.33, 48.00, -0.00
4.377208709716797, -3.14, 0.28, 0.95, 0.53, 1.42, -180.00, 15.84, 54.70, 30.31, 81.25, 0.00, 34.53, 0.18, 0.00, 0.17, -0.00, -661.99, -142.62, 24.17, -0.00
4.490208387374878, -3.14, 0.41, 0.96, 0.53, 1.42, -180.00, 23.26, 54.74, 30.31, 81.28, 0.00, 31.08, 0.17, 0.00, 0.16, -0.00, -600.01, -155.28, 6.42, -0.00
4.587211847305298, -3.14, 0.52, 0.96, 0.53, 1.42, -180.00, 29.94, 54.78, 30.31, 81.32, 0.00, 27.97, 0.15, 0.00, 0.14, -0.00, -543.62, -161.61, -6.63, -0.00
4.692183971405029, -3.14, 0.63, 0.96, 0.53, 1.42, -180.00, 35.95, 54.81, 30.31, 81.35, 0.00, 25.17, 0.13, 0.00, 0.12, -0.00, -492.38, -163.21, -16.02, -0.00
4.820182800292969, -3.14, 0.72, 0.96, 0.53, 1.42, -180.00, 41.36, 54.84, 30.31, 81.37, 0.00, 22.65, 0.11, 0.00, 0.11, -0.00, -445.86, -161.33, -22.55, -0.00
4.9760096073150635, -3.14, 0.81, 0.96, 0.53, 1.42, -180.00, 46.22, 54.86, 30.31, 81.40, 0.00, 20.39, 0.10, 0.00, 0.09, -0.00, -403.68, -156.94, -26.88, -0.00
5.1200950145721436, -3.14, 0.88, 0.96, 0.53, 1.42, -180.00, 50.60, 54.88, 30.31, 81.41, 0.00, 18.35, 0.09, 0.00, 0.08, -0.00, -365.45, -150.81, -29.53, -0.00
5.2711570262908936, -3.14, 0.95, 0.96, 0.53, 1.42, -180.00, 54.55, 54.90, 30.31, 81.43, 0.00, 16.51, 0.07, 0.00, 0.07, -0.00, -330.83, -143.54, -30.89, -0.00
5.448659658432007, -3.14, 1.01, 0.96, 0.53, 1.42, -180.00, 58.09, 54.92, 30.31, 81.45, 0.00, 14.86, 0.06, 0.00, 0.06, -0.00, -299.51, -135.56, -31.30, -0.00
5.630659818649292, -3.14, 1.07, 0.96, 0.53, 1.42, -180.00, 61.29, 54.93, 30.31, 81.46, 0.00, 13.37, 0.05, 0.00, 0.05, -0.00, -271.18, -127.23, -31.01, -0.00
5.71366024017334, -3.14, 1.12, 0.96, 0.53, 1.42, -180.00, 64.16, 54.94, 30.31, 81.47, 0.00, 12.04, 0.05, 0.00, 0.04, -0.00, -245.58, -118.79, -30.20, -0.00
5.802661418914795, -3.14, 1.16, 0.96, 0.53, 1.42, -180.00, 66.75, 54.95, 30.31, 81.48, 0.00, 10.83, 0.04, 0.00, 0.04, -0.00, -222.45, -110.44, -29.04, -0.00
5.912706613540649, -3.14, 1.21, 0.96, 0.53, 1.42, -180.00, 69.07, 54.96, 30.31, 81.48, 0.00, 9.75, 0.03, 0.00, 0.03, -0.00, -201.56, -102.32, -27.65, -0.00
6.031703233718872, -3.14, 1.24, 0.96, 0.53, 1.42, -180.00, 71.17, 54.96, 30.31, 81.49, 0.00, 8.77, 0.03, 0.00, 0.02, -0.00, -182.71, -94.51, -26.11, -0.00
6.178390979766846, -3.14, 1.27, 0.96, 0.53, 1.42, -180.00, 73.05, 54.97, 30.31, 81.49, 0.00, 7.89, 0.02, 0.00, 0.02, -0.00, -165.70, -87.09, -24.49, -0.00
6.835691213607788, -3.14, 1.30, 0.96, 0.53, 1.42, -180.00, 74.75, 54.97, 30.31, 81.50, 0.00, 7.10, 0.02, 0.00, 0.02, -0.00, -150.35, -80.08, -22.85, -0.00
7.0050578117370605, -3.14, 1.33, 0.96, 0.53, 1.42, -180.00, 76.27, 54.97, 30.31, 81.50, 0.00, 6.39, 0.01, 0.00, 0.01, -0.00, -136.51, -73.51, -21.22, -0.00
7.174057483673096, -3.14, 1.36, 0.96, 0.53, 1.42, -180.00, 77.65, 54.98, 30.31, 81.50, 0.00, 5.75, 0.01, 0.00, 0.01, -0.00, -124.03, -67.39, -19.63, -0.00
7.342729330062866, -3.14, 1.38, 0.96, 0.53, 1.42, -180.00, 78.88, 54.98, 30.31, 81.50, 0.00, 5.18, 0.01, 0.00, 0.01, -0.00, -112.78, -61.71, -18.11, -0.00
7.499737501144409, -3.14, 1.40, 0.96, 0.53, 1.42, -180.00, 80.00, 54.98, 30.31, 81.51, 0.00, 4.66, 0.00, 0.00, 0.00, -0.00, -102.65, -56.46, -16.65, -0.00
7.661742210388184, -3.14, 1.41, 0.96, 0.53, 1.42, -180.00, 81.00, 54.98, 30.31, 81.51, 0.00, 4.19, 0.00, 0.00, 0.00, -0.00, -93.51, -51.62, -15.28, -0.00
7.834742069244385, -3.14, 1.43, 0.96, 0.53, 1.42, -180.00, 81.90, 54.98, 30.31, 81.51, 0.00, 3.77, 0.00, 0.00, 0.00, -0.00, -85.28, -47.18, -13.99, -0.00
7.99826979637146, -3.14, 1.44, 0.96, 0.53, 1.42, -180.00, 82.71, 54.98, 30.31, 81.51, 0.00, 3.40, -0.00, 0.00, -0.00, -0.00, -77.86, -43.10, -12.79, -0.00
8.16262674331665, -3.14, 1.46, 0.96, 0.53, 1.42, -180.00, 83.44, 54.98, 30.31, 81.51, 0.00, 3.06, -0.00, 0.00, -0.00, -0.00, -71.19, -39.38, -11.68, -0.00
8.344149589538574, -3.14, 1.47, 0.96, 0.53, 1.42, -180.00, 84.10, 54.98, 30.31, 81.50, 0.00, 2.75, -0.00, 0.00, -0.00, -0.00, -65.17, -35.98, -10.65, -0.00
8.537404537200928, -3.14, 1.48, 0.96, 0.53, 1.42, -180.00, 84.69, 54.98, 30.31, 81.50, 0.00, 2.48, -0.00, 0.00, -0.00, -0.00, -59.75, -32.88, -9.70, -0.00
8.699510335922241, -3.14, 1.49, 0.96, 0.53, 1.42, -180.00, 85.22, 54.98, 30.31, 81.50, 0.00, 2.23, -0.00, 0.00, -0.00, -0.00, -54.88, -30.07, -8.82, -0.00
8.880351305007935, -3.14, 1.50, 0.96, 0.53, 1.42, -180.00, 85.70, 54.98, 30.31, 81.50, 0.00, 2.00, -0.00, 0.00, -0.00, -0.00, -50.49, -27.50, -8.02, -0.00
9.048868417739868, -3.14, 1.50, 0.96, 0.53, 1.42, -180.00, 86.13, 54.97, 30.31, 81.50, 0.00, 1.80, -0.00, 0.00, -0.00, -0.00, -46.53, -25.18, -7.29, -0.00
9.223384380340576, -3.14, 1.51, 0.96, 0.53, 1.42, -180.00, 86.52, 54.97, 30.31, 81.50, 0.00, 1.62, -0.00, 0.00, -0.00, -0.00, -42.97, -23.07, -6.62, -0.00
9.397926092147827, -3.14, 1.52, 0.96, 0.53, 1.42, -180.00, 86.86, 54.97, 30.31, 81.50, 0.00, 1.46, -0.00, 0.00, -0.00, -0.00, -39.77, -21.16, -6.02, -0.00
9.582205533981323, -3.14, 1.52, 0.96, 0.53, 1.42, -180.00, 87.18, 54.97, 30.31, 81.50, 0.00, 1.31, -0.00, 0.00, -0.00, -0.00, -36.88, -19.43, -5.46, -0.00
9.74906849861145, -3.14, 1.53, 0.96, 0.53, 1.42, -180.00, 87.46, 54.97, 30.31, 81.50, 0.00, 1.18, -0.00, 0.00, -0.00, -0.00, -34.29, -17.86, -4.96, -0.00
9.92006778717041, -3.14, 1.53, 0.96, 0.53, 1.42, -180.00, 87.72, 54.97, 30.31, 81.50, 0.00, 1.06, -0.00, 0.00, -0.00, -0.00, -31.95, -16.45, -4.50, -0.00
10.086584091186523, -3.14, 1.53, 0.96, 0.53, 1.42, -180.00, 87.94, 54.97, 30.31, 81.49, 0.00, 0.96, -0.00, 0.00, -0.00, -0.00, -29.85, -15.17, -4.09, -0.00
10.255584001541138, -3.14, 1.54, 0.96, 0.53, 1.42, -180.00, 88.15, 54.97, 30.31, 81.49, 0.00, 0.86, -0.00, 0.00, -0.00, -0.00, -27.95, -14.01, -3.71, -0.00
10.30858325958252, -3.14, 1.54, 0.96, 0.53, 1.42, -180.00, 88.33, 54.97, 30.31, 81.49, 0.00, 0.78, -0.00, 0.00, -0.00, -0.00, -26.25, -12.97, -3.37, -0.00
10.363583326339722, -3.14, 1.54, 0.96, 0.53, 1.42, -180.00, 88.50, 54.97, 30.31, 81.49, 0.00, 0.70, -0.00, 0.00, -0.00, -0.00, -24.72, -12.03, -3.06, -0.00
10.417102336883545, -3.14, 1.55, 0.96, 0.53, 1.42, -180.00, 88.65, 54.96, 30.31, 81.49, 0.00, 0.63, -0.00, 0.00, -0.00, -0.00, -23.34, -11.17, -2.79, -0.00
10.466102838516235, -3.14, 1.55, 0.96, 0.53, 1.42, -180.00, 88.79, 54.96, 30.31, 81.49, 0.00, 0.57, -0.00, 0.00, -0.00, -0.00, -22.10, -10.41, -2.53, -0.00
10.527398824691772, -3.14, 1.55, 0.96, 0.53, 1.42, -180.00, 88.91, 54.96, 30.31, 81.49, 0.00, 0.51, -0.00, 0.00, -0.00, -0.00, -20.98, -9.72, -2.31, -0.00
10.586103439331055, -3.14, 1.55, 0.96, 0.53, 1.42, -180.00, 89.02, 54.96, 30.31, 81.49, 0.00, 0.46, -0.00, 0.00, -0.00, -0.00, -19.97, -9.09, -2.10, -0.00
10.637139558792114, -3.14, 1.56, 0.96, 0.53, 1.42, -180.00, 89.12, 54.96, 30.31, 81.49, 0.00, 0.41, -0.00, 0.00, -0.00, -0.00, -19.07, -8.53, -1.92, -0.00
10.691140174865723, -3.14, 1.56, 0.96, 0.53, 1.42, -180.00, 89.20, 54.96, 30.31, 81.49, 0.00, 0.37, -0.00, 0.00, -0.00, -0.00, -18.25, -8.02, -1.75, -0.00
10.737139225006104, -3.14, 1.56, 0.96, 0.53, 1.42, -180.00, 89.28, 54.96, 30.31, 81.49, 0.00, 0.33, -0.00, 0.00, -0.00, -0.00, -17.52, -7.57, -1.60, -0.00
10.787040948867798, -3.14, 1.56, 0.96, 0.53, 1.42, -180.00, 89.36, 54.96, 30.31, 81.49, 0.00, 0.30, -0.00, 0.00, -0.00, -0.00, -16.86, -7.16, -1.46, -0.00
10.835039138793945, -3.14, 1.56, 0.96, 0.53, 1.42, -180.00, 89.42, 54.96, 30.31, 81.49, 0.00, 0.27, -0.00, 0.00, -0.00, -0.00, -16.27, -6.79, -1.34, -0.00
10.885038614273071, -3.14, 1.56, 0.96, 0.53, 1.42, -180.00, 89.48, 54.96, 30.31, 81.48, 0.00, 0.24, -0.00, 0.00, -0.00, -0.00, -15.74, -6.45, -1.23, -0.00
10.941040277481079, -3.14, 1.56, 0.96, 0.53, 1.42, -180.00, 89.53, 54.96, 30.31, 81.48, 0.00, 0.22, -0.00, 0.00, -0.00, -0.00, -15.26, -6.15, -1.13, -0.00
10.994038820266724, -3.14, 1.56, 0.96, 0.53, 1.42, -180.00, 89.58, 54.96, 30.31, 81.48, 0.00, 0.20, -0.00, 0.00, -0.00, -0.00, -14.82, -5.88, -1.04, -0.00
11.043559551239014, -3.14, 1.56, 0.96, 0.53, 1.42, -180.00, 89.62, 54.96, 30.31, 81.48, 0.00, 0.18, -0.00, 0.00, -0.00, -0.00, -14.44, -5.64, -0.96, -0.00
11.092558145523071, -3.14, 1.56, 0.96, 0.53, 1.42, -180.00, 89.66, 54.96, 30.31, 81.48, 0.00, 0.16, -0.00, 0.00, -0.00, -0.00, -14.09, -5.42, -0.89, -0.00
11.143556594848633, -3.14, 1.57, 0.96, 0.53, 1.42, -180.00, 89.69, 54.95, 30.31, 81.48, 0.00, 0.14, -0.00, 0.00, -0.00, -0.00, -13.77, -5.22, -0.82, -0.00
11.193556547164917, -3.14, 1.57, 0.96, 0.53, 1.42, -180.00, 89.72, 54.95, 30.31, 81.48, 0.00, 0.13, -0.00, 0.00, -0.00, -0.00, -13.49, -5.04, -0.76, -0.00
11.247071027755737, -3.14, 1.57, 0.96, 0.53, 1.42, -180.00, 89.75, 54.95, 30.31, 81.48, 0.00, 0.12, -0.00, 0.00, -0.00, -0.00, -13.23, -4.88, -0.71, -0.00
11.301074981689453, -3.14, 1.57, 0.96, 0.53, 1.42, -180.00, 89.78, 54.95, 30.31, 81.48, 0.00, 0.10, -0.00, 0.00, -0.00, -0.00, -13.00, -4.74, -0.66, -0.00
11.353071212768555, -3.14, 1.57, 0.96, 0.53, 1.42, -180.00, 89.80, 54.95, 30.31, 81.48, 0.00, 0.09, -0.00, 0.00, -0.00, -0.00, -12.80, -4.61, -0.62, -0.00
11.41007137298584, -3.14, 1.57, 0.96, 0.53, 1.42, -180.00, 89.82, 54.95, 30.31, 81.48, 0.00, 0.08, -0.00, 0.00, -0.00, -0.00, -12.61, -4.49, -0.58, -0.00
11.467590570449829, -3.14, 1.57, 0.96, 0.53, 1.42, -180.00, 89.84, 54.95, 30.31, 81.48, 0.00, 0.08, -0.00, 0.00, -0.00, -0.00, -12.44, -4.39, -0.54, -0.00
11.523112535476685, -3.14, 1.57, 0.96, 0.53, 1.42, -180.00, 89.85, 54.95, 30.31, 81.48, 0.00, 0.07, -0.00, 0.00, -0.00, -0.00, -12.29, -4.29, -0.51, -0.00
11.576112270355225, -3.14, 1.57, 0.96, 0.53, 1.42, -180.00, 89.87, 54.95, 30.31, 81.48, 0.00, 0.06, -0.00, 0.00, -0.00, -0.00, -12.16, -4.21, -0.49, -0.00
11.634113311767578, -3.14, 1.57, 0.96, 0.53, 1.42, -180.00, 89.88, 54.95, 30.31, 81.48, 0.00, 0.06, -0.00, 0.00, -0.00, -0.00, -12.04, -4.13, -0.46, -0.00
11.684113025665283, -3.14, 1.57, 0.96, 0.53, 1.42, -180.00, 89.89, 54.95, 30.31, 81.48, 0.00, 0.05, -0.00, 0.00, -0.00, -0.00, -11.93, -4.06, -0.44, -0.00
11.741406679153442, -3.14, 1.57, 0.96, 0.53, 1.42, -180.00, 89.90, 54.95, 30.31, 81.48, 0.00, 0.05, -0.00, 0.00, -0.00, -0.00, -11.83, -4.00, -0.42, -0.00
11.797906637191772, -3.14, 1.57, 0.96, 0.53, 1.42, -180.00, 89.91, 54.95, 30.31, 81.48, 0.00, 0.04, -0.00, 0.00, -0.00, -0.00, -11.74, -3.95, -0.40, -0.00
11.853139400482178, -3.14, 1.57, 0.96, 0.53, 1.42, -180.00, 89.92, 54.95, 30.31, 81.48, 0.00, 0.04, -0.00, 0.00, -0.00, -0.00, -11.66, -3.90, -0.38, -0.00
11.905138492584229, -3.14, 1.57, 0.96, 0.53, 1.42, -180.00, 89.93, 54.95, 30.31, 81.48, 0.00, 0.03, -0.00, 0.00, -0.00, -0.00, -11.59, -3.85, -0.37, -0.00
11.956138610839844, -3.14, 1.57, 0.96, 0.53, 1.42, -180.00, 89.94, 54.95, 30.31, 81.48, 0.00, 0.03, -0.00, 0.00, -0.00, -0.00, -11.53, -3.81, -0.35, -0.00
12.004139184951782, -3.14, 1.57, 0.96, 0.53, 1.42, -180.00, 89.94, 54.95, 30.31, 81.48, 0.00, 0.03, -0.00, 0.00, -0.00, -0.00, -11.47, -3.77, -0.34, -0.00
12.05613899230957, -3.14, 1.57, 0.96, 0.53, 1.42, -180.00, 89.95, 54.95, 30.31, 81.48, 0.00, 0.02, -0.00, 0.00, -0.00, -0.00, -11.42, -3.74, -0.33, -0.00
12.113141059875488, -3.14, 1.57, 0.96, 0.53, 1.42, -180.00, 89.95, 54.95, 30.31, 81.48, 0.00, 0.02, -0.00, 0.00, -0.00, -0.00, -11.37, -3.71, -0.32, -0.00
12.162140369415283, -3.14, 1.57, 0.96, 0.53, 1.42, -180.00, 89.96, 54.95, 30.31, 81.48, 0.00, 0.02, -0.00, 0.00, -0.00, -0.00, -11.33, -3.69, -0.31, -0.00
12.216139078140259, -3.14, 1.57, 0.96, 0.53, 1.42, -180.00, 89.96, 54.95, 30.31, 81.48, 0.00, 0.02, -0.00, 0.00, -0.00, -0.00, -11.29, -3.66, -0.30, -0.00
12.267653465270996, -3.14, 1.57, 0.96, 0.53, 1.42, -180.00, 89.97, 54.95, 30.31, 81.48, 0.00, 0.02, -0.00, 0.00, -0.00, -0.00, -11.25, -3.64, -0.30, -0.00
12.319653272628784, -3.14, 1.57, 0.96, 0.53, 1.42, -180.00, 89.97, 54.95, 30.31, 81.48, 0.00, 0.01, -0.00, 0.00, -0.00, -0.00, -11.22, -3.62, -0.29, -0.00
12.370655059814453, -3.14, 1.57, 0.96, 0.53, 1.42, -180.00, 89.97, 54.95, 30.31, 81.48, 0.00, 0.01, -0.00, 0.00, -0.00, -0.00, -11.20, -3.60, -0.28, -0.00
12.424653768539429, -3.14, 1.57, 0.96, 0.53, 1.42, -180.00, 89.98, 54.95, 30.31, 81.48, 0.00, 0.01, -0.00, 0.00, -0.00, -0.00, -11.17, -3.59, -0.28, -0.00
12.474653720855713, -3.14, 1.57, 0.96, 0.53, 1.42, -180.00, 89.98, 54.95, 30.31, 81.48, 0.00, 0.01, -0.00, 0.00, -0.00, -0.00, -11.15, -3.57, -0.27, -0.00
12.521653413772583, -3.14, 1.57, 0.96, 0.53, 1.42, -180.00, 89.98, 54.95, 30.31, 81.48, 0.00, 0.01, -0.00, 0.00, -0.00, -0.00, -11.13, -3.56, -0.27, -0.00
12.571654558181763, -3.14, 1.57, 0.96, 0.53, 1.42, -180.00, 89.98, 54.95, 30.31, 81.48, 0.00, 0.01, -0.00, 0.00, -0.00, -0.00, -11.11, -3.55, -0.27, -0.00
12.62265396118164, -3.14, 1.57, 0.96, 0.53, 1.42, -180.00, 89.98, 54.95, 30.31, 81.48, 0.00, 0.01, -0.00, 0.00, -0.00, -0.00, -11.09, -3.54, -0.26, -0.00
12.672653436660767, -3.14, 1.57, 0.96, 0.53, 1.42, -180.00, 89.99, 54.95, 30.31, 81.48, 0.00, 0.01, -0.00, 0.00, -0.00, -0.00, -11.08, -3.53, -0.26, -0.00
12.721654415130615, -3.14, 1.57, 0.96, 0.53, 1.42, -180.00, 89.99, 54.95, 30.31, 81.48, 0.00, 0.01, -0.00, 0.00, -0.00, -0.00, -11.07, -3.52, -0.26, -0.00
12.773654699325562, -3.14, 1.57, 0.96, 0.53, 1.42, -180.00, 89.99, 54.95, 30.31, 81.48, 0.00, 0.01, -0.00, 0.00, -0.00, -0.00, -11.05, -3.51, -0.25, -0.00
12.833653688430786, -3.14, 1.57, 0.96, 0.53, 1.42, -180.00, 89.99, 54.95, 30.31, 81.48, 0.00, 0.00, -0.00, 0.00, -0.00, -0.00, -11.04, -3.51, -0.25, -0.00
12.888653039932251, -3.14, 1.57, 0.96, 0.53, 1.42, -180.00, 89.99, 54.95, 30.31, 81.48, 0.00, 0.00, -0.00, 0.00, -0.00, -0.00, -11.03, -3.50, -0.25, -0.00
12.935662746429443, -3.14, 1.57, 0.96, 0.53, 1.42, -180.00, 89.99, 54.95, 30.31, 81.48, 0.00, 0.00, -0.00, 0.00, -0.00, -0.00, -11.02, -3.50, -0.25, -0.00
12.986653804779053, -3.14, 1.57, 0.96, 0.53, 1.42, -180.00, 89.99, 54.95, 30.31, 81.48, 0.00, 0.00, -0.00, 0.00, -0.00, -0.00, -11.02, -3.49, -0.25, -0.00
13.039653778076172, -3.14, 1.57, 0.96, 0.53, 1.42, -180.00, 89.99, 54.95, 30.31, 81.48, 0.00, 0.00, -0.00, 0.00, -0.00, -0.00, -11.01, -3.49, -0.24, -0.00
13.090440511703491, -3.14, 1.57, 0.96, 0.53, 1.42, -180.00, 89.99, 54.95, 30.31, 81.48, 0.00, 0.00, -0.00, 0.00, -0.00, -0.00, -11.00, -3.48, -0.24, -0.00
13.143438577651978, -3.14, 1.57, 0.96, 0.53, 1.42, -180.00, 90.00, 54.95, 30.31, 81.48, 0.00, 0.00, -0.00, 0.00, -0.00, -0.00, -11.00, -3.48, -0.24, -0.00
13.192438125610352, -3.14, 1.57, 0.96, 0.53, 1.42, -180.00, 90.00, 54.95, 30.31, 81.48, 0.00, 0.00, -0.00, 0.00, -0.00, -0.00, -10.99, -3.48, -0.24, -0.00
13.242439031600952, -3.14, 1.57, 0.96, 0.53, 1.42, -180.00, 90.00, 54.95, 30.31, 81.48, 0.00, 0.00, -0.00, 0.00, -0.00, -0.00, -10.99, -3.47, -0.24, -0.00
13.289438247680664, -3.14, 1.57, 0.96, 0.53, 1.42, -180.00, 90.00, 54.95, 30.31, 81.48, 0.00, 0.00, -0.00, 0.00, -0.00, -0.00, -10.98, -3.47, -0.24, -0.00
13.33944296836853, -3.14, 1.57, 0.96, 0.53, 1.42, -180.00, 90.00, 54.95, 30.31, 81.48, 0.00, 0.00, -0.00, 0.00, -0.00, -0.00, -10.98, -3.47, -0.24, -0.00
13.389344215393066, -3.14, 1.57, 0.96, 0.53, 1.42, -180.00, 90.00, 54.95, 30.31, 81.48, 0.00, 0.00, -0.00, 0.00, -0.00, -0.00, -10.98, -3.47, -0.24, -0.00
13.439346551895142, -3.14, 1.57, 0.96, 0.53, 1.42, -180.00, 90.00, 54.95, 30.31, 81.48, 0.00, 0.00, -0.00, 0.00, -0.00, -0.00, -10.97, -3.46, -0.24, -0.00
13.489345788955688, -3.14, 1.57, 0.96, 0.53, 1.42, -180.00, 90.00, 54.95, 30.31, 81.48, 0.00, 0.00, -0.00, 0.00, -0.00, -0.00, -10.97, -3.46, -0.24, -0.00
13.546346664428711, -3.14, 1.57, 0.96, 0.53, 1.42, -180.00, 90.00, 54.95, 30.31, 81.48, 0.00, 0.00, -0.00, 0.00, -0.00, -0.00, -10.97, -3.46, -0.24, -0.00
13.604865074157715, -3.14, 1.57, 0.96, 0.53, 1.42, -180.00, 90.00, 54.95, 30.31, 81.48, 0.00, 0.00, -0.00, 0.00, -0.00, -0.00, -10.97, -3.46, -0.24, -0.00
13.657864809036255, -3.14, 1.57, 0.96, 0.53, 1.42, -180.00, 90.00, 54.95, 30.31, 81.48, 0.00, 0.00, -0.00, 0.00, -0.00, -0.00, -10.97, -3.46, -0.24, -0.00
13.712866306304932, -3.14, 1.57, 0.96, 0.53, 1.42, -180.00, 90.00, 54.95, 30.31, 81.48, 0.00, 0.00, -0.00, 0.00, -0.00, -0.00, -10.96, -3.46, -0.23, -0.00
13.78986668586731, -3.14, 1.57, 0.96, 0.53, 1.42, -180.00, 90.00, 54.95, 30.31, 81.48, 0.00, 0.00, -0.00, 0.00, -0.00, -0.00, -10.96, -3.46, -0.23, -0.00
13.844866514205933, -3.14, 1.57, 0.96, 0.53, 1.42, -180.00, 90.00, 54.95, 30.31, 81.48, 0.00, 0.00, -0.00, 0.00, -0.00, -0.00, -10.96, -3.46, -0.23, -0.00
13.899268865585327, -3.14, 1.57, 0.96, 0.53, 1.42, -180.00, 90.00, 54.95, 30.31, 81.48, 0.00, 0.00, -0.00, 0.00, -0.00, -0.00, -10.96, -3.45, -0.23, -0.00
13.953493595123291, -3.14, 1.57, 0.96, 0.53, 1.42, -180.00, 90.00, 54.95, 30.31, 81.48, 0.00, 0.00, -0.00, 0.00, -0.00, -0.00, -10.96, -3.45, -0.23, -0.00
14.009149551391602, -3.14, 1.57, 0.96, 0.53, 1.42, -180.00, 90.00, 54.95, 30.31, 81.48, 0.00, 0.00, -0.00, 0.00, -0.00, -0.00, -10.96, -3.45, -0.23, -0.00
14.066147565841675, -3.14, 1.57, 0.96, 0.53, 1.42, -180.00, 90.00, 54.95, 30.31, 81.48, 0.00, 0.00, -0.00, 0.00, -0.00, -0.00, -10.96, -3.45, -0.23, -0.00
14.120148420333862, -3.14, 1.57, 0.96, 0.53, 1.42, -180.00, 90.00, 54.95, 30.31, 81.48, 0.00, 0.00, -0.00, 0.00, -0.00, -0.00, -10.95, -3.45, -0.23, -0.00
14.175148725509644, -3.14, 1.57, 0.96, 0.53, 1.42, -180.00, 90.00, 54.95, 30.31, 81.48, 0.00, 0.00, -0.00, 0.00, -0.00, -0.00, -10.95, -3.45, -0.23, -0.00
14.233147859573364, -3.14, 1.57, 0.96, 0.53, 1.42, -180.00, 90.00, 54.95, 30.31, 81.48, 0.00, 0.00, -0.00, 0.00, -0.00, -0.00, -10.95, -3.45, -0.23, -0.00
14.290149211883545, -3.14, 1.57, 0.96, 0.53, 1.42, -180.00, 90.00, 54.95, 30.31, 81.48, 0.00, 0.00, -0.00, 0.00, -0.00, -0.00, -10.95, -3.45, -0.23, -0.00
14.34314775466919, -3.14, 1.57, 0.96, 0.53, 1.42, -180.00, 90.00, 54.95, 30.31, 81.48, 0.00, -0.00, -0.00, -0.00, -0.00, -0.00, -4.49, -3.49, -0.25, -0.00
14.390147686004639, -3.14, 1.57, 0.96, 0.53, 1.42, -180.00, 90.00, 54.95, 30.31, 81.48, 0.00, -0.00, -0.00, -0.00, -0.00, -0.00, -4.44, -3.45, -0.23, 0.00
14.44019079208374, -3.14, 1.57, 0.96, 0.53, 1.42, -180.00, 90.00, 54.95, 30.31, 81.48, 0.00, -0.00, -0.00, -0.00, -0.00, -0.00, -4.44, -3.45, -0.23, 0.00
14.492194890975952, -3.14, 1.57, 0.96, 0.53, 1.42, -180.00, 90.00, 54.95, 30.31, 81.48, 0.00, -0.00, -0.00, -0.00, -0.00, -0.00, -4.44, -3.45, -0.23, 0.00
14.543190956115723, -3.14, 1.57, 0.96, 0.53, 1.42, -180.00, 90.00, 54.95, 30.31, 81.48, 0.00, -0.00, -0.00, -0.00, -0.00, -0.00, -4.44, -3.45, -0.23, 0.00
14.597192287445068, -3.14, 1.57, 0.96, 0.53, 1.42, -180.00, 90.00, 54.95, 30.31, 81.48, 0.00, -0.00, -0.00, -0.00, -0.00, -0.00, -4.44, -3.45, -0.23, 0.00
14.64919137954712, -3.14, 1.57, 0.96, 0.53, 1.42, -180.00, 90.00, 54.95, 30.31, 81.48, 0.00, -0.00, -0.00, -0.00, -0.00, -0.00, -4.44, -3.45, -0.23, 0.00
14.704208850860596, -3.14, 1.57, 0.96, 0.53, 1.42, -180.00, 90.00, 54.95, 30.31, 81.48, 0.00, -0.00, -0.00, -0.00, -0.00, -0.00, -4.44, -3.45, -0.23, 0.00
14.759804487228394, -3.14, 1.57, 0.96, 0.53, 1.42, -180.00, 90.00, 54.95, 30.31, 81.48, 0.00, -0.00, -0.00, -0.00, -0.00, -0.00, -4.44, -3.45, -0.23, 0.00
14.808324813842773, -3.14, 1.57, 0.96, 0.53, 1.42, -180.00, 90.00, 54.95, 30.31, 81.48, 0.00, -0.00, -0.00, -0.00, -0.00, -0.00, -4.44, -3.45, -0.23, 0.00
14.860023498535156, -3.14, 1.57, 0.96, 0.53, 1.42, -180.00, 90.00, 54.95, 30.31, 81.48, 0.00, -0.00, -0.00, -0.00, -0.00, -0.00, -4.44, -3.45, -0.23, 0.00
14.911993026733398, -3.14, 1.57, 0.96, 0.53, 1.42, -180.00, 90.00, 54.95, 30.31, 81.48, 0.00, -0.00, -0.00, -0.00, -0.00, -0.00, -4.44, -3.45, -0.23, 0.00
14.96399474143982, -3.14, 1.57, 0.96, 0.53, 1.42, -180.00, 90.00, 54.95, 30.31, 81.48, 0.00, -0.00, -0.00, -0.00, -0.00, -0.00, -4.44, -3.45, -0.23, 0.00
15.017991304397583, -3.14, 1.57, 0.96, 0.53, 1.42, -180.00, 90.00, 54.95, 30.31, 81.48, 0.00, -0.00, -0.00, -0.00, -0.00, -0.00, -4.44, -3.45, -0.23, 0.00
15.06999135017395, -3.14, 1.57, 0.96, 0.53, 1.42, -180.00, 90.00, 54.95, 30.31, 81.48, 0.00, -0.00, -0.00, -0.00, -0.00, -0.00, -4.44, -3.45, -0.23, 0.00
15.126711368560791, -3.14, 1.57, 0.96, 0.53, 1.42, -180.00, 90.00, 54.95, 30.31, 81.48, 0.00, -0.00, -0.00, -0.00, -0.00, -0.00, -4.44, -3.45, -0.23, 0.00
15.183117151260376, -3.14, 1.57, 0.96, 0.53, 1.42, -180.00, 90.00, 54.95, 30.31, 81.48, 0.00, -0.00, -0.00, -0.00, -0.00, -0.00, -4.44, -3.45, -0.23, 0.00
15.238117456436157, -3.14, 1.57, 0.96, 0.53, 1.42, -180.00, 90.00, 54.95, 30.31, 81.48, 0.00, -0.00, -0.00, -0.00, -0.00, -0.00, -4.45, -3.45, -0.23, 0.00
15.293117046356201, -3.14, 1.57, 0.96, 0.53, 1.42, -180.00, 90.00, 54.95, 30.31, 81.48, 0.00, -0.00, -0.00, -0.00, -0.00, -0.00, -4.45, -3.45, -0.23, 0.00
15.345117092132568, -3.14, 1.57, 0.96, 0.53, 1.42, -180.00, 90.00, 54.95, 30.31, 81.48, 0.00, -0.00, -0.00, -0.00, -0.00, -0.00, -4.45, -3.45, -0.23, 0.00
15.39711618423462, -3.14, 1.57, 0.96, 0.53, 1.42, -180.00, 90.00, 54.95, 30.31, 81.48, 0.00, -0.00, -0.00, -0.00, -0.00, -0.00, -4.45, -3.45, -0.23, 0.00
15.452131986618042, -3.14, 1.57, 0.96, 0.53, 1.42, -180.00, 90.00, 54.95, 30.31, 81.48, 0.00, -0.00, -0.00, -0.00, -0.00, -0.00, -4.45, -3.45, -0.23, 0.00
15.503046989440918, -3.14, 1.57, 0.96, 0.53, 1.42, -180.00, 90.00, 54.95, 30.31, 81.48, 0.00, -0.00, -0.00, -0.00, -0.00, -0.00, -4.45, -3.45, -0.23, 0.00
15.55459213256836, -3.14, 1.57, 0.96, 0.53, 1.42, -180.00, 90.00, 54.95, 30.31, 81.48, 0.00, -0.00, -0.00, -0.00, -0.00, -0.00, -4.45, -3.45, -0.23, 0.00
15.604525804519653, -3.14, 1.57, 0.96, 0.53, 1.42, -180.00, 90.00, 54.95, 30.31, 81.48, 0.00, -0.00, -0.00, -0.00, -0.00, -0.00, -4.45, -3.45, -0.23, 0.00
15.655538558959961, -3.14, 1.57, 0.96, 0.53, 1.42, -180.00, 90.00, 54.95, 30.31, 81.48, 0.00, -0.00, -0.00, -0.00, -0.00, -0.00, -4.45, -3.45, -0.23, 0.00
15.71054720878601, -3.14, 1.57, 0.96, 0.53, 1.42, -180.00, 90.00, 54.95, 30.31, 81.48, 0.00, -0.00, -0.00, -0.00, -0.00, -0.00, -4.45, -3.45, -0.23, 0.00
15.761563539505005, -3.14, 1.57, 0.96, 0.53, 1.42, -180.00, 90.00, 54.95, 30.31, 81.48, 0.00, -0.00, -0.00, -0.00, -0.00, -0.00, -4.45, -3.45, -0.23, 0.00
15.812557458877563, -3.14, 1.57, 0.96, 0.53, 1.42, -180.00, 90.00, 54.95, 30.31, 81.48, 0.00, -0.00, -0.00, -0.00, -0.00, -0.00, -4.45, -3.45, -0.23, 0.00
15.864559650421143, -3.14, 1.57, 0.96, 0.53, 1.42, -180.00, 90.00, 54.95, 30.31, 81.48, 0.00, -0.00, -0.00, -0.00, -0.00, -0.00, -4.45, -3.45, -0.23, 0.00
15.921558618545532, -3.14, 1.57, 0.96, 0.53, 1.42, -180.00, 90.00, 54.95, 30.31, 81.48, 0.00, -0.00, -0.00, -0.00, -0.00, -0.00, -4.45, -3.45, -0.23, 0.00
15.977558612823486, -3.14, 1.57, 0.96, 0.53, 1.42, -180.00, 90.00, 54.95, 30.31, 81.48, 0.00, -0.00, -0.00, -0.00, -0.00, -0.00, -4.45, -3.45, -0.23, 0.00
16.03326964378357, -3.14, 1.57, 0.96, 0.53, 1.42, -180.00, 90.00, 54.95, 30.31, 81.48, 0.00, -0.00, -0.00, -0.00, -0.00, -0.00, -4.45, -3.45, -0.23, 0.00
16.091265201568604, -3.14, 1.57, 0.96, 0.53, 1.42, -180.00, 90.00, 54.95, 30.31, 81.48, 0.00, -0.00, -0.00, -0.00, -0.00, -0.00, -4.45, -3.45, -0.23, 0.00
16.147804737091064, -3.14, 1.57, 0.96, 0.53, 1.42, -180.00, 90.00, 54.95, 30.31, 81.48, 0.00, -0.00, -0.00, -0.00, -0.00, -0.00, -4.45, -3.45, -0.23, 0.00
16.20444917678833, -3.14, 1.57, 0.96, 0.53, 1.42, -180.00, 90.00, 54.95, 30.31, 81.48, 0.00, -0.00, -0.00, -0.00, -0.00, -0.00, -4.45, -3.45, -0.23, 0.00
16.260448932647705, -3.14, 1.57, 0.96, 0.53, 1.42, -180.00, 90.00, 54.95, 30.31, 81.48, 0.00, -0.00, -0.00, -0.00, -0.00, -0.00, -4.45, -3.45, -0.23, 0.00
16.313448429107666, -3.14, 1.57, 0.96, 0.53, 1.42, -180.00, 90.00, 54.95, 30.31, 81.48, 0.00, -0.00, -0.00, -0.00, -0.00, -0.00, -4.45, -3.45, -0.23, 0.00
16.362998962402344, -3.14, 1.57, 0.96, 0.53, 1.42, -180.00, 90.00, 54.95, 30.31, 81.48, 0.00, -0.00, -0.00, -0.00, -0.00, -0.00, -4.45, -3.45, -0.23, 0.00
16.412965536117554, -3.14, 1.57, 0.96, 0.53, 1.42, -180.00, 90.00, 54.95, 30.31, 81.48, 0.00, -0.00, -0.00, -0.00, -0.00, -0.00, -4.45, -3.45, -0.23, 0.00
16.46248507499695, -3.14, 1.57, 0.96, 0.53, 1.42, -180.00, 90.00, 54.95, 30.31, 81.48, 0.00, -0.00, -0.00, -0.00, -0.00, -0.00, -4.45, -3.45, -0.23, 0.00
16.50948429107666, -3.14, 1.57, 0.96, 0.53, 1.42, -180.00, 90.00, 54.95, 30.31, 81.48, 0.00, -0.00, -0.00, -0.00, -0.00, -0.00, -4.45, -3.45, -0.23, 0.00
16.556485176086426, -3.14, 1.57, 0.96, 0.53, 1.42, -180.00, 90.00, 54.95, 30.31, 81.48, 0.00, -0.00, -0.00, -0.00, -0.00, -0.00, -4.45, -3.45, -0.23, 0.00
16.606484413146973, -3.14, 1.57, 0.96, 0.53, 1.42, -180.00, 90.00, 54.95, 30.31, 81.48, 0.00, -0.00, -0.00, -0.00, -0.00, -0.00, -4.45, -3.45, -0.23, 0.00
16.655483722686768, -3.14, 1.57, 0.96, 0.53, 1.42, -180.00, 90.00, 54.95, 30.31, 81.48, 0.00, -0.00, -0.00, -0.00, -0.00, -0.00, -4.45, -3.45, -0.23, 0.00
16.706406831741333, -3.14, 1.57, 0.96, 0.53, 1.42, -180.00, 90.00, 54.95, 30.31, 81.48, 0.00, -0.00, -0.00, -0.00, -0.00, -0.00, -4.45, -3.45, -0.23, 0.00
16.75440216064453, -3.14, 1.57, 0.96, 0.53, 1.42, -180.00, 90.00, 54.95, 30.31, 81.48, 0.00, -0.00, -0.00, -0.00, -0.00, -0.00, -4.45, -3.45, -0.23, 0.00
16.804402828216553, -3.14, 1.57, 0.96, 0.53, 1.42, -180.00, 90.00, 54.95, 30.31, 81.48, 0.00, -0.00, -0.00, -0.00, -0.00, -0.00, -4.45, -3.45, -0.23, 0.00
16.853403091430664, -3.14, 1.57, 0.96, 0.53, 1.42, -180.00, 90.00, 54.95, 30.31, 81.48, 0.00, -0.00, -0.00, -0.00, -0.00, -0.00, -4.45, -3.45, -0.23, 0.00
16.903402090072632, -3.14, 1.57, 0.96, 0.53, 1.42, -180.00, 90.00, 54.95, 30.31, 81.48, 0.00, -0.00, -0.00, -0.00, -0.00, -0.00, -4.45, -3.45, -0.23, 0.00
16.95540189743042, -3.14, 1.57, 0.96, 0.53, 1.42, -180.00, 90.00, 54.95, 30.31, 81.48, 0.00, -0.00, -0.00, -0.00, -0.00, -0.00, -4.45, -3.45, -0.23, 0.00
17.00542187690735, -3.14, 1.57, 0.96, 0.53, 1.42, -180.00, 90.00, 54.95, 30.31, 81.48, 0.00, -0.00, -0.00, -0.00, -0.00, -0.00, -4.45, -3.45, -0.23, 0.00
17.057419776916504, -3.14, 1.57, 0.96, 0.53, 1.42, -180.00, 90.00, 54.95, 30.31, 81.48, 0.00, -0.00, -0.00, -0.00, -0.00, -0.00, -4.45, -3.45, -0.23, 0.00
17.106420278549194, -3.14, 1.57, 0.96, 0.53, 1.42, -180.00, 90.00, 54.95, 30.31, 81.48, 0.00, -0.00, -0.00, -0.00, -0.00, -0.00, -4.45, -3.45, -0.23, 0.00
17.157419204711914, -3.14, 1.57, 0.96, 0.53, 1.42, -180.00, 90.00, 54.95, 30.31, 81.48, 0.00, -0.00, -0.00, -0.00, -0.00, -0.00, -4.45, -3.45, -0.23, 0.00
17.207422971725464, -3.14, 1.57, 0.96, 0.53, 1.42, -180.00, 90.00, 54.95, 30.31, 81.48, 0.00, -0.00, -0.00, -0.00, -0.00, -0.00, -4.45, -3.45, -0.23, 0.00
17.26241946220398, -3.14, 1.57, 0.96, 0.53, 1.42, -180.00, 90.00, 54.95, 30.31, 81.48, 0.00, -0.00, -0.00, -0.00, -0.00, -0.00, -4.45, -3.45, -0.23, 0.00
17.320420742034912, -3.14, 1.57, 0.96, 0.53, 1.42, -180.00, 90.00, 54.95, 30.31, 81.48, 0.00, -0.00, -0.00, -0.00, -0.00, -0.00, -4.45, -3.45, -0.23, 0.00
17.378427028656006, -3.14, 1.57, 0.96, 0.53, 1.42, -180.00, 90.00, 54.95, 30.31, 81.48, 0.00, -0.00, -0.00, -0.00, -0.00, -0.00, -4.45, -3.45, -0.23, 0.00
17.436418294906616, -3.14, 1.57, 0.96, 0.53, 1.42, -180.00, 90.00, 54.95, 30.31, 81.48, 0.00, -0.00, -0.00, -0.00, -0.00, -0.00, -4.45, -3.45, -0.23, 0.00
17.49042296409607, -3.14, 1.57, 0.96, 0.53, 1.42, -180.00, 90.00, 54.95, 30.31, 81.48, 0.00, -0.00, -0.00, -0.00, -0.00, -0.00, -4.45, -3.45, -0.23, 0.00
17.54542112350464, -3.14, 1.57, 0.96, 0.53, 1.42, -180.00, 90.00, 54.95, 30.31, 81.48, 0.00, -0.00, -0.00, -0.00, -0.00, -0.00, -4.45, -3.45, -0.23, 0.00
17.594419956207275, -3.14, 1.57, 0.96, 0.53, 1.42, -180.00, 90.00, 54.95, 30.31, 81.48, 0.00, -0.00, -0.00, -0.00, -0.00, -0.00, -4.45, -3.45, -0.23, 0.00
17.644272804260254, -3.14, 1.57, 0.96, 0.53, 1.42, -180.00, 90.00, 54.95, 30.31, 81.48, 0.00, -0.00, -0.00, -0.00, -0.00, -0.00, -4.45, -3.45, -0.23, 0.00
17.69227957725525, -3.14, 1.57, 0.96, 0.53, 1.42, -180.00, 90.00, 54.95, 30.31, 81.48, 0.00, -0.00, -0.00, -0.00, -0.00, -0.00, -4.45, -3.45, -0.23, 0.00
17.740303993225098, -3.14, 1.57, 0.96, 0.53, 1.42, -180.00, 90.00, 54.95, 30.31, 81.48, 0.00, -0.00, -0.00, -0.00, -0.00, -0.00, -4.45, -3.45, -0.23, 0.00
17.790644645690918, -3.14, 1.57, 0.96, 0.53, 1.42, -180.00, 90.00, 54.95, 30.31, 81.48, 0.00, -0.00, -0.00, -0.00, -0.00, -0.00, -4.45, -3.45, -0.23, 0.00
17.841645002365112, -3.14, 1.57, 0.96, 0.53, 1.42, -180.00, 90.00, 54.95, 30.31, 81.48, 0.00, -0.00, -0.00, -0.00, -0.00, -0.00, -4.45, -3.45, -0.23, 0.00
17.892645359039307, -3.14, 1.57, 0.96, 0.53, 1.42, -180.00, 90.00, 54.95, 30.31, 81.48, 0.00, -0.00, -0.00, -0.00, -0.00, -0.00, -4.45, -3.45, -0.23, 0.00
17.944643020629883, -3.14, 1.57, 0.96, 0.53, 1.42, -180.00, 90.00, 54.95, 30.31, 81.48, 0.00, -0.00, -0.00, -0.00, -0.00, -0.00, -4.45, -3.45, -0.23, 0.00
17.996152639389038, -3.14, 1.57, 0.96, 0.53, 1.42, -180.00, 90.00, 54.95, 30.31, 81.48, 0.00, -0.00, -0.00, -0.00, -0.00, -0.00, -4.45, -3.45, -0.23, 0.00
18.046152114868164, -3.14, 1.57, 0.96, 0.53, 1.42, -180.00, 90.00, 54.95, 30.31, 81.48, 0.00, -0.00, -0.00, -0.00, -0.00, -0.00, -4.45, -3.45, -0.23, 0.00
18.09815263748169, -3.14, 1.57, 0.96, 0.53, 1.42, -180.00, 90.00, 54.95, 30.31, 81.48, 0.00, -0.00, -0.00, -0.00, -0.00, -0.00, -4.45, -3.45, -0.23, 0.00
18.15417456626892, -3.14, 1.57, 0.96, 0.53, 1.42, -180.00, 90.00, 54.95, 30.31, 81.48, 0.00, -0.00, -0.00, -0.00, -0.00, -0.00, -4.45, -3.45, -0.23, 0.00
18.21144151687622, -3.14, 1.57, 0.96, 0.53, 1.42, -180.00, 90.00, 54.95, 30.31, 81.48, 0.00, -0.00, -0.00, -0.00, -0.00, -0.00, -4.45, -3.45, -0.23, 0.00
18.267435312271118, -3.14, 1.57, 0.96, 0.53, 1.42, -180.00, 90.00, 54.95, 30.31, 81.48, 0.00, -0.00, -0.00, -0.00, -0.00, -0.00, -4.45, -3.45, -0.23, 0.00
18.328434228897095, -3.14, 1.57, 0.96, 0.53, 1.42, -180.00, 90.00, 54.95, 30.31, 81.48, 0.00, -0.00, -0.00, -0.00, -0.00, -0.00, -4.45, -3.45, -0.23, 0.00
18.384899854660034, -3.14, 1.57, 0.96, 0.53, 1.42, -180.00, 90.00, 54.95, 30.31, 81.48, 0.00, -0.00, -0.00, -0.00, -0.00, -0.00, -4.45, -3.45, -0.23, 0.00
18.43413257598877, -3.14, 1.57, 0.96, 0.53, 1.42, -180.00, 90.00, 54.95, 30.31, 81.48, 0.00, -0.00, -0.00, -0.00, -0.00, -0.00, -4.45, -3.45, -0.23, 0.00
18.48465394973755, -3.14, 1.57, 0.96, 0.53, 1.42, -180.00, 90.00, 54.95, 30.31, 81.48, 0.00, -0.00, -0.00, -0.00, -0.00, -0.00, -4.45, -3.45, -0.23, 0.00
18.537655115127563, -3.14, 1.57, 0.96, 0.53, 1.42, -180.00, 90.00, 54.95, 30.31, 81.48, 0.00, -0.00, -0.00, -0.00, -0.00, -0.00, -4.45, -3.45, -0.23, 0.00
18.586654901504517, -3.14, 1.57, 0.96, 0.53, 1.42, -180.00, 90.00, 54.95, 30.31, 81.48, 0.00, -0.00, -0.00, -0.00, -0.00, -0.00, -4.45, -3.45, -0.23, 0.00
18.633655548095703, -3.14, 1.57, 0.96, 0.53, 1.42, -180.00, 90.00, 54.95, 30.31, 81.48, 0.00, -0.00, -0.00, -0.00, -0.00, -0.00, -4.45, -3.45, -0.23, 0.00
18.68165373802185, -3.14, 1.57, 0.96, 0.53, 1.42, -180.00, 90.00, 54.95, 30.31, 81.48, 0.00, -0.00, -0.00, -0.00, -0.00, -0.00, -4.45, -3.45, -0.23, 0.00
18.738654375076294, -3.14, 1.57, 0.96, 0.53, 1.42, -180.00, 90.00, 54.95, 30.31, 81.48, 0.00, -0.00, -0.00, -0.00, -0.00, -0.00, -4.45, -3.45, -0.23, 0.00
18.787170886993408, -3.14, 1.57, 0.96, 0.53, 1.42, -180.00, 90.00, 54.95, 30.31, 81.48, 0.00, -0.00, -0.00, -0.00, -0.00, -0.00, -4.45, -3.45, -0.23, 0.00
18.838169813156128, -3.14, 1.57, 0.96, 0.53, 1.42, -180.00, 90.00, 54.95, 30.31, 81.48, 0.00, -0.00, -0.00, -0.00, -0.00, -0.00, -4.45, -3.45, -0.23, 0.00
18.898174047470093, -3.14, 1.57, 0.96, 0.53, 1.42, -180.00, 90.00, 54.95, 30.31, 81.48, 0.00, -0.00, -0.00, -0.00, -0.00, -0.00, -4.45, -3.45, -0.23, 0.00
18.950169801712036, -3.14, 1.57, 0.96, 0.53, 1.42, -180.00, 90.00, 54.95, 30.31, 81.48, 0.00, -0.00, -0.00, -0.00, -0.00, -0.00, -4.45, -3.45, -0.23, 0.00
19.004687309265137, -3.14, 1.57, 0.96, 0.53, 1.42, -180.00, 90.00, 54.95, 30.31, 81.48, 0.00, -0.00, -0.00, -0.00, -0.00, -0.00, -4.45, -3.45, -0.23, 0.00
19.05423855781555, -3.14, 1.57, 0.96, 0.53, 1.42, -180.00, 90.00, 54.95, 30.31, 81.48, 0.00, -0.00, -0.00, -0.00, -0.00, -0.00, -4.45, -3.45, -0.23, 0.00
19.108203887939453, -3.14, 1.57, 0.96, 0.53, 1.42, -180.00, 90.00, 54.95, 30.31, 81.48, 0.00, -0.00, -0.00, -0.00, -0.00, -0.00, -4.45, -3.45, -0.23, 0.00
19.160204648971558, -3.14, 1.57, 0.96, 0.53, 1.42, -180.00, 90.00, 54.95, 30.31, 81.48, 0.00, -0.00, -0.00, -0.00, -0.00, -0.00, -4.45, -3.45, -0.23, 0.00
19.213204860687256, -3.14, 1.57, 0.96, 0.53, 1.42, -180.00, 90.00, 54.95, 30.31, 81.48, 0.00, -0.00, -0.00, -0.00, -0.00, -0.00, -4.45, -3.45, -0.23, 0.00
19.266205549240112, -3.14, 1.57, 0.96, 0.53, 1.42, -180.00, 90.00, 54.95, 30.31, 81.48, 0.00, -0.00, -0.00, -0.00, -0.00, -0.00, -4.45, -3.45, -0.23, 0.00
19.316203594207764, -3.14, 1.57, 0.96, 0.53, 1.42, -180.00, 90.00, 54.95, 30.31, 81.48, 0.00, -0.00, -0.00, -0.00, -0.00, -0.00, -4.45, -3.45, -0.23, 0.00
19.372204303741455, -3.14, 1.57, 0.96, 0.53, 1.42, -180.00, 90.00, 54.95, 30.31, 81.48, 0.00, -0.00, -0.00, -0.00, -0.00, -0.00, -4.45, -3.45, -0.23, 0.00
19.425203800201416, -3.14, 1.57, 0.96, 0.53, 1.42, -180.00, 90.00, 54.95, 30.31, 81.48, 0.00, -0.00, -0.00, -0.00, -0.00, -0.00, -4.45, -3.45, -0.23, 0.00
19.472203969955444, -3.14, 1.57, 0.96, 0.53, 1.42, -180.00, 90.00, 54.95, 30.31, 81.48, 0.00, -0.00, -0.00, -0.00, -0.00, -0.00, -4.45, -3.45, -0.23, 0.00
19.526204586029053, -3.14, 1.57, 0.96, 0.53, 1.42, -180.00, 90.00, 54.95, 30.31, 81.48, 0.00, -0.00, -0.00, -0.00, -0.00, -0.00, -4.45, -3.45, -0.23, 0.00
19.575765371322632, -3.14, 1.57, 0.96, 0.53, 1.42, -180.00, 90.00, 54.95, 30.31, 81.48, 0.00, -0.00, -0.00, -0.00, -0.00, -0.00, -4.45, -3.45, -0.23, 0.00
19.62676239013672, -3.14, 1.57, 0.96, 0.53, 1.42, -180.00, 90.00, 54.95, 30.31, 81.48, 0.00, -0.00, -0.00, -0.00, -0.00, -0.00, -4.45, -3.45, -0.23, 0.00
19.675764083862305, -3.14, 1.57, 0.96, 0.53, 1.42, -180.00, 90.00, 54.95, 30.31, 81.48, 0.00, -0.00, -0.00, -0.00, -0.00, -0.00, -4.45, -3.45, -0.23, 0.00
19.731762170791626, -3.14, 1.57, 0.96, 0.53, 1.42, -180.00, 90.00, 54.95, 30.31, 81.48, 0.00, -0.00, -0.00, -0.00, -0.00, -0.00, -4.45, -3.45, -0.23, 0.00
19.783764839172363, -3.14, 1.57, 0.96, 0.53, 1.42, -180.00, 90.00, 54.95, 30.31, 81.48, 0.00, -0.00, -0.00, -0.00, -0.00, -0.00, -4.45, -3.45, -0.23, 0.00
19.83676767349243, -3.14, 1.57, 0.96, 0.53, 1.42, -180.00, 90.00, 54.95, 30.31, 81.48, 0.00, -0.00, -0.00, -0.00, -0.00, -0.00, -4.45, -3.45, -0.23, 0.00
19.889763355255127, -3.14, 1.57, 0.96, 0.53, 1.42, -180.00, 90.00, 54.95, 30.31, 81.48, 0.00, -0.00, -0.00, -0.00, -0.00, -0.00, -4.45, -3.45, -0.23, 0.00
19.94076371192932, -3.14, 1.57, 0.96, 0.53, 1.42, -180.00, 90.00, 54.95, 30.31, 81.48, 0.00, -0.00, -0.00, -0.00, -0.00, -0.00, -4.45, -3.45, -0.23, 0.00
19.997763633728027, -3.14, 1.57, 0.96, 0.53, 1.42, -180.00, 90.00, 54.95, 30.31, 81.48, 0.00, -0.00, -0.00, -0.00, -0.00, -0.00, -4.45, -3.45, -0.23, 0.00
20.048763513565063, -3.14, 1.57, 0.96, 0.53, 1.42, -180.00, 90.00, 54.95, 30.31, 81.48, 0.00, -0.00, -0.00, -0.00, -0.00, -0.00, -4.45, -3.45, -0.23, 0.00
20.099764108657837, -3.14, 1.57, 0.96, 0.53, 1.42, -180.00, 90.00, 54.95, 30.31, 81.48, 0.00, -0.00, -0.00, -0.00, -0.00, -0.00, -4.45, -3.45, -0.23, 0.00
20.15476417541504, -3.14, 1.57, 0.96, 0.53, 1.42, -180.00, 90.00, 54.95, 30.31, 81.48, 0.00, -0.00, -0.00, -0.00, -0.00, -0.00, -4.45, -3.45, -0.23, 0.00
20.252764463424683, -3.14, 1.57, 0.96, 0.53, 1.42, -180.00, 90.00, 54.95, 30.31, 81.48, 0.00, -0.00, -0.00, -0.00, -0.00, -0.00, -4.45, -3.45, -0.23, 0.00
20.307765007019043, -3.14, 1.57, 0.96, 0.53, 1.42, -180.00, 90.00, 54.95, 30.31, 81.48, 0.00, -0.00, -0.00, -0.00, -0.00, -0.00, -4.45, -3.45, -0.23, 0.00
20.359763860702515, -3.14, 1.57, 0.96, 0.53, 1.42, -180.00, 90.00, 54.95, 30.31, 81.48, 0.00, -0.00, -0.00, -0.00, -0.00, -0.00, -4.45, -3.45, -0.23, 0.00
20.40876293182373, -3.14, 1.57, 0.96, 0.53, 1.42, -180.00, 90.00, 54.95, 30.31, 81.48, 0.00, -0.00, -0.00, -0.00, -0.00, -0.00, -4.45, -3.45, -0.23, 0.00
20.46476411819458, -3.14, 1.57, 0.96, 0.53, 1.42, -180.00, 90.00, 54.95, 30.31, 81.48, 0.00, -0.00, -0.00, -0.00, -0.00, -0.00, -4.45, -3.45, -0.23, 0.00
20.519484043121338, -3.14, 1.57, 0.96, 0.53, 1.42, -180.00, 90.00, 54.95, 30.31, 81.48, 0.00, -0.00, -0.00, -0.00, -0.00, -0.00, -4.45, -3.45, -0.23, 0.00
20.58124852180481, -3.14, 1.57, 0.96, 0.53, 1.42, -180.00, 90.00, 54.95, 30.31, 81.48, 0.00, -0.00, -0.00, -0.00, -0.00, -0.00, -4.45, -3.45, -0.23, 0.00
20.63924813270569, -3.14, 1.57, 0.96, 0.53, 1.42, -180.00, 90.00, 54.95, 30.31, 81.48, 0.00, -0.00, -0.00, -0.00, -0.00, -0.00, -4.45, -3.45, -0.23, 0.00
20.697783946990967, -3.14, 1.57, 0.96, 0.53, 1.42, -180.00, 90.00, 54.95, 30.31, 81.48, 0.00, -0.00, -0.00, -0.00, -0.00, -0.00, -4.45, -3.45, -0.23, 0.00
20.75929880142212, -3.14, 1.57, 0.96, 0.53, 1.42, -180.00, 90.00, 54.95, 30.31, 81.48, 0.00, -0.00, -0.00, -0.00, -0.00, -0.00, -4.45, -3.45, -0.23, 0.00
20.81629729270935, -3.14, 1.57, 0.96, 0.53, 1.42, -180.00, 90.00, 54.95, 30.31, 81.48, 0.00, -0.00, -0.00, -0.00, -0.00, -0.00, -4.45, -3.45, -0.23, 0.00
20.866297245025635, -3.14, 1.57, 0.96, 0.53, 1.42, -180.00, 90.00, 54.95, 30.31, 81.48, 0.00, -0.00, -0.00, -0.00, -0.00, -0.00, -4.45, -3.45, -0.23, 0.00
20.919009685516357, -3.14, 1.57, 0.96, 0.53, 1.42, -180.00, 90.00, 54.95, 30.31, 81.48, 0.00, -0.00, -0.00, -0.00, -0.00, -0.00, -4.45, -3.45, -0.23, 0.00
20.968464851379395, -3.14, 1.57, 0.96, 0.53, 1.42, -180.00, 90.00, 54.95, 30.31, 81.48, 0.00, -0.00, -0.00, -0.00, -0.00, -0.00, -4.45, -3.45, -0.23, 0.00
21.023441076278687, -3.14, 1.57, 0.96, 0.53, 1.42, -180.00, 90.00, 54.95, 30.31, 81.48, 0.00, -0.00, -0.00, -0.00, -0.00, -0.00, -4.45, -3.45, -0.23, 0.00
21.07245111465454, -3.14, 1.57, 0.96, 0.53, 1.42, -180.00, 90.00, 54.95, 30.31, 81.48, 0.00, -0.00, -0.00, -0.00, -0.00, -0.00, -4.45, -3.45, -0.23, 0.00
21.1244535446167, -3.14, 1.57, 0.96, 0.53, 1.42, -180.00, 90.00, 54.95, 30.31, 81.48, 0.00, -0.00, -0.00, -0.00, -0.00, -0.00, -4.45, -3.45, -0.23, 0.00
21.176464557647705, -3.14, 1.57, 0.96, 0.53, 1.42, -180.00, 90.00, 54.95, 30.31, 81.48, 0.00, -0.00, -0.00, -0.00, -0.00, -0.00, -4.45, -3.45, -0.23, 0.00
21.234463930130005, -3.14, 1.57, 0.96, 0.53, 1.42, -180.00, 90.00, 54.95, 30.31, 81.48, 0.00, -0.00, -0.00, -0.00, -0.00, -0.00, -4.45, -3.45, -0.23, 0.00
21.28746199607849, -3.14, 1.57, 0.96, 0.53, 1.42, -180.00, 90.00, 54.95, 30.31, 81.48, 0.00, -0.00, -0.00, -0.00, -0.00, -0.00, -4.45, -3.45, -0.23, 0.00
21.338462591171265, -3.14, 1.57, 0.96, 0.53, 1.42, -180.00, 90.00, 54.95, 30.31, 81.48, 0.00, -0.00, -0.00, -0.00, -0.00, -0.00, -4.45, -3.45, -0.23, 0.00
21.39546298980713, -3.14, 1.57, 0.96, 0.53, 1.42, -180.00, 90.00, 54.95, 30.31, 81.48, 0.00, -0.00, -0.00, -0.00, -0.00, -0.00, -4.45, -3.45, -0.23, 0.00
21.449462175369263, -3.14, 1.57, 0.96, 0.53, 1.42, -180.00, 90.00, 54.95, 30.31, 81.48, 0.00, -0.00, -0.00, -0.00, -0.00, -0.00, -4.45, -3.45, -0.23, 0.00
21.499462604522705, -3.14, 1.57, 0.96, 0.53, 1.42, -180.00, 90.00, 54.95, 30.31, 81.48, 0.00, -0.00, -0.00, -0.00, -0.00, -0.00, -4.45, -3.45, -0.23, 0.00
21.5554621219635, -3.14, 1.57, 0.96, 0.53, 1.42, -180.00, 90.00, 54.95, 30.31, 81.48, 0.00, -0.00, -0.00, -0.00, -0.00, -0.00, -4.45, -3.45, -0.23, 0.00
21.60946273803711, -3.14, 1.57, 0.96, 0.53, 1.42, -180.00, 90.00, 54.95, 30.31, 81.48, 0.00, -0.00, -0.00, -0.00, -0.00, -0.00, -4.45, -3.45, -0.23, 0.00
21.658461093902588, -3.14, 1.57, 0.96, 0.53, 1.42, -180.00, 90.00, 54.95, 30.31, 81.48, 0.00, -0.00, -0.00, -0.00, -0.00, -0.00, -4.45, -3.45, -0.23, 0.00
21.71846318244934, -3.14, 1.57, 0.96, 0.53, 1.42, -180.00, 90.00, 54.95, 30.31, 81.48, 0.00, -0.00, -0.00, -0.00, -0.00, -0.00, -4.45, -3.45, -0.23, 0.00
21.77497959136963, -3.14, 1.57, 0.96, 0.53, 1.42, -180.00, 90.00, 54.95, 30.31, 81.48, 0.00, -0.00, -0.00, -0.00, -0.00, -0.00, -4.45, -3.45, -0.23, 0.00
21.829978704452515, -3.14, 1.57, 0.96, 0.53, 1.42, -180.00, 90.00, 54.95, 30.31, 81.48, 0.00, -0.00, -0.00, -0.00, -0.00, -0.00, -4.45, -3.45, -0.23, 0.00
21.878979206085205, -3.14, 1.57, 0.96, 0.53, 1.42, -180.00, 90.00, 54.95, 30.31, 81.48, 0.00, -0.00, -0.00, -0.00, -0.00, -0.00, -4.45, -3.45, -0.23, 0.00
21.929978609085083, -3.14, 1.57, 0.96, 0.53, 1.42, -180.00, 90.00, 54.95, 30.31, 81.48, 0.00, -0.00, -0.00, -0.00, -0.00, -0.00, -4.45, -3.45, -0.23, 0.00
21.977978706359863, -3.14, 1.57, 0.96, 0.53, 1.42, -180.00, 90.00, 54.95, 30.31, 81.48, 0.00, -0.00, -0.00, -0.00, -0.00, -0.00, -4.45, -3.45, -0.23, 0.00
22.031978607177734, -3.14, 1.57, 0.96, 0.53, 1.42, -180.00, 90.00, 54.95, 30.31, 81.48, 0.00, -0.00, -0.00, -0.00, -0.00, -0.00, -4.45, -3.45, -0.23, 0.00
22.0839786529541, -3.14, 1.57, 0.96, 0.53, 1.42, -180.00, 90.00, 54.95, 30.31, 81.48, 0.00, -0.00, -0.00, -0.00, -0.00, -0.00, -4.45, -3.45, -0.23, 0.00
22.136982917785645, -3.14, 1.57, 0.96, 0.53, 1.42, -180.00, 90.00, 54.95, 30.31, 81.48, 0.00, -0.00, -0.00, -0.00, -0.00, -0.00, -4.45, -3.45, -0.23, 0.00
22.19097924232483, -3.14, 1.57, 0.96, 0.53, 1.42, -180.00, 90.00, 54.95, 30.31, 81.48, 0.00, -0.00, -0.00, -0.00, -0.00, -0.00, -4.45, -3.45, -0.23, 0.00
22.248979330062866, -3.14, 1.57, 0.96, 0.53, 1.42, -180.00, 90.00, 54.95, 30.31, 81.48, 0.00, -0.00, -0.00, -0.00, -0.00, -0.00, -4.45, -3.45, -0.23, 0.00
22.296499729156494, -3.14, 1.57, 0.96, 0.53, 1.42, -180.00, 90.00, 54.95, 30.31, 81.48, 0.00, -0.00, -0.00, -0.00, -0.00, -0.00, -4.45, -3.45, -0.23, 0.00
22.345494508743286, -3.14, 1.57, 0.96, 0.53, 1.42, -180.00, 90.00, 54.95, 30.31, 81.48, 0.00, -0.00, -0.00, -0.00, -0.00, -0.00, -4.45, -3.45, -0.23, 0.00
22.399494171142578, -3.14, 1.57, 0.96, 0.53, 1.42, -180.00, 90.00, 54.95, 30.31, 81.48, 0.00, -0.00, -0.00, -0.00, -0.00, -0.00, -4.45, -3.45, -0.23, 0.00
22.449495792388916, -3.14, 1.57, 0.96, 0.53, 1.42, -180.00, 90.00, 54.95, 30.31, 81.48, 0.00, -0.00, -0.00, -0.00, -0.00, -0.00, -4.45, -3.45, -0.23, 0.00
22.505495071411133, -3.14, 1.57, 0.96, 0.53, 1.42, -180.00, 90.00, 54.95, 30.31, 81.48, 0.00, -0.00, -0.00, -0.00, -0.00, -0.00, -4.45, -3.45, -0.23, 0.00
22.55849528312683, -3.14, 1.57, 0.96, 0.53, 1.42, -180.00, 90.00, 54.95, 30.31, 81.48, 0.00, -0.00, -0.00, -0.00, -0.00, -0.00, -4.45, -3.45, -0.23, 0.00
22.608497619628906, -3.14, 1.57, 0.96, 0.53, 1.42, -180.00, 90.00, 54.95, 30.31, 81.48, 0.00, -0.00, -0.00, -0.00, -0.00, -0.00, -4.45, -3.45, -0.23, 0.00
22.656494617462158, -3.14, 1.57, 0.96, 0.53, 1.42, -180.00, 90.00, 54.95, 30.31, 81.48, 0.00, -0.00, -0.00, -0.00, -0.00, -0.00, -4.45, -3.45, -0.23, 0.00
22.708786249160767, -3.14, 1.57, 0.96, 0.53, 1.42, -180.00, 90.00, 54.95, 30.31, 81.48, 0.00, -0.00, -0.00, -0.00, -0.00, -0.00, -4.45, -3.45, -0.23, 0.00
22.764352798461914, -3.14, 1.57, 0.96, 0.53, 1.42, -180.00, 90.00, 54.95, 30.31, 81.48, 0.00, -0.00, -0.00, -0.00, -0.00, -0.00, -4.45, -3.45, -0.23, 0.00
22.82228708267212, -3.14, 1.57, 0.96, 0.53, 1.42, -180.00, 90.00, 54.95, 30.31, 81.48, 0.00, -0.00, -0.00, -0.00, -0.00, -0.00, -4.45, -3.45, -0.23, 0.00
22.874805450439453, -3.14, 1.57, 0.96, 0.53, 1.42, -180.00, 90.00, 54.95, 30.31, 81.48, 0.00, -0.00, -0.00, -0.00, -0.00, -0.00, -4.45, -3.45, -0.23, 0.00
22.92880654335022, -3.14, 1.57, 0.96, 0.53, 1.42, -180.00, 90.00, 54.95, 30.31, 81.48, 0.00, -0.00, -0.00, -0.00, -0.00, -0.00, -4.45, -3.45, -0.23, 0.00
22.983806371688843, -3.14, 1.57, 0.96, 0.53, 1.42, -180.00, 90.00, 54.95, 30.31, 81.48, 0.00, -0.00, -0.00, -0.00, -0.00, -0.00, -4.45, -3.45, -0.23, 0.00
23.037806510925293, -3.14, 1.57, 0.96, 0.53, 1.42, -180.00, 90.00, 54.95, 30.31, 81.48, 0.00, -0.00, -0.00, -0.00, -0.00, -0.00, -4.45, -3.45, -0.23, 0.00
23.09280800819397, -3.14, 1.57, 0.96, 0.53, 1.42, -180.00, 90.00, 54.95, 30.31, 81.48, 0.00, -0.00, -0.00, -0.00, -0.00, -0.00, -4.45, -3.45, -0.23, 0.00
23.14980721473694, -3.14, 1.57, 0.96, 0.53, 1.42, -180.00, 90.00, 54.95, 30.31, 81.48, 0.00, -0.00, -0.00, -0.00, -0.00, -0.00, -4.45, -3.45, -0.23, 0.00
23.2028067111969, -3.14, 1.57, 0.96, 0.53, 1.42, -180.00, 90.00, 54.95, 30.31, 81.48, 0.00, -0.00, -0.00, -0.00, -0.00, -0.00, -4.45, -3.45, -0.23, 0.00
23.26132369041443, -3.14, 1.57, 0.96, 0.53, 1.42, -180.00, 90.00, 54.95, 30.31, 81.48, 0.00, -0.00, -0.00, -0.00, -0.00, -0.00, -4.45, -3.45, -0.23, 0.00
23.31232261657715, -3.14, 1.57, 0.96, 0.53, 1.42, -180.00, 90.00, 54.95, 30.31, 81.48, 0.00, -0.00, -0.00, -0.00, -0.00, -0.00, -4.45, -3.45, -0.23, 0.00
23.359322786331177, -3.14, 1.57, 0.96, 0.53, 1.42, -180.00, 90.00, 54.95, 30.31, 81.48, 0.00, -0.00, -0.00, -0.00, -0.00, -0.00, -4.45, -3.45, -0.23, 0.00
23.40832281112671, -3.14, 1.57, 0.96, 0.53, 1.42, -180.00, 90.00, 54.95, 30.31, 81.48, 0.00, -0.00, -0.00, -0.00, -0.00, -0.00, -4.45, -3.45, -0.23, 0.00
23.459323406219482, -3.14, 1.57, 0.96, 0.53, 1.42, -180.00, 90.00, 54.95, 30.31, 81.48, 0.00, -0.00, -0.00, -0.00, -0.00, -0.00, -4.45, -3.45, -0.23, 0.00
23.510324239730835, -3.14, 1.57, 0.96, 0.53, 1.42, -180.00, 90.00, 54.95, 30.31, 81.48, 0.00, -0.00, -0.00, -0.00, -0.00, -0.00, -4.45, -3.45, -0.23, 0.00
23.565324544906616, -3.14, 1.57, 0.96, 0.53, 1.42, -180.00, 90.00, 54.95, 30.31, 81.48, 0.00, -0.00, -0.00, -0.00, -0.00, -0.00, -4.45, -3.45, -0.23, 0.00
23.617326021194458, -3.14, 1.57, 0.96, 0.53, 1.42, -180.00, 90.00, 54.95, 30.31, 81.48, 0.00, -0.00, -0.00, -0.00, -0.00, -0.00, -4.45, -3.45, -0.23, 0.00
23.675324201583862, -3.14, 1.57, 0.96, 0.53, 1.42, -180.00, 90.00, 54.95, 30.31, 81.48, 0.00, -0.00, -0.00, -0.00, -0.00, -0.00, -4.45, -3.45, -0.23, 0.00
23.727322578430176, -3.14, 1.57, 0.96, 0.53, 1.42, -180.00, 90.00, 54.95, 30.31, 81.48, 0.00, -0.00, -0.00, -0.00, -0.00, -0.00, -4.45, -3.45, -0.23, 0.00
23.78332209587097, -3.14, 1.57, 0.96, 0.53, 1.42, -180.00, 90.00, 54.95, 30.31, 81.48, 0.00, -0.00, -0.00, -0.00, -0.00, -0.00, -4.45, -3.45, -0.23, 0.00
23.8463237285614, -3.14, 1.57, 0.96, 0.53, 1.42, -180.00, 90.00, 54.95, 30.31, 81.48, 0.00, -0.00, -0.00, -0.00, -0.00, -0.00, -4.45, -3.45, -0.23, 0.00
23.901323318481445, -3.14, 1.57, 0.96, 0.53, 1.42, -180.00, 90.00, 54.95, 30.31, 81.48, 0.00, -0.00, -0.00, -0.00, -0.00, -0.00, -4.45, -3.45, -0.23, 0.00
23.954322576522827, -3.14, 1.57, 0.96, 0.53, 1.42, -180.00, 90.00, 54.95, 30.31, 81.48, 0.00, -0.00, -0.00, -0.00, -0.00, -0.00, -4.45, -3.45, -0.23, 0.00
24.0293231010437, -3.14, 1.57, 0.96, 0.53, 1.42, -180.00, 90.00, 54.95, 30.31, 81.48, 0.00, -0.00, -0.00, -0.00, -0.00, -0.00, -4.45, -3.45, -0.23, 0.00
24.086323022842407, -3.14, 1.57, 0.96, 0.53, 1.42, -180.00, 90.00, 54.95, 30.31, 81.48, 0.00, -0.00, -0.00, -0.00, -0.00, -0.00, -4.45, -3.45, -0.23, 0.00
24.141844987869263, -3.14, 1.57, 0.96, 0.53, 1.42, -180.00, 90.00, 54.95, 30.31, 81.48, 0.00, -0.00, -0.00, -0.00, -0.00, -0.00, -4.45, -3.45, -0.23, 0.00
24.20236349105835, -3.14, 1.57, 0.96, 0.53, 1.42, -180.00, 90.00, 54.95, 30.31, 81.48, 0.00, -0.00, -0.00, -0.00, -0.00, -0.00, -4.45, -3.45, -0.23, 0.00
24.258360624313354, -3.14, 1.57, 0.96, 0.53, 1.42, -180.00, 90.00, 54.95, 30.31, 81.48, 0.00, -0.00, -0.00, -0.00, -0.00, -0.00, -4.45, -3.45, -0.23, 0.00
24.308361053466797, -3.14, 1.57, 0.96, 0.53, 1.42, -180.00, 90.00, 54.95, 30.31, 81.48, 0.00, -0.00, -0.00, -0.00, -0.00, -0.00, -4.45, -3.45, -0.23, 0.00
24.363361835479736, -3.14, 1.57, 0.96, 0.53, 1.42, -180.00, 90.00, 54.95, 30.31, 81.48, 0.00, -0.00, -0.00, -0.00, -0.00, -0.00, -4.45, -3.45, -0.23, 0.00
24.4113609790802, -3.14, 1.57, 0.96, 0.53, 1.42, -180.00, 90.00, 54.95, 30.31, 81.48, 0.00, -0.00, -0.00, -0.00, -0.00, -0.00, -4.45, -3.45, -0.23, 0.00
24.461885690689087, -3.14, 1.57, 0.96, 0.53, 1.42, -180.00, 90.00, 54.95, 30.31, 81.48, 0.00, -0.00, -0.00, -0.00, -0.00, -0.00, -4.45, -3.45, -0.23, 0.00
24.509883403778076, -3.14, 1.57, 0.96, 0.53, 1.42, -180.00, 90.00, 54.95, 30.31, 81.48, 0.00, -0.00, -0.00, -0.00, -0.00, -0.00, -4.45, -3.45, -0.23, 0.00
24.559881925582886, -3.14, 1.57, 0.96, 0.53, 1.42, -180.00, 90.00, 54.95, 30.31, 81.48, 0.00, -0.00, -0.00, -0.00, -0.00, -0.00, -4.45, -3.45, -0.23, 0.00
24.611398458480835, -3.14, 1.57, 0.96, 0.53, 1.42, -180.00, 90.00, 54.95, 30.31, 81.48, 0.00, -0.00, -0.00, -0.00, -0.00, -0.00, -4.45, -3.45, -0.23, 0.00
24.662395477294922, -3.14, 1.57, 0.96, 0.53, 1.42, -180.00, 90.00, 54.95, 30.31, 81.48, 0.00, -0.00, -0.00, -0.00, -0.00, -0.00, -4.45, -3.45, -0.23, 0.00
24.717395067214966, -3.14, 1.57, 0.96, 0.53, 1.42, -180.00, 90.00, 54.95, 30.31, 81.48, 0.00, -0.00, -0.00, -0.00, -0.00, -0.00, -4.45, -3.45, -0.23, 0.00
24.770910501480103, -3.14, 1.57, 0.96, 0.53, 1.42, -180.00, 90.00, 54.95, 30.31, 81.48, 0.00, -0.00, -0.00, -0.00, -0.00, -0.00, -4.45, -3.45, -0.23, 0.00
24.82191014289856, -3.14, 1.57, 0.96, 0.53, 1.42, -180.00, 90.00, 54.95, 30.31, 81.48, 0.00, -0.00, -0.00, -0.00, -0.00, -0.00, -4.45, -3.45, -0.23, 0.00
24.876909971237183, -3.14, 1.57, 0.96, 0.53, 1.42, -180.00, 90.00, 54.95, 30.31, 81.48, 0.00, -0.00, -0.00, -0.00, -0.00, -0.00, -4.45, -3.45, -0.23, 0.00
24.930835485458374, -3.14, 1.57, 0.96, 0.53, 1.42, -180.00, 90.00, 54.95, 30.31, 81.48, 0.00, -0.00, -0.00, -0.00, -0.00, -0.00, -4.45, -3.45, -0.23, 0.00
24.983829975128174, -3.14, 1.57, 0.96, 0.53, 1.42, -180.00, 90.00, 54.95, 30.31, 81.48, 0.00, -0.00, -0.00, -0.00, -0.00, -0.00, -4.45, -3.45, -0.23, 0.00
25.03635334968567, -3.14, 1.57, 0.96, 0.53, 1.42, -180.00, 90.00, 54.95, 30.31, 81.48, 0.00, -0.00, -0.00, -0.00, -0.00, -0.00, -4.45, -3.45, -0.23, 0.00
25.09071397781372, -3.14, 1.57, 0.96, 0.53, 1.42, -180.00, 90.00, 54.95, 30.31, 81.48, 0.00, -0.00, -0.00, -0.00, -0.00, -0.00, -4.45, -3.45, -0.23, 0.00
25.140708208084106, -3.14, 1.57, 0.96, 0.53, 1.42, -180.00, 90.00, 54.95, 30.31, 81.48, 0.00, -0.00, -0.00, -0.00, -0.00, -0.00, -4.45, -3.45, -0.23, 0.00
25.1947283744812, -3.14, 1.57, 0.96, 0.53, 1.42, -180.00, 90.00, 54.95, 30.31, 81.48, 0.00, -0.00, -0.00, -0.00, -0.00, -0.00, -4.45, -3.45, -0.23, 0.00
25.254725456237793, -3.14, 1.57, 0.96, 0.53, 1.42, -180.00, 90.00, 54.95, 30.31, 81.48, 0.00, -0.00, -0.00, -0.00, -0.00, -0.00, -4.45, -3.45, -0.23, 0.00
25.309725761413574, -3.14, 1.57, 0.96, 0.53, 1.42, -180.00, 90.00, 54.95, 30.31, 81.48, 0.00, -0.00, -0.00, -0.00, -0.00, -0.00, -4.45, -3.45, -0.23, 0.00
25.36172604560852, -3.14, 1.57, 0.96, 0.53, 1.42, -180.00, 90.00, 54.95, 30.31, 81.48, 0.00, -0.00, -0.00, -0.00, -0.00, -0.00, -4.45, -3.45, -0.23, 0.00
25.40972661972046, -3.14, 1.57, 0.96, 0.53, 1.42, -180.00, 90.00, 54.95, 30.31, 81.48, 0.00, -0.00, -0.00, -0.00, -0.00, -0.00, -4.45, -3.45, -0.23, 0.00
25.460728645324707, -3.14, 1.57, 0.96, 0.53, 1.42, -180.00, 90.00, 54.95, 30.31, 81.48, 0.00, -0.00, -0.00, -0.00, -0.00, -0.00, -4.45, -3.45, -0.23, 0.00
25.513368129730225, -3.14, 1.57, 0.96, 0.53, 1.42, -180.00, 90.00, 54.95, 30.31, 81.48, 0.00, -0.00, -0.00, -0.00, -0.00, -0.00, -4.45, -3.45, -0.23, 0.00
25.569463968276978, -3.14, 1.57, 0.96, 0.53, 1.42, -180.00, 90.00, 54.95, 30.31, 81.48, 0.00, -0.00, -0.00, -0.00, -0.00, -0.00, -4.45, -3.45, -0.23, 0.00
25.63696599006653, -3.14, 1.57, 0.96, 0.53, 1.42, -180.00, 90.00, 54.95, 30.31, 81.48, 0.00, -0.00, -0.00, -0.00, -0.00, -0.00, -4.45, -3.45, -0.23, 0.00
25.702486276626587, -3.14, 1.57, 0.96, 0.53, 1.42, -180.00, 90.00, 54.95, 30.31, 81.48, 0.00, -0.00, -0.00, -0.00, -0.00, -0.00, -4.45, -3.45, -0.23, 0.00
25.759003400802612, -3.14, 1.57, 0.96, 0.53, 1.42, -180.00, 90.00, 54.95, 30.31, 81.48, 0.00, -0.00, -0.00, -0.00, -0.00, -0.00, -4.45, -3.45, -0.23, 0.00
25.823002815246582, -3.14, 1.57, 0.96, 0.53, 1.42, -180.00, 90.00, 54.95, 30.31, 81.48, 0.00, -0.00, -0.00, -0.00, -0.00, -0.00, -4.45, -3.45, -0.23, 0.00
25.885002851486206, -3.14, 1.57, 0.96, 0.53, 1.42, -180.00, 90.00, 54.95, 30.31, 81.48, 0.00, -0.00, -0.00, -0.00, -0.00, -0.00, -4.45, -3.45, -0.23, 0.00
25.935001611709595, -3.14, 1.57, 0.96, 0.53, 1.42, -180.00, 90.00, 54.95, 30.31, 81.48, 0.00, -0.00, -0.00, -0.00, -0.00, -0.00, -4.45, -3.45, -0.23, 0.00
25.987549304962158, -3.14, 1.57, 0.96, 0.53, 1.42, -180.00, 90.00, 54.95, 30.31, 81.48, 0.00, -0.00, -0.00, -0.00, -0.00, -0.00, -4.45, -3.45, -0.23, 0.00
26.03751826286316, -3.14, 1.57, 0.96, 0.53, 1.42, -180.00, 90.00, 54.95, 30.31, 81.48, 0.00, -0.00, -0.00, -0.00, -0.00, -0.00, -4.45, -3.45, -0.23, 0.00
26.088032007217407, -3.14, 1.57, 0.96, 0.53, 1.42, -180.00, 90.00, 54.95, 30.31, 81.48, 0.00, -0.00, -0.00, -0.00, -0.00, -0.00, -4.45, -3.45, -0.23, 0.00
26.136032342910767, -3.14, 1.57, 0.96, 0.53, 1.42, -180.00, 90.00, 54.95, 30.31, 81.48, 0.00, -0.00, -0.00, -0.00, -0.00, -0.00, -4.45, -3.45, -0.23, 0.00
26.186033010482788, -3.14, 1.57, 0.96, 0.53, 1.42, -180.00, 90.00, 54.95, 30.31, 81.48, 0.00, -0.00, -0.00, -0.00, -0.00, -0.00, -4.45, -3.45, -0.23, 0.00
26.239032745361328, -3.14, 1.57, 0.96, 0.53, 1.42, -180.00, 90.00, 54.95, 30.31, 81.48, 0.00, -0.00, -0.00, -0.00, -0.00, -0.00, -4.45, -3.45, -0.23, 0.00
26.294033765792847, -3.14, 1.57, 0.96, 0.53, 1.42, -180.00, 90.00, 54.95, 30.31, 81.48, 0.00, -0.00, -0.00, -0.00, -0.00, -0.00, -4.45, -3.45, -0.23, 0.00
26.343032598495483, -3.14, 1.57, 0.96, 0.53, 1.42, -180.00, 90.00, 54.95, 30.31, 81.48, 0.00, -0.00, -0.00, -0.00, -0.00, -0.00, -4.45, -3.45, -0.23, 0.00
26.398032188415527, -3.14, 1.57, 0.96, 0.53, 1.42, -180.00, 90.00, 54.95, 30.31, 81.48, 0.00, -0.00, -0.00, -0.00, -0.00, -0.00, -4.45, -3.45, -0.23, 0.00
26.4490327835083, -3.14, 1.57, 0.96, 0.53, 1.42, -180.00, 90.00, 54.95, 30.31, 81.48, 0.00, -0.00, -0.00, -0.00, -0.00, -0.00, -4.45, -3.45, -0.23, 0.00
26.50203537940979, -3.14, 1.57, 0.96, 0.53, 1.42, -180.00, 90.00, 54.95, 30.31, 81.48, 0.00, -0.00, -0.00, -0.00, -0.00, -0.00, -4.45, -3.45, -0.23, 0.00
26.555033683776855, -3.14, 1.57, 0.96, 0.53, 1.42, -180.00, 90.00, 54.95, 30.31, 81.48, 0.00, -0.00, -0.00, -0.00, -0.00, -0.00, -4.45, -3.45, -0.23, 0.00
26.607032299041748, -3.14, 1.57, 0.96, 0.53, 1.42, -180.00, 90.00, 54.95, 30.31, 81.48, 0.00, -0.00, -0.00, -0.00, -0.00, -0.00, -4.45, -3.45, -0.23, 0.00
26.65903401374817, -3.14, 1.57, 0.96, 0.53, 1.42, -180.00, 90.00, 54.95, 30.31, 81.48, 0.00, -0.00, -0.00, -0.00, -0.00, -0.00, -4.45, -3.45, -0.23, 0.00
26.713031768798828, -3.14, 1.57, 0.96, 0.53, 1.42, -180.00, 90.00, 54.95, 30.31, 81.48, 0.00, -0.00, -0.00, -0.00, -0.00, -0.00, -4.45, -3.45, -0.23, 0.00
26.767032861709595, -3.14, 1.57, 0.96, 0.53, 1.42, -180.00, 90.00, 54.95, 30.31, 81.48, 0.00, -0.00, -0.00, -0.00, -0.00, -0.00, -4.45, -3.45, -0.23, 0.00
26.823033094406128, -3.14, 1.57, 0.96, 0.53, 1.42, -180.00, 90.00, 54.95, 30.31, 81.48, 0.00, -0.00, -0.00, -0.00, -0.00, -0.00, -4.45, -3.45, -0.23, 0.00
26.87603259086609, -3.14, 1.57, 0.96, 0.53, 1.42, -180.00, 90.00, 54.95, 30.31, 81.48, 0.00, -0.00, -0.00, -0.00, -0.00, -0.00, -4.45, -3.45, -0.23, 0.00
26.928032159805298, -3.14, 1.57, 0.96, 0.53, 1.42, -180.00, 90.00, 54.95, 30.31, 81.48, 0.00, -0.00, -0.00, -0.00, -0.00, -0.00, -4.45, -3.45, -0.23, 0.00
26.982033014297485, -3.14, 1.57, 0.96, 0.53, 1.42, -180.00, 90.00, 54.95, 30.31, 81.48, 0.00, -0.00, -0.00, -0.00, -0.00, -0.00, -4.45, -3.45, -0.23, 0.00
27.03203272819519, -3.14, 1.57, 0.96, 0.53, 1.42, -180.00, 90.00, 54.95, 30.31, 81.48, 0.00, -0.00, -0.00, -0.00, -0.00, -0.00, -4.45, -3.45, -0.23, 0.00
27.085686683654785, -3.14, 1.57, 0.96, 0.53, 1.42, -180.00, 90.00, 54.95, 30.31, 81.48, 0.00, -0.00, -0.00, -0.00, -0.00, -0.00, -4.45, -3.45, -0.23, 0.00
27.13968586921692, -3.14, 1.57, 0.96, 0.53, 1.42, -180.00, 90.00, 54.95, 30.31, 81.48, 0.00, -0.00, -0.00, -0.00, -0.00, -0.00, -4.45, -3.45, -0.23, 0.00
27.193164110183716, -3.14, 1.57, 0.96, 0.53, 1.42, -180.00, 90.00, 54.95, 30.31, 81.48, 0.00, -0.00, -0.00, -0.00, -0.00, -0.00, -4.45, -3.45, -0.23, 0.00
27.24516725540161, -3.14, 1.57, 0.96, 0.53, 1.42, -180.00, 90.00, 54.95, 30.31, 81.48, 0.00, -0.00, -0.00, -0.00, -0.00, -0.00, -4.45, -3.45, -0.23, 0.00
27.301170587539673, -3.14, 1.57, 0.96, 0.53, 1.42, -180.00, 90.00, 54.95, 30.31, 81.48, 0.00, -0.00, -0.00, -0.00, -0.00, -0.00, -4.45, -3.45, -0.23, 0.00
27.354165077209473, -3.14, 1.57, 0.96, 0.53, 1.42, -180.00, 90.00, 54.95, 30.31, 81.48, 0.00, -0.00, -0.00, -0.00, -0.00, -0.00, -4.45, -3.45, -0.23, 0.00
27.40567398071289, -3.14, 1.57, 0.96, 0.53, 1.42, -180.00, 90.00, 54.95, 30.31, 81.48, 0.00, -0.00, -0.00, -0.00, -0.00, -0.00, -4.45, -3.45, -0.23, 0.00
27.460675477981567, -3.14, 1.57, 0.96, 0.53, 1.42, -180.00, 90.00, 54.95, 30.31, 81.48, 0.00, -0.00, -0.00, -0.00, -0.00, -0.00, -4.45, -3.45, -0.23, 0.00
27.509673595428467, -3.14, 1.57, 0.96, 0.53, 1.42, -180.00, 90.00, 54.95, 30.31, 81.48, 0.00, -0.00, -0.00, -0.00, -0.00, -0.00, -4.45, -3.45, -0.23, 0.00
27.56267499923706, -3.14, 1.57, 0.96, 0.53, 1.42, -180.00, 90.00, 54.95, 30.31, 81.48, 0.00, -0.00, -0.00, -0.00, -0.00, -0.00, -4.45, -3.45, -0.23, 0.00
27.61667275428772, -3.14, 1.57, 0.96, 0.53, 1.42, -180.00, 90.00, 54.95, 30.31, 81.48, 0.00, -0.00, -0.00, -0.00, -0.00, -0.00, -4.45, -3.45, -0.23, 0.00
27.6666738986969, -3.14, 1.57, 0.96, 0.53, 1.42, -180.00, 90.00, 54.95, 30.31, 81.48, 0.00, -0.00, -0.00, -0.00, -0.00, -0.00, -4.45, -3.45, -0.23, 0.00
27.717676877975464, -3.14, 1.57, 0.96, 0.53, 1.42, -180.00, 90.00, 54.95, 30.31, 81.48, 0.00, -0.00, -0.00, -0.00, -0.00, -0.00, -4.45, -3.45, -0.23, 0.00
27.76667356491089, -3.14, 1.57, 0.96, 0.53, 1.42, -180.00, 90.00, 54.95, 30.31, 81.48, 0.00, -0.00, -0.00, -0.00, -0.00, -0.00, -4.45, -3.45, -0.23, 0.00
27.816574573516846, -3.14, 1.57, 0.96, 0.53, 1.42, -180.00, 90.00, 54.95, 30.31, 81.48, 0.00, -0.00, -0.00, -0.00, -0.00, -0.00, -4.45, -3.45, -0.23, 0.00
27.865574836730957, -3.14, 1.57, 0.96, 0.53, 1.42, -180.00, 90.00, 54.95, 30.31, 81.48, 0.00, -0.00, -0.00, -0.00, -0.00, -0.00, -4.45, -3.45, -0.23, 0.00
27.914574146270752, -3.14, 1.57, 0.96, 0.53, 1.42, -180.00, 90.00, 54.95, 30.31, 81.48, 0.00, -0.00, -0.00, -0.00, -0.00, -0.00, -4.45, -3.45, -0.23, 0.00
27.970420360565186, -3.14, 1.57, 0.96, 0.53, 1.42, -180.00, 90.00, 54.95, 30.31, 81.48, 0.00, -0.00, -0.00, -0.00, -0.00, -0.00, -4.45, -3.45, -0.23, 0.00
28.023420095443726, -3.14, 1.57, 0.96, 0.53, 1.42, -180.00, 90.00, 54.95, 30.31, 81.48, 0.00, -0.00, -0.00, -0.00, -0.00, -0.00, -4.45, -3.45, -0.23, 0.00
28.074416875839233, -3.14, 1.57, 0.96, 0.53, 1.42, -180.00, 90.00, 54.95, 30.31, 81.48, 0.00, -0.00, -0.00, -0.00, -0.00, -0.00, -4.45, -3.45, -0.23, 0.00
28.12545156478882, -3.14, 1.57, 0.96, 0.53, 1.42, -180.00, 90.00, 54.95, 30.31, 81.48, 0.00, -0.00, -0.00, -0.00, -0.00, -0.00, -4.45, -3.45, -0.23, 0.00
28.181451559066772, -3.14, 1.57, 0.96, 0.53, 1.42, -180.00, 90.00, 54.95, 30.31, 81.48, 0.00, -0.00, -0.00, -0.00, -0.00, -0.00, -4.45, -3.45, -0.23, 0.00
28.232967615127563, -3.14, 1.57, 0.96, 0.53, 1.42, -180.00, 90.00, 54.95, 30.31, 81.48, 0.00, -0.00, -0.00, -0.00, -0.00, -0.00, -4.45, -3.45, -0.23, 0.00
28.284969568252563, -3.14, 1.57, 0.96, 0.53, 1.42, -180.00, 90.00, 54.95, 30.31, 81.48, 0.00, -0.00, -0.00, -0.00, -0.00, -0.00, -4.45, -3.45, -0.23, 0.00
28.33896827697754, -3.14, 1.57, 0.96, 0.53, 1.42, -180.00, 90.00, 54.95, 30.31, 81.48, 0.00, -0.00, -0.00, -0.00, -0.00, -0.00, -4.45, -3.45, -0.23, 0.00
28.392970085144043, -3.14, 1.57, 0.96, 0.53, 1.42, -180.00, 90.00, 54.95, 30.31, 81.48, 0.00, -0.00, -0.00, -0.00, -0.00, -0.00, -4.45, -3.45, -0.23, 0.00
28.441970348358154, -3.14, 1.57, 0.96, 0.53, 1.42, -180.00, 90.00, 54.95, 30.31, 81.48, 0.00, -0.00, -0.00, -0.00, -0.00, -0.00, -4.45, -3.45, -0.23, 0.00
28.491971492767334, -3.14, 1.57, 0.96, 0.53, 1.42, -180.00, 90.00, 54.95, 30.31, 81.48, 0.00, -0.00, -0.00, -0.00, -0.00, -0.00, -4.45, -3.45, -0.23, 0.00
28.54496955871582, -3.14, 1.57, 0.96, 0.53, 1.42, -180.00, 90.00, 54.95, 30.31, 81.48, 0.00, -0.00, -0.00, -0.00, -0.00, -0.00, -4.45, -3.45, -0.23, 0.00
28.595970392227173, -3.14, 1.57, 0.96, 0.53, 1.42, -180.00, 90.00, 54.95, 30.31, 81.48, 0.00, -0.00, -0.00, -0.00, -0.00, -0.00, -4.45, -3.45, -0.23, 0.00
28.649969816207886, -3.14, 1.57, 0.96, 0.53, 1.42, -180.00, 90.00, 54.95, 30.31, 81.48, 0.00, -0.00, -0.00, -0.00, -0.00, -0.00, -4.45, -3.45, -0.23, 0.00
28.702969074249268, -3.14, 1.57, 0.96, 0.53, 1.42, -180.00, 90.00, 54.95, 30.31, 81.48, 0.00, -0.00, -0.00, -0.00, -0.00, -0.00, -4.45, -3.45, -0.23, 0.00
28.756970167160034, -3.14, 1.57, 0.96, 0.53, 1.42, -180.00, 90.00, 54.95, 30.31, 81.48, 0.00, -0.00, -0.00, -0.00, -0.00, -0.00, -4.45, -3.45, -0.23, 0.00
28.808969020843506, -3.14, 1.57, 0.96, 0.53, 1.42, -180.00, 90.00, 54.95, 30.31, 81.48, 0.00, -0.00, -0.00, -0.00, -0.00, -0.00, -4.45, -3.45, -0.23, 0.00
28.86396861076355, -3.14, 1.57, 0.96, 0.53, 1.42, -180.00, 90.00, 54.95, 30.31, 81.48, 0.00, -0.00, -0.00, -0.00, -0.00, -0.00, -4.45, -3.45, -0.23, 0.00
28.918871641159058, -3.14, 1.57, 0.96, 0.53, 1.42, -180.00, 90.00, 54.95, 30.31, 81.48, 0.00, -0.00, -0.00, -0.00, -0.00, -0.00, -4.45, -3.45, -0.23, 0.00
28.97584843635559, -3.14, 1.57, 0.96, 0.53, 1.42, -180.00, 90.00, 54.95, 30.31, 81.48, 0.00, -0.00, -0.00, -0.00, -0.00, -0.00, -4.45, -3.45, -0.23, 0.00
29.03285002708435, -3.14, 1.57, 0.96, 0.53, 1.42, -180.00, 90.00, 54.95, 30.31, 81.48, 0.00, -0.00, -0.00, -0.00, -0.00, -0.00, -4.45, -3.45, -0.23, 0.00
29.08585023880005, -3.14, 1.57, 0.96, 0.53, 1.42, -180.00, 90.00, 54.95, 30.31, 81.48, 0.00, -0.00, -0.00, -0.00, -0.00, -0.00, -4.45, -3.45, -0.23, 0.00
29.138850212097168, -3.14, 1.57, 0.96, 0.53, 1.42, -180.00, 90.00, 54.95, 30.31, 81.48, 0.00, -0.00, -0.00, -0.00, -0.00, -0.00, -4.45, -3.45, -0.23, 0.00
29.191850423812866, -3.14, 1.57, 0.96, 0.53, 1.42, -180.00, 90.00, 54.95, 30.31, 81.48, 0.00, -0.00, -0.00, -0.00, -0.00, -0.00, -4.45, -3.45, -0.23, 0.00
29.24903416633606, -3.14, 1.57, 0.96, 0.53, 1.42, -180.00, 90.00, 54.95, 30.31, 81.48, 0.00, -0.00, -0.00, -0.00, -0.00, -0.00, -4.45, -3.45, -0.23, 0.00
29.300798892974854, -3.14, 1.57, 0.96, 0.53, 1.42, -180.00, 90.00, 54.95, 30.31, 81.48, 0.00, -0.00, -0.00, -0.00, -0.00, -0.00, -4.45, -3.45, -0.23, 0.00
29.354386806488037, -3.14, 1.57, 0.96, 0.53, 1.42, -180.00, 90.00, 54.95, 30.31, 81.48, 0.00, -0.00, -0.00, -0.00, -0.00, -0.00, -4.45, -3.45, -0.23, 0.00
29.400988578796387, -3.14, 1.57, 0.96, 0.53, 1.42, -180.00, 90.00, 54.95, 30.31, 81.48, 0.00, -0.00, -0.00, -0.00, -0.00, -0.00, -4.45, -3.45, -0.23, 0.00
29.460989475250244, -3.14, 1.57, 0.96, 0.53, 1.42, -180.00, 90.00, 54.95, 30.31, 81.48, 0.00, -0.00, -0.00, -0.00, -0.00, -0.00, -4.45, -3.45, -0.23, 0.00
29.522989749908447, -3.14, 1.57, 0.96, 0.53, 1.42, -180.00, 90.00, 54.95, 30.31, 81.48, 0.00, -0.00, -0.00, -0.00, -0.00, -0.00, -4.45, -3.45, -0.23, 0.00
29.582989931106567, -3.14, 1.57, 0.96, 0.53, 1.42, -180.00, 90.00, 54.95, 30.31, 81.48, 0.00, -0.00, -0.00, -0.00, -0.00, -0.00, -4.45, -3.45, -0.23, 0.00
29.634989500045776, -3.14, 1.57, 0.96, 0.53, 1.42, -180.00, 90.00, 54.95, 30.31, 81.48, 0.00, -0.00, -0.00, -0.00, -0.00, -0.00, -4.45, -3.45, -0.23, 0.00
29.684988260269165, -3.14, 1.57, 0.96, 0.53, 1.42, -180.00, 90.00, 54.95, 30.31, 81.48, 0.00, -0.00, -0.00, -0.00, -0.00, -0.00, -4.45, -3.45, -0.23, 0.00
29.74198818206787, -3.14, 1.57, 0.96, 0.53, 1.42, -180.00, 90.00, 54.95, 30.31, 81.48, 0.00, -0.00, -0.00, -0.00, -0.00, -0.00, -4.45, -3.45, -0.23, 0.00
29.790988206863403, -3.14, 1.57, 0.96, 0.53, 1.42, -180.00, 90.00, 54.95, 30.31, 81.48, 0.00, -0.00, -0.00, -0.00, -0.00, -0.00, -4.45, -3.45, -0.23, 0.00
29.84398913383484, -3.14, 1.57, 0.96, 0.53, 1.42, -180.00, 90.00, 54.95, 30.31, 81.48, 0.00, -0.00, -0.00, -0.00, -0.00, -0.00, -4.45, -3.45, -0.23, 0.00
29.901042461395264, -3.14, 1.57, 0.96, 0.53, 1.42, -180.00, 90.00, 54.95, 30.31, 81.48, 0.00, -0.00, -0.00, -0.00, -0.00, -0.00, -4.45, -3.45, -0.23, 0.00
29.9580397605896, -3.14, 1.57, 0.96, 0.53, 1.42, -180.00, 90.00, 54.95, 30.31, 81.48, 0.00, -0.00, -0.00, -0.00, -0.00, -0.00, -4.45, -3.45, -0.23, 0.00
30.012038946151733, -3.14, 1.57, 0.96, 0.53, 1.42, -180.00, 90.00, 54.95, 30.31, 81.48, 0.00, -0.00, -0.00, -0.00, -0.00, -0.00, -4.45, -3.45, -0.23, 0.00
30.059040069580078, -3.14, 1.57, 0.96, 0.53, 1.42, -180.00, 90.00, 54.95, 30.31, 81.48, 0.00, -0.00, -0.00, -0.00, -0.00, -0.00, -4.45, -3.45, -0.23, 0.00
30.110038995742798, -3.14, 1.57, 0.96, 0.53, 1.42, -180.00, 90.00, 54.95, 30.31, 81.48, 0.00, -0.00, -0.00, -0.00, -0.00, -0.00, -4.45, -3.45, -0.23, 0.00
30.15903878211975, -3.14, 1.57, 0.96, 0.53, 1.42, -180.00, 90.00, 54.95, 30.31, 81.48, 0.00, -0.00, -0.00, -0.00, -0.00, -0.00, -4.45, -3.45, -0.23, 0.00
30.20803928375244, -3.14, 1.57, 0.96, 0.53, 1.42, -180.00, 90.00, 54.95, 30.31, 81.48, 0.00, -0.00, -0.00, -0.00, -0.00, -0.00, -4.45, -3.45, -0.23, 0.00
30.262561082839966, -3.14, 1.57, 0.96, 0.53, 1.42, -180.00, 90.00, 54.95, 30.31, 81.48, 0.00, -0.00, -0.00, -0.00, -0.00, -0.00, -4.45, -3.45, -0.23, 0.00
30.309557676315308, -3.14, 1.57, 0.96, 0.53, 1.42, -180.00, 90.00, 54.95, 30.31, 81.48, 0.00, -0.00, -0.00, -0.00, -0.00, -0.00, -4.45, -3.45, -0.23, 0.00
30.35855746269226, -3.14, 1.57, 0.96, 0.53, 1.42, -180.00, 90.00, 54.95, 30.31, 81.48, 0.00, -0.00, -0.00, -0.00, -0.00, -0.00, -4.45, -3.45, -0.23, 0.00
30.408557415008545, -3.14, 1.57, 0.96, 0.53, 1.42, -180.00, 90.00, 54.95, 30.31, 81.48, 0.00, -0.00, -0.00, -0.00, -0.00, -0.00, -4.45, -3.45, -0.23, 0.00
30.462558031082153, -3.14, 1.57, 0.96, 0.53, 1.42, -180.00, 90.00, 54.95, 30.31, 81.48, 0.00, -0.00, -0.00, -0.00, -0.00, -0.00, -4.45, -3.45, -0.23, 0.00
30.512218713760376, -3.14, 1.57, 0.96, 0.53, 1.42, -180.00, 90.00, 54.95, 30.31, 81.48, 0.00, -0.00, -0.00, -0.00, -0.00, -0.00, -4.45, -3.45, -0.23, 0.00
30.56301712989807, -3.14, 1.57, 0.96, 0.53, 1.42, -180.00, 90.00, 54.95, 30.31, 81.48, 0.00, -0.00, -0.00, -0.00, -0.00, -0.00, -4.45, -3.45, -0.23, 0.00
30.612931728363037, -3.14, 1.57, 0.96, 0.53, 1.42, -180.00, 90.00, 54.95, 30.31, 81.48, 0.00, -0.00, -0.00, -0.00, -0.00, -0.00, -4.45, -3.45, -0.23, 0.00
30.66251277923584, -3.14, 1.57, 0.96, 0.53, 1.42, -180.00, 90.00, 54.95, 30.31, 81.48, 0.00, -0.00, -0.00, -0.00, -0.00, -0.00, -4.45, -3.45, -0.23, 0.00
30.718011379241943, -3.14, 1.57, 0.96, 0.53, 1.42, -180.00, 90.00, 54.95, 30.31, 81.48, 0.00, -0.00, -0.00, -0.00, -0.00, -0.00, -4.45, -3.45, -0.23, 0.00
30.773518085479736, -3.14, 1.57, 0.96, 0.53, 1.42, -180.00, 90.00, 54.95, 30.31, 81.48, 0.00, -0.00, -0.00, -0.00, -0.00, -0.00, -4.45, -3.45, -0.23, 0.00
30.825031042099, -3.14, 1.57, 0.96, 0.53, 1.42, -180.00, 90.00, 54.95, 30.31, 81.48, 0.00, -0.00, -0.00, -0.00, -0.00, -0.00, -4.45, -3.45, -0.23, 0.00
30.882031679153442, -3.14, 1.57, 0.96, 0.53, 1.42, -180.00, 90.00, 54.95, 30.31, 81.48, 0.00, -0.00, -0.00, -0.00, -0.00, -0.00, -4.45, -3.45, -0.23, 0.00
30.93403196334839, -3.14, 1.57, 0.96, 0.53, 1.42, -180.00, 90.00, 54.95, 30.31, 81.48, 0.00, -0.00, -0.00, -0.00, -0.00, -0.00, -4.45, -3.45, -0.23, 0.00
30.99703288078308, -3.14, 1.57, 0.96, 0.53, 1.42, -180.00, 90.00, 54.95, 30.31, 81.48, 0.00, -0.00, -0.00, -0.00, -0.00, -0.00, -4.45, -3.45, -0.23, 0.00
31.056031703948975, -3.14, 1.57, 0.96, 0.53, 1.42, -180.00, 90.00, 54.95, 30.31, 81.48, 0.00, -0.00, -0.00, -0.00, -0.00, -0.00, -4.45, -3.45, -0.23, 0.00
31.107029676437378, -3.14, 1.57, 0.96, 0.53, 1.42, -180.00, 90.00, 54.95, 30.31, 81.48, 0.00, -0.00, -0.00, -0.00, -0.00, -0.00, -4.45, -3.45, -0.23, 0.00
31.15502905845642, -3.14, 1.57, 0.96, 0.53, 1.42, -180.00, 90.00, 54.95, 30.31, 81.48, 0.00, -0.00, -0.00, -0.00, -0.00, -0.00, -4.45, -3.45, -0.23, 0.00
31.204027891159058, -3.14, 1.57, 0.96, 0.53, 1.42, -180.00, 90.00, 54.95, 30.31, 81.48, 0.00, -0.00, -0.00, -0.00, -0.00, -0.00, -4.45, -3.45, -0.23, 0.00
31.25302743911743, -3.14, 1.57, 0.96, 0.53, 1.42, -180.00, 90.00, 54.95, 30.31, 81.48, 0.00, -0.00, -0.00, -0.00, -0.00, -0.00, -4.45, -3.45, -0.23, 0.00
31.3070285320282, -3.14, 1.57, 0.96, 0.53, 1.42, -180.00, 90.00, 54.95, 30.31, 81.48, 0.00, -0.00, -0.00, -0.00, -0.00, -0.00, -4.45, -3.45, -0.23, 0.00
31.359236240386963, -3.14, 1.57, 0.96, 0.53, 1.42, -180.00, 90.00, 54.95, 30.31, 81.48, 0.00, -0.00, -0.00, -0.00, -0.00, -0.00, -4.45, -3.45, -0.23, 0.00
31.414234161376953, -3.14, 1.57, 0.96, 0.53, 1.42, -180.00, 90.00, 54.95, 30.31, 81.48, 0.00, -0.00, -0.00, -0.00, -0.00, -0.00, -4.45, -3.45, -0.23, 0.00
31.471556186676025, -3.14, 1.57, 0.96, 0.53, 1.42, -180.00, 90.00, 54.95, 30.31, 81.48, 0.00, -0.00, -0.00, -0.00, -0.00, -0.00, -4.45, -3.45, -0.23, 0.00
31.525668621063232, -3.14, 1.57, 0.96, 0.53, 1.42, -180.00, 90.00, 54.95, 30.31, 81.48, 0.00, -0.00, -0.00, -0.00, -0.00, -0.00, -4.45, -3.45, -0.23, 0.00
31.57889437675476, -3.14, 1.57, 0.96, 0.53, 1.42, -180.00, 90.00, 54.95, 30.31, 81.48, 0.00, -0.00, -0.00, -0.00, -0.00, -0.00, -4.45, -3.45, -0.23, 0.00
31.625893115997314, -3.14, 1.57, 0.96, 0.53, 1.42, -180.00, 90.00, 54.95, 30.31, 81.48, 0.00, -0.00, -0.00, -0.00, -0.00, -0.00, -4.45, -3.45, -0.23, 0.00
31.676895141601562, -3.14, 1.57, 0.96, 0.53, 1.42, -180.00, 90.00, 54.95, 30.31, 81.48, 0.00, -0.00, -0.00, -0.00, -0.00, -0.00, -4.45, -3.45, -0.23, 0.00
31.728411436080933, -3.14, 1.57, 0.96, 0.53, 1.42, -180.00, 90.00, 54.95, 30.31, 81.48, 0.00, -0.00, -0.00, -0.00, -0.00, -0.00, -4.45, -3.45, -0.23, 0.00
31.784409523010254, -3.14, 1.57, 0.96, 0.53, 1.42, -180.00, 90.00, 54.95, 30.31, 81.48, 0.00, -0.00, -0.00, -0.00, -0.00, -0.00, -4.45, -3.45, -0.23, 0.00
31.835410594940186, -3.14, 1.57, 0.96, 0.53, 1.42, -180.00, 90.00, 54.95, 30.31, 81.48, 0.00, -0.00, -0.00, -0.00, -0.00, -0.00, -4.45, -3.45, -0.23, 0.00
31.888413190841675, -3.14, 1.57, 0.96, 0.53, 1.42, -180.00, 90.00, 54.95, 30.31, 81.48, 0.00, -0.00, -0.00, -0.00, -0.00, -0.00, -4.45, -3.45, -0.23, 0.00
31.941051483154297, -3.14, 1.57, 0.96, 0.53, 1.42, -180.00, 90.00, 54.95, 30.31, 81.48, 0.00, -0.00, -0.00, -0.00, -0.00, -0.00, -4.45, -3.45, -0.23, 0.00
31.99204921722412, -3.14, 1.57, 0.96, 0.53, 1.42, -180.00, 90.00, 54.95, 30.31, 81.48, 0.00, -0.00, -0.00, -0.00, -0.00, -0.00, -4.45, -3.45, -0.23, 0.00
32.044944047927856, -3.14, 1.57, 0.96, 0.53, 1.42, -180.00, 90.00, 54.95, 30.31, 81.48, 0.00, -0.00, -0.00, -0.00, -0.00, -0.00, -4.45, -3.45, -0.23, 0.00
32.09994316101074, -3.14, 1.57, 0.96, 0.53, 1.42, -180.00, 90.00, 54.95, 30.31, 81.48, 0.00, -0.00, -0.00, -0.00, -0.00, -0.00, -4.45, -3.45, -0.23, 0.00
32.151941776275635, -3.14, 1.57, 0.96, 0.53, 1.42, -180.00, 90.00, 54.95, 30.31, 81.48, 0.00, -0.00, -0.00, -0.00, -0.00, -0.00, -4.45, -3.45, -0.23, 0.00
32.20470309257507, -3.14, 1.57, 0.96, 0.53, 1.42, -180.00, 90.00, 54.95, 30.31, 81.48, 0.00, -0.00, -0.00, -0.00, -0.00, -0.00, -4.45, -3.45, -0.23, 0.00
32.25565218925476, -3.14, 1.57, 0.96, 0.53, 1.42, -180.00, 90.00, 54.95, 30.31, 81.48, 0.00, -0.00, -0.00, -0.00, -0.00, -0.00, -4.45, -3.45, -0.23, 0.00
32.303651094436646, -3.14, 1.57, 0.96, 0.53, 1.42, -180.00, 90.00, 54.95, 30.31, 81.48, 0.00, -0.00, -0.00, -0.00, -0.00, -0.00, -4.45, -3.45, -0.23, 0.00
32.35365104675293, -3.14, 1.57, 0.96, 0.53, 1.42, -180.00, 90.00, 54.95, 30.31, 81.48, 0.00, -0.00, -0.00, -0.00, -0.00, -0.00, -4.45, -3.45, -0.23, 0.00
32.403650999069214, -3.14, 1.57, 0.96, 0.53, 1.42, -180.00, 90.00, 54.95, 30.31, 81.48, 0.00, -0.00, -0.00, -0.00, -0.00, -0.00, -4.45, -3.45, -0.23, 0.00
32.45665121078491, -3.14, 1.57, 0.96, 0.53, 1.42, -180.00, 90.00, 54.95, 30.31, 81.48, 0.00, -0.00, -0.00, -0.00, -0.00, -0.00, -4.45, -3.45, -0.23, 0.00
32.51465177536011, -3.14, 1.57, 0.96, 0.53, 1.42, -180.00, 90.00, 54.95, 30.31, 81.48, 0.00, -0.00, -0.00, -0.00, -0.00, -0.00, -4.45, -3.45, -0.23, 0.00
32.565651178359985, -3.14, 1.57, 0.96, 0.53, 1.42, -180.00, 90.00, 54.95, 30.31, 81.48, 0.00, -0.00, -0.00, -0.00, -0.00, -0.00, -4.45, -3.45, -0.23, 0.00
32.61665153503418, -3.14, 1.57, 0.96, 0.53, 1.42, -180.00, 90.00, 54.95, 30.31, 81.48, 0.00, -0.00, -0.00, -0.00, -0.00, -0.00, -4.45, -3.45, -0.23, 0.00
32.66565179824829, -3.14, 1.57, 0.96, 0.53, 1.42, -180.00, 90.00, 54.95, 30.31, 81.48, 0.00, -0.00, -0.00, -0.00, -0.00, -0.00, -4.45, -3.45, -0.23, 0.00
32.71665120124817, -3.14, 1.57, 0.96, 0.53, 1.42, -180.00, 90.00, 54.95, 30.31, 81.48, 0.00, -0.00, -0.00, -0.00, -0.00, -0.00, -4.45, -3.45, -0.23, 0.00
32.77065086364746, -3.14, 1.57, 0.96, 0.53, 1.42, -180.00, 90.00, 54.95, 30.31, 81.48, 0.00, -0.00, -0.00, -0.00, -0.00, -0.00, -4.45, -3.45, -0.23, 0.00
32.81765079498291, -3.14, 1.57, 0.96, 0.53, 1.42, -180.00, 90.00, 54.95, 30.31, 81.48, 0.00, -0.00, -0.00, -0.00, -0.00, -0.00, -4.45, -3.45, -0.23, 0.00
32.87365198135376, -3.14, 1.57, 0.96, 0.53, 1.42, -180.00, 90.00, 54.95, 30.31, 81.48, 0.00, -0.00, -0.00, -0.00, -0.00, -0.00, -4.45, -3.45, -0.23, 0.00
32.92264986038208, -3.14, 1.57, 0.96, 0.53, 1.42, -180.00, 90.00, 54.95, 30.31, 81.48, 0.00, -0.00, -0.00, -0.00, -0.00, -0.00, -4.45, -3.45, -0.23, 0.00
32.98765182495117, -3.14, 1.57, 0.96, 0.53, 1.42, -180.00, 90.00, 54.95, 30.31, 81.48, 0.00, -0.00, -0.00, -0.00, -0.00, -0.00, -4.45, -3.45, -0.23, 0.00
33.0396511554718, -3.14, 1.57, 0.96, 0.53, 1.42, -180.00, 90.00, 54.95, 30.31, 81.48, 0.00, -0.00, -0.00, -0.00, -0.00, -0.00, -4.45, -3.45, -0.23, 0.00
33.09078001976013, -3.14, 1.57, 0.96, 0.53, 1.42, -180.00, 90.00, 54.95, 30.31, 81.48, 0.00, -0.00, -0.00, -0.00, -0.00, -0.00, -4.45, -3.45, -0.23, 0.00
33.13878059387207, -3.14, 1.57, 0.96, 0.53, 1.42, -180.00, 90.00, 54.95, 30.31, 81.48, 0.00, -0.00, -0.00, -0.00, -0.00, -0.00, -4.45, -3.45, -0.23, 0.00
33.191779136657715, -3.14, 1.57, 0.96, 0.53, 1.42, -180.00, 90.00, 54.95, 30.31, 81.48, 0.00, -0.00, -0.00, -0.00, -0.00, -0.00, -4.45, -3.45, -0.23, 0.00
33.24770522117615, -3.14, 1.57, 0.96, 0.53, 1.42, -180.00, 90.00, 54.95, 30.31, 81.48, 0.00, -0.00, -0.00, -0.00, -0.00, -0.00, -4.45, -3.45, -0.23, 0.00
33.29668617248535, -3.14, 1.57, 0.96, 0.53, 1.42, -180.00, 90.00, 54.95, 30.31, 81.48, 0.00, -0.00, -0.00, -0.00, -0.00, -0.00, -4.45, -3.45, -0.23, 0.00
33.345686197280884, -3.14, 1.57, 0.96, 0.53, 1.42, -180.00, 90.00, 54.95, 30.31, 81.48, 0.00, -0.00, -0.00, -0.00, -0.00, -0.00, -4.45, -3.45, -0.23, 0.00
33.39368963241577, -3.14, 1.57, 0.96, 0.53, 1.42, -180.00, 90.00, 54.95, 30.31, 81.48, 0.00, -0.00, -0.00, -0.00, -0.00, -0.00, -4.45, -3.45, -0.23, 0.00
33.442588567733765, -3.14, 1.57, 0.96, 0.53, 1.42, -180.00, 90.00, 54.95, 30.31, 81.48, 0.00, -0.00, -0.00, -0.00, -0.00, -0.00, -4.45, -3.45, -0.23, 0.00
33.490591526031494, -3.14, 1.57, 0.96, 0.53, 1.42, -180.00, 90.00, 54.95, 30.31, 81.48, 0.00, -0.00, -0.00, -0.00, -0.00, -0.00, -4.45, -3.45, -0.23, 0.00
33.54158663749695, -3.14, 1.57, 0.96, 0.53, 1.42, -180.00, 90.00, 54.95, 30.31, 81.48, 0.00, -0.00, -0.00, -0.00, -0.00, -0.00, -4.45, -3.45, -0.23, 0.00
33.595584869384766, -3.14, 1.57, 0.96, 0.53, 1.42, -180.00, 90.00, 54.95, 30.31, 81.48, 0.00, -0.00, -0.00, -0.00, -0.00, -0.00, -4.45, -3.45, -0.23, 0.00
33.653674364089966, -3.14, 1.57, 0.96, 0.53, 1.42, -180.00, 90.00, 54.95, 30.31, 81.48, 0.00, -0.00, -0.00, -0.00, -0.00, -0.00, -4.45, -3.45, -0.23, 0.00
33.70725178718567, -3.14, 1.57, 0.96, 0.53, 1.42, -180.00, 90.00, 54.95, 30.31, 81.48, 0.00, -0.00, -0.00, -0.00, -0.00, -0.00, -4.45, -3.45, -0.23, 0.00
33.7571280002594, -3.14, 1.57, 0.96, 0.53, 1.42, -180.00, 90.00, 54.95, 30.31, 81.48, 0.00, -0.00, -0.00, -0.00, -0.00, -0.00, -4.45, -3.45, -0.23, 0.00
33.80812859535217, -3.14, 1.57, 0.96, 0.53, 1.42, -180.00, 90.00, 54.95, 30.31, 81.48, 0.00, -0.00, -0.00, -0.00, -0.00, -0.00, -4.45, -3.45, -0.23, 0.00
33.85812854766846, -3.14, 1.57, 0.96, 0.53, 1.42, -180.00, 90.00, 54.95, 30.31, 81.48, 0.00, -0.00, -0.00, -0.00, -0.00, -0.00, -4.45, -3.45, -0.23, 0.00
33.91265249252319, -3.14, 1.57, 0.96, 0.53, 1.42, -180.00, 90.00, 54.95, 30.31, 81.48, 0.00, -0.00, -0.00, -0.00, -0.00, -0.00, -4.45, -3.45, -0.23, 0.00
33.96964931488037, -3.14, 1.57, 0.96, 0.53, 1.42, -180.00, 90.00, 54.95, 30.31, 81.48, 0.00, -0.00, -0.00, -0.00, -0.00, -0.00, -4.45, -3.45, -0.23, 0.00
34.031020402908325, -3.14, 1.57, 0.96, 0.53, 1.42, -180.00, 90.00, 54.86, 30.31, 81.48, 0.00, -0.00, -0.39, -0.00, 0.01, -0.00, -40.78, -37.73, -13.75, -0.00
34.08881855010986, -3.14, 1.57, 0.97, 0.53, 1.42, -180.00, 89.99, 55.79, 30.31, 81.46, 0.00, -0.02, 3.90, 0.00, -0.10, -0.00, 455.04, 375.15, 149.19, 0.00
34.25981879234314, -3.14, 1.57, 1.02, 0.53, 1.42, -180.00, 89.99, 58.69, 30.31, 81.41, 0.00, -0.04, 12.15, 0.00, -0.18, -0.00, 882.75, 728.78, 289.13, 0.00
34.43481945991516, -3.14, 1.57, 1.08, 0.53, 1.42, -180.00, 89.99, 61.82, 30.31, 81.41, 0.00, 0.00, 13.10, 0.00, 0.01, -0.00, 71.27, 86.92, 40.95, 0.00
34.58620023727417, -3.14, 1.57, 1.13, 0.53, 1.42, -180.00, 89.99, 64.64, 30.31, 81.43, 0.00, 0.01, 11.83, 0.00, 0.05, -0.00, -172.39, -113.05, -36.66, -0.00
34.756654262542725, -3.14, 1.57, 1.17, 0.53, 1.42, -180.00, 89.99, 67.18, 30.31, 81.44, 0.00, 0.01, 10.64, 0.00, 0.04, -0.00, -157.15, -106.79, -35.40, -0.00
34.93537163734436, -3.14, 1.57, 1.21, 0.53, 1.42, -180.00, 89.99, 69.47, 30.31, 81.44, 0.00, 0.01, 9.57, 0.00, 0.03, -0.00, -137.59, -96.01, -32.24, -0.00
35.10637092590332, -3.14, 1.57, 1.25, 0.53, 1.42, -180.00, 89.99, 71.52, 30.31, 81.45, 0.00, 0.01, 8.61, 0.00, 0.03, -0.00, -120.66, -86.22, -29.26, -0.00
35.29305386543274, -3.14, 1.57, 1.28, 0.53, 1.42, -180.00, 89.99, 73.37, 30.31, 81.45, 0.00, 0.00, 7.75, 0.00, 0.02, -0.00, -106.11, -77.43, -26.51, -0.00
35.48474431037903, -3.14, 1.57, 1.31, 0.53, 1.42, -180.00, 89.99, 75.04, 30.31, 81.46, 0.00, 0.00, 6.97, 0.00, 0.02, -0.00, -93.58, -69.54, -23.98, -0.00
35.6907434463501, -3.14, 1.57, 1.34, 0.53, 1.42, -180.00, 90.00, 76.53, 30.31, 81.46, 0.00, 0.00, 6.27, 0.00, 0.01, -0.00, -82.77, -62.44, -21.65, -0.00
35.90792727470398, -3.14, 1.57, 1.36, 0.63, 1.42, -180.00, 89.99, 77.86, 36.09, 81.44, 0.00, -0.00, 5.57, 24.21, -0.07, -0.00, 649.61, 785.38, 433.15, 0.00
36.05302286148071, -3.14, 1.57, 1.38, 0.72, 1.42, -180.00, 90.00, 79.08, 41.48, 81.45, 0.00, 0.00, 5.09, 22.58, 0.02, -0.00, -190.94, -133.49, -42.92, -0.00
36.2055389881134, -3.14, 1.57, 1.40, 0.81, 1.42, -180.00, 90.00, 80.17, 46.33, 81.45, 0.00, 0.00, 4.58, 20.32, 0.02, -0.00, -191.10, -153.88, -55.58, -0.00
36.34904909133911, -3.14, 1.57, 1.42, 0.88, 1.42, -180.00, 90.00, 81.16, 50.51, 81.46, 0.00, 0.00, 4.12, 17.50, 0.01, -0.00, -175.21, -159.74, -64.19, -0.00
36.50205063819885, -3.14, 1.57, 1.43, 0.92, 1.42, -180.00, 90.00, 82.04, 52.85, 81.46, 0.00, 0.00, 3.71, 9.80, 0.01, -0.00, -241.42, -295.32, -154.09, -0.00
36.652974128723145, -3.14, 1.57, 1.45, 0.96, 1.42, -180.00, 90.00, 82.84, 54.95, 81.46, 0.00, 0.00, 3.33, 8.82, 0.01, -0.00, -72.60, -68.29, -26.71, -0.00
36.81117367744446, -3.14, 1.57, 1.46, 0.99, 1.42, -180.00, 90.00, 83.56, 56.85, 81.46, 0.00, 0.00, 3.00, 7.93, 0.01, -0.00, -61.56, -59.17, -23.47, -0.00
36.97007775306702, -3.14, 1.57, 1.47, 1.05, 1.42, -180.00, 90.00, 84.20, 60.16, 81.46, 0.00, 0.00, 2.70, 13.89, 0.00, -0.00, 56.05, 144.55, 106.13, 0.00
37.13359761238098, -3.14, 1.57, 1.48, 1.10, 1.42, -180.00, 90.00, 84.78, 63.15, 81.47, 0.00, 0.00, 2.43, 12.50, 0.00, -0.00, -73.43, -75.19, -30.56, -0.00
37.28859734535217, -3.14, 1.57, 1.49, 1.15, 1.42, -180.00, 90.00, 85.30, 65.83, 81.47, 0.00, 0.00, 2.19, 11.25, 0.00, -0.00, -61.17, -64.88, -27.10, -0.00
37.44659924507141, -3.14, 1.57, 1.50, 1.19, 1.42, -180.00, 90.00, 85.77, 68.25, 81.47, 0.00, 0.00, 1.97, 10.12, 0.00, -0.00, -51.05, -55.78, -23.95, -0.00
37.601293325424194, -3.14, 1.57, 1.50, 1.23, 1.42, -180.00, 90.00, 86.20, 70.42, 81.47, 0.00, 0.00, 1.77, 9.11, 0.00, -0.00, -42.83, -47.94, -21.14, -0.00
37.73829960823059, -3.14, 1.57, 1.51, 1.26, 1.42, -180.00, 90.00, 86.58, 72.38, 81.47, 0.00, 0.00, 1.59, 8.20, 0.00, -0.00, -36.17, -41.21, -18.64, -0.00
37.86829614639282, -3.14, 1.57, 1.52, 1.29, 1.42, -180.00, 90.00, 86.92, 74.14, 81.47, 0.00, 0.00, 1.43, 7.38, 0.00, -0.00, -30.76, -35.43, -16.41, -0.00
37.994866371154785, -3.14, 1.57, 1.52, 1.32, 1.42, -180.00, 90.00, 87.23, 75.73, 81.47, 0.00, 0.00, 1.29, 6.64, 0.00, -0.00, -26.35, -30.46, -14.42, -0.00
38.11361265182495, -3.14, 1.57, 1.53, 1.35, 1.42, -180.00, 90.00, 87.50, 77.16, 81.47, 0.00, 0.00, 1.16, 5.98, 0.00, -0.00, -22.76, -26.19, -12.64, -0.00
38.218613147735596, -3.14, 1.57, 1.53, 1.37, 1.42, -180.00, 90.00, 87.75, 78.44, 81.47, 0.00, 0.00, 1.05, 5.38, 0.00, -0.00, -19.81, -22.52, -11.05, -0.00
38.31461477279663, -3.14, 1.57, 1.54, 1.39, 1.43, -180.00, 90.00, 87.98, 79.60, 81.95, 0.00, 0.00, 0.94, 4.84, 1.99, -0.00, -17.40, -19.35, -9.62, 0.00
38.409613370895386, -3.14, 1.57, 1.54, 1.41, 1.44, -180.00, 90.00, 88.18, 80.64, 82.75, 0.00, 0.00, 0.85, 4.36, 3.37, -0.00, -15.41, -16.61, -8.35, 0.00
38.503612995147705, -3.14, 1.57, 1.54, 1.42, 1.46, -180.00, 90.00, 88.36, 81.57, 83.48, 0.00, 0.00, 0.76, 3.92, 3.04, -0.00, -13.76, -14.25, -7.21, -0.00
38.60661458969116, -3.14, 1.57, 1.55, 1.44, 1.47, -180.00, 90.00, 88.53, 82.42, 84.13, 0.00, 0.00, 0.69, 3.53, 2.73, -0.00, -12.41, -12.20, -6.19, -0.00
38.69661355018616, -3.14, 1.57, 1.55, 1.45, 1.48, -180.00, 90.00, 88.67, 83.17, 84.72, 0.00, 0.00, 0.62, 3.18, 2.46, -0.00, -11.27, -10.41, -5.27, -0.00
38.78661251068115, -3.14, 1.57, 1.55, 1.46, 1.49, -180.00, 90.00, 88.81, 83.86, 85.24, 0.00, 0.00, 0.56, 2.86, 2.21, -0.00, -10.33, -8.87, -4.45, -0.00
38.865126609802246, -3.14, 1.57, 1.55, 1.47, 1.50, -180.00, 90.00, 88.93, 84.47, 85.72, 0.00, 0.00, 0.50, 2.57, 1.99, -0.00, -9.53, -7.51, -3.71, -0.00
38.936163663864136, -3.14, 1.57, 1.55, 1.48, 1.50, -180.00, 90.00, 89.03, 85.02, 86.15, 0.00, 0.00, 0.45, 2.32, 1.79, -0.00, -8.86, -6.33, -3.06, -0.00
39.01413941383362, -3.14, 1.57, 1.56, 1.49, 1.51, -180.00, 90.00, 89.13, 85.52, 86.53, 0.00, 0.00, 0.41, 2.08, 1.61, -0.00, -8.30, -5.30, -2.46, -0.00
39.09214115142822, -3.14, 1.57, 1.56, 1.50, 1.52, -180.00, 90.00, 89.22, 85.97, 86.88, 0.00, 0.00, 0.36, 1.88, 1.45, -0.00, -7.81, -4.38, -1.93, -0.00
39.17614388465881, -3.14, 1.57, 1.56, 1.51, 1.52, -180.00, 90.00, 89.30, 86.37, 87.19, 0.00, 0.00, 0.33, 1.69, 1.31, -0.00, -7.41, -3.59, -1.45, -0.00
39.24497842788696, -3.14, 1.57, 1.56, 1.51, 1.53, -180.00, 90.00, 89.37, 86.74, 87.47, 0.00, 0.00, 0.30, 1.52, 1.18, -0.00, -7.07, -2.88, -1.02, -0.00
39.31397533416748, -3.14, 1.57, 1.56, 1.52, 1.53, -180.00, 90.00, 89.43, 87.06, 87.73, 0.00, 0.00, 0.27, 1.37, 1.06, -0.00, -6.77, -2.26, -0.64, -0.00
39.37897515296936, -3.14, 1.57, 1.56, 1.52, 1.54, -180.00, 90.00, 89.49, 87.36, 87.95, 0.00, 0.00, 0.24, 1.23, 0.95, -0.00, -6.51, -1.71, -0.29, -0.00
39.44897651672363, -3.14, 1.57, 1.56, 1.53, 1.54, -180.00, 90.00, 89.54, 87.62, 88.16, 0.00, 0.00, 0.22, 1.11, 0.86, -0.00, -6.28, -1.22, 0.02, -0.00
39.51597738265991, -3.14, 1.57, 1.56, 1.53, 1.54, -180.00, 90.00, 89.58, 87.86, 88.34, 0.00, 0.00, 0.19, 1.00, 0.77, -0.00, -6.10, -0.80, 0.30, -0.00
39.58797574043274, -3.14, 1.57, 1.56, 1.54, 1.54, -180.00, 90.00, 89.63, 88.07, 88.51, 0.00, 0.00, 0.17, 0.90, 0.69, -0.00, -5.93, -0.41, 0.55, -0.00
39.664677143096924, -3.14, 1.57, 1.56, 1.54, 1.55, -180.00, 90.00, 89.66, 88.26, 88.66, 0.00, 0.00, 0.16, 0.81, 0.63, -0.00, -5.79, -0.07, 0.78, -0.00
39.735944986343384, -3.14, 1.57, 1.57, 1.54, 1.55, -180.00, 90.00, 89.70, 88.44, 88.79, 0.00, 0.00, 0.14, 0.73, 0.56, -0.00, -5.66, 0.23, 0.98, -0.00
39.81193828582764, -3.14, 1.57, 1.57, 1.55, 1.55, -180.00, 90.00, 89.73, 88.59, 88.91, 0.00, 0.00, 0.13, 0.65, 0.51, -0.00, -5.55, 0.50, 1.16, -0.00
39.8819375038147, -3.14, 1.57, 1.57, 1.55, 1.55, -180.00, 90.00, 89.75, 88.73, 89.02, 0.00, 0.00, 0.11, 0.59, 0.46, -0.00, -5.46, 0.74, 1.33, -0.00
39.94893741607666, -3.14, 1.57, 1.57, 1.55, 1.56, -180.00, 90.00, 89.78, 88.86, 89.12, 0.00, 0.00, 0.10, 0.53, 0.41, -0.00, -5.37, 0.95, 1.47, -0.00
40.01893854141235, -3.14, 1.57, 1.57, 1.55, 1.56, -180.00, 90.00, 89.80, 88.98, 89.21, 0.00, 0.00, 0.09, 0.48, 0.37, -0.00, -5.30, 1.14, 1.61, -0.00
40.087937355041504, -3.14, 1.57, 1.57, 1.55, 1.56, -180.00, 90.00, 89.82, 89.08, 89.29, 0.00, 0.00, 0.08, 0.43, 0.33, -0.00, -5.23, 1.32, 1.73, -0.00
40.15545105934143, -3.14, 1.57, 1.57, 1.56, 1.56, -180.00, 90.00, 89.84, 89.17, 89.36, 0.00, 0.00, 0.08, 0.39, 0.30, -0.00, -5.18, 1.47, 1.83, -0.00
40.232353925704956, -3.14, 1.57, 1.57, 1.56, 1.56, -180.00, 90.00, 89.86, 89.25, 89.42, 0.00, 0.00, 0.07, 0.35, 0.27, -0.00, -5.12, 1.60, 1.93, -0.00
40.3039436340332, -3.14, 1.57, 1.57, 1.56, 1.56, -180.00, 90.00, 89.87, 89.33, 89.48, 0.00, 0.00, 0.06, 0.31, 0.24, -0.00, -5.08, 1.73, 2.02, -0.00
40.37194013595581, -3.14, 1.57, 1.57, 1.56, 1.56, -180.00, 90.00, 89.88, 89.39, 89.53, 0.00, 0.00, 0.05, 0.28, 0.22, -0.00, -5.03, 1.84, 2.10, -0.00
40.43693947792053, -3.14, 1.57, 1.57, 1.56, 1.56, -180.00, 90.00, 89.89, 89.46, 89.58, 0.00, 0.00, 0.05, 0.25, 0.20, -0.00, -5.00, 1.93, 2.17, -0.00
40.50694227218628, -3.14, 1.57, 1.57, 1.56, 1.56, -180.00, 90.00, 89.91, 89.51, 89.62, 0.00, 0.00, 0.04, 0.23, 0.18, -0.00, -4.97, 2.02, 2.23, -0.00
40.57393980026245, -3.14, 1.57, 1.57, 1.56, 1.56, -180.00, 90.00, 89.92, 89.56, 89.66, 0.00, 0.00, 0.04, 0.21, 0.16, -0.00, -4.94, 2.10, 2.29, -0.00
40.64593982696533, -3.14, 1.57, 1.57, 1.56, 1.57, -180.00, 90.00, 89.92, 89.60, 89.69, 0.00, 0.00, 0.04, 0.18, 0.14, -0.00, -4.92, 2.17, 2.34, -0.00
40.71300721168518, -3.14, 1.57, 1.57, 1.56, 1.57, -180.00, 90.00, 89.93, 89.64, 89.72, 0.00, 0.00, 0.03, 0.17, 0.13, -0.00, -4.89, 2.24, 2.39, -0.00
40.78900766372681, -3.14, 1.57, 1.57, 1.57, 1.57, -180.00, 90.00, 89.94, 89.68, 89.75, 0.00, 0.00, 0.03, 0.15, 0.12, -0.00, -4.87, 2.29, 2.43, -0.00
40.86552882194519, -3.14, 1.57, 1.57, 1.57, 1.57, -180.00, 90.00, 89.94, 89.71, 89.78, 0.00, 0.00, 0.03, 0.13, 0.10, -0.00, -4.86, 2.34, 2.46, -0.00
40.928529024124146, -3.14, 1.57, 1.57, 1.57, 1.57, -180.00, 90.00, 89.95, 89.74, 89.80, 0.00, 0.00, 0.02, 0.12, 0.09, -0.00, -4.84, 2.39, 2.50, -0.00
40.99544620513916, -3.14, 1.57, 1.57, 1.57, 1.57, -180.00, 90.00, 89.96, 89.76, 89.82, 0.00, 0.00, 0.02, 0.11, 0.08, -0.00, -4.83, 2.43, 2.53, -0.00
41.06044602394104, -3.14, 1.57, 1.57, 1.57, 1.57, -180.00, 90.00, 89.96, 89.79, 89.84, 0.00, 0.00, 0.02, 0.10, 0.08, -0.00, -4.81, 2.47, 2.56, -0.00
41.12244534492493, -3.14, 1.57, 1.57, 1.57, 1.57, -180.00, 90.00, 89.96, 89.81, 89.85, 0.00, 0.00, 0.02, 0.09, 0.07, -0.00, -4.80, 2.50, 2.58, -0.00
41.19144535064697, -3.14, 1.57, 1.57, 1.57, 1.57, -180.00, 90.00, 89.97, 89.83, 89.87, 0.00, 0.00, 0.02, 0.08, 0.06, -0.00, -4.79, 2.53, 2.60, -0.00
41.25944662094116, -3.14, 1.57, 1.57, 1.57, 1.57, -180.00, 90.00, 89.97, 89.85, 89.88, 0.00, 0.00, 0.01, 0.07, 0.06, -0.00, -4.78, 2.56, 2.62, -0.00
41.32644581794739, -3.14, 1.57, 1.57, 1.57, 1.57, -180.00, 90.00, 89.97, 89.86, 89.89, 0.00, 0.00, 0.01, 0.06, 0.05, -0.00, -4.77, 2.58, 2.64, -0.00
41.38996243476868, -3.14, 1.57, 1.57, 1.57, 1.57, -180.00, 90.00, 89.98, 89.87, 89.90, 0.00, -0.00, 0.01, 0.06, 0.04, -0.00, 0.81, 2.59, 2.65, -0.00
41.456960678100586, -3.14, 1.57, 1.57, 1.57, 1.57, -180.00, 90.00, 89.98, 89.89, 89.91, 0.00, -0.00, 0.01, 0.05, 0.04, -0.00, 0.82, 2.63, 2.67, -0.00
41.52596187591553, -3.14, 1.57, 1.57, 1.57, 1.57, -180.00, 90.00, 89.98, 89.90, 89.92, 0.00, -0.00, 0.01, 0.05, 0.04, -0.00, 0.83, 2.64, 2.68, -0.00
41.59248089790344, -3.14, 1.57, 1.57, 1.57, 1.57, -180.00, 90.00, 89.98, 89.91, 89.93, 0.00, -0.00, 0.01, 0.04, 0.03, -0.00, 0.84, 2.66, 2.69, -0.00
41.65347933769226, -3.14, 1.57, 1.57, 1.57, 1.57, -180.00, 90.00, 89.98, 89.92, 89.94, 0.00, -0.00, 0.01, 0.04, 0.03, -0.00, 0.84, 2.67, 2.71, -0.00
41.716336250305176, -3.14, 1.57, 1.57, 1.57, 1.57, -180.00, 90.00, 89.99, 89.93, 89.94, 0.00, -0.00, 0.01, 0.03, 0.03, -0.00, 0.85, 2.69, 2.71, -0.00
41.78033518791199, -3.14, 1.57, 1.57, 1.57, 1.57, -180.00, 90.00, 89.99, 89.93, 89.95, 0.00, -0.00, 0.01, 0.03, 0.02, -0.00, 0.86, 2.70, 2.72, -0.00
41.843334436416626, -3.14, 1.57, 1.57, 1.57, 1.57, -180.00, 90.00, 89.99, 89.94, 89.95, 0.00, -0.00, 0.01, 0.03, 0.02, -0.00, 0.86, 2.71, 2.73, -0.00
41.913347244262695, -3.14, 1.57, 1.57, 1.57, 1.57, -180.00, 90.00, 89.99, 89.95, 89.96, 0.00, -0.00, 0.00, 0.03, 0.02, -0.00, 0.87, 2.72, 2.74, -0.00
41.985344648361206, -3.14, 1.57, 1.57, 1.57, 1.57, -180.00, 90.00, 89.99, 89.95, 89.96, 0.00, -0.00, 0.00, 0.02, 0.02, -0.00, 0.87, 2.73, 2.74, -0.00
42.05134606361389, -3.14, 1.57, 1.57, 1.57, 1.57, -180.00, 90.00, 89.99, 89.96, 89.97, 0.00, -0.00, 0.00, 0.02, 0.02, -0.00, 0.87, 2.73, 2.75, -0.00
42.112345457077026, -3.14, 1.57, 1.57, 1.57, 1.57, -180.00, 90.00, 89.99, 89.96, 89.97, 0.00, -0.00, 0.00, 0.02, 0.01, -0.00, 0.87, 2.74, 2.75, -0.00
42.18334746360779, -3.14, 1.57, 1.57, 1.57, 1.57, -180.00, 90.00, 89.99, 89.96, 89.97, 0.00, -0.00, 0.00, 0.02, 0.01, -0.00, 0.88, 2.75, 2.76, -0.00
42.26034712791443, -3.14, 1.57, 1.57, 1.57, 1.57, -180.00, 90.00, 89.99, 89.97, 89.98, 0.00, -0.00, 0.00, 0.01, 0.01, -0.00, 0.88, 2.75, 2.76, -0.00
42.324344873428345, -3.14, 1.57, 1.57, 1.57, 1.57, -180.00, 90.00, 89.99, 89.97, 89.98, 0.00, -0.00, 0.00, 0.01, 0.01, -0.00, 0.88, 2.76, 2.77, -0.00
42.387683153152466, -3.14, 1.57, 1.57, 1.57, 1.57, -180.00, 90.00, 90.00, 89.97, 89.98, 0.00, -0.00, 0.00, 0.01, 0.01, -0.00, 0.88, 2.76, 2.77, -0.00
42.45820212364197, -3.14, 1.57, 1.57, 1.57, 1.57, -180.00, 90.00, 90.00, 89.98, 89.98, 0.00, -0.00, 0.00, 0.01, 0.01, -0.00, 0.88, 2.76, 2.77, -0.00
42.52347254753113, -3.14, 1.57, 1.57, 1.57, 1.57, -180.00, 90.00, 90.00, 89.98, 89.98, 0.00, -0.00, 0.00, 0.01, 0.01, -0.00, 0.89, 2.77, 2.78, -0.00
42.58947706222534, -3.14, 1.57, 1.57, 1.57, 1.57, -180.00, 90.00, 90.00, 89.98, 89.99, 0.00, -0.00, 0.00, 0.01, 0.01, -0.00, 0.89, 2.77, 2.78, -0.00
42.657474517822266, -3.14, 1.57, 1.57, 1.57, 1.57, -180.00, 90.00, 90.00, 89.98, 89.99, 0.00, 0.00, 0.00, 0.01, 0.01, -0.00, -4.69, 2.78, 2.78, -0.00
42.725473165512085, -3.14, 1.57, 1.57, 1.57, 1.57, -180.00, 90.00, 90.00, 89.98, 89.99, 0.00, -0.00, 0.00, 0.01, 0.01, -0.00, 0.88, 2.76, 2.78, -0.00
