sulimanbadour1/Project_S/control/InverseKinematics/robot_joint_data.csv
Time, Joint 1 Angle, Joint 2 Angle, Joint 3 Angle, Joint 4 Angle, Joint 5 Angle, Joint 1 Vel, Joint 2 Vel, Joint 3 Vel, Joint 4 Vel, Joint 5 Vel, Joint 1 Eff, Joint 2 Eff, Joint 3 Eff, Joint 4 Eff, Joint 5 Eff
0.0, -3.141918, 1.57096, 0.9590584932073033, 0.5289714409863684, 1.4220324037667882, 0.01968000000000103, -0.009599999999998943, 0.014038369752811752, -0.0068541632715906665, 0.007776904029176981, -49.53162668489986, -0.6579437827078777, -3.4905322837149684, -0.21769259339176164, 8.577776816638866e-07
0.004784822463989258, -3.1418524, 1.5709279999999999, 0.959079577646505, 0.5289625101550266, 1.4220451791442896, 0.01574400000000509, -0.0076799999999970225, 0.005060265408406345, -0.0021433995220196643, 0.003066090600354206, -20.208365700539982, -3.3579345337923283, -3.8690227404210504, -0.38712508552470754, -1.1291587648038746e-06
0.009994983673095703, -3.14179992, 1.5709023999999998, 0.9590936224517105, 0.5289567826549233, 1.4220538679892571, 0.012595199999999807, -0.006143999999995486, 0.003370753249325259, -0.001374600024802543, 0.0020853227922185556, -16.166989148440486, -3.1585045628519115, -3.4013268725034203, -0.21985306594476337, -5.852284630623535e-08
0.015858888626098633, -3.141757936, 1.57088192, 0.9591028327155305, 0.528953423911417, 1.4220598841103198, 0.010076160000004107, -0.004915199999992126, 0.002210463316818345, -0.0008060984415210767, 0.0014438690550429099, -12.933859775869735, -3.3993139043645044, -3.3950834527757596, -0.21632294930633722, -7.664364326940608e-10
0.020440340042114258, -3.1417243488, 1.570865536, 0.9591083943366302, 0.528951836183171, 1.4220638696630337, 0.008060927999999025, -0.003932159999997964, 0.0013347890639148485, -0.0003810547790466034, 0.0009565326513505629, -10.347284871872738, -3.6044929840245548, -3.40184511460695, -0.21804749707921495, 7.155994891913543e-09
0.02533411979675293, -3.14169747904, 1.5708524287999999, 0.9591112186924293, 0.5289515552403942, 1.422066314324501, 0.006448742400003482, -0.0031457279999962673, 0.0006778453917951066, -6.742626644161436e-05, 0.0005867187521185698, -8.277971402143574, -3.7693820322177327, -3.4079402556487395, -0.2196787648382681, 1.1674105368057537e-08
0.03105330467224121, -3.141675983232, 1.5708419430399998, 0.9591120161941767, 0.5289522207546095, 1.4220676010351019, 0.005158993919998522, -0.0025165823999948322, 0.00019140041937176777, 0.00015972341166838185, 0.0003088105442417886, -6.622481463545876, -3.901638533762408, -3.4131288682199297, -0.221091911551095, 1.4658423191977179e-08
0.03590798377990723, -3.1416587865856, 1.5708335544319998, 0.9591113388149711, 0.5289535543659377, 1.4220680286240528, 0.0041271951360073444, -0.0020132659199916247, -0.00016257100936031832, 0.000320066718769938, 0.00010262134823978207, -5.29806094520745, -4.007743938941988, -3.4175520336290695, -0.22231625766070337, 1.651008390397148e-08
0.041463375091552734, -3.1416450292684797, 1.5708268435455999, 0.9591096134319468, 0.5289553422973395, 1.4220678293984417, 0.0033017561087973495, -0.0016106127359911682, -0.00041409192583580223, 0.00042910353642374317, -4.781414665197843e-05, -4.238503726245438, -4.092897844811749, -3.4213355855337952, -0.22338016587944762, 1.7510414175514014e-08
0.04680991172790527, -3.1416340234147837, 1.57082147483648, 0.9591071683202299, 0.5289574215465944, 1.422067183126146, 0.0026414048870293527, -0.0012884901887950662, -0.0005868268120529097, 0.000499019821172108, -0.00015510535097977264, -3.390842821782688, -4.1612634102891635, -3.424583078228576, -0.22430733034089964, 1.7878052586894306e-08
0.052367210388183594, -3.1416252187318268, 1.570817179869184, 0.9591042541997282, 0.5289596689290765, 1.4220662281539835, 0.002113123909623483, -0.0010307921510381846, -0.0006993889204134074, 0.0005393717957041916, -0.00022919331899538267, -2.7127031094551564, -4.21617395334976, -3.42737972644761, -0.2251175211151576, 1.7783027660209954e-08
0.05760645866394043, -3.1416181749854615, 1.5708137438953471, 0.9591010609395081, 0.5289619923922164, 1.4220650702411135, 0.0016904991276902592, -0.000824633720828416, -0.0007663824528426066, 0.0005576311535630987, -0.0002778990888079047, -2.1701833667774535, -4.2602986011523, -3.429795856862486, -0.22582729525571127, 1.735699459171452e-08
0.06301450729370117, -3.141612539988369, 1.5708109951162776, 0.9590977308016133, 0.5289643241392917, 1.4220637895707, 0.0013523993021564706, -0.0006597069766627051, -0.0007992330947585724, 0.000559619298066415, -0.0003073608992174346, -1.7361617935042946, -4.295774863474152, -3.4318896883282037, -0.2264505721318405, 1.6701347428071248e-08
0.06809711456298828, -3.141608031990695, 1.5708087960930222, 0.9590943689284488, 0.5289666151934612, 1.422062446309665, 0.00108191944171665, -0.0005277655813280546, -0.0008068495594769076, 0.0005498530006724199, -0.00032238264843766426, -1.3889403492849632, -4.324314725802042, -3.433709569208936, -0.22699909793483147, 1.5893664941037023e-08
0.07258868217468262, -3.141604425592556, 1.5708070368744178, 0.9590910516358191, 0.5289688311074935, 1.4220610850118591, 0.00086553555337332, -0.0004222124650645753, -0.0007961502311262247, 0.00053181936773928, -0.0003267114734034539, -1.1111601646801803, -4.347289551274692, -3.435295781316008, -0.22748282194734507, 1.499282831093317e-08
0.07831501960754395, -3.1416015404740447, 1.5708056294995343, 0.9590878329602064, 0.5289709485842009, 1.4220597381004354, 0.0006924284426901294, -0.00033776997205589576, -0.0007724821470487808, 0.0005081944097796756, -0.0003232587417046275, -0.8889338260369444, -4.365798025056721, -3.43668199730818, -0.22791020235252832, 1.4043079997459185e-08
0.08358454704284668, -3.1415992323792357, 1.5708045035996274, 0.9590847498181818, 0.5289729528201716, 1.4220584286176048, 0.0005539427541521036, -0.0002702159776468427, -0.0007399540859026055, 0.0004810166329668144, -0.00031427587935875176, -0.7111511713798553, -4.380720529240252, -3.437896460457961, -0.22828845557988842, 1.307723895203784e-08
0.08922410011291504, -3.1415973859033883, 1.5708036028797019, 0.9590818260633862, 0.5289748354233998, 1.4220571723919253, 0.0004431542033174197, -0.0002161727821174686, -0.0007017011509354021, 0.00045182477477062827, -0.0003014941630561336, -0.5689239033871354, -4.3927626595749745, -3.4389629415729788, -0.2286237602549623, 1.2119244033248618e-08
0.09463787078857422, -3.1415959087227106, 1.5708028823037614, 0.9590790756686415, 0.5289765927857691, 1.4220559797428807, 0.0003545233626454092, -0.00017293822569186545, -0.0006600947387285783, 0.0004217669686427897, -0.00028623577069788087, -0.455141262618055, -4.402490053604377, -3.439901516739276, -0.22892142453874884, 1.1186162816173114e-08
0.10008549690246582, -3.1415947269781683, 1.5708023058430092, 0.9590765052145305, 0.5289782248155788, 1.4220548568182272, 0.0002836186901120641, -0.00013835058054920135, -0.0006169089866345234, 0.0003916871542984891, -0.00026950191683886596, -0.3641145534466075, -4.410356266247529, -3.440729200767773, -0.22918602386158615, 1.0289775280280232e-08
0.1065070629119873, -3.1415937815825346, 1.5708018446744074, 0.959074115828879, 0.5289797339546481, 1.4220538066401998, 0.00022689495208538807, -0.00011068046444154267, -0.0005734525563450554, 0.0003621933766498989, -0.00025204272660452303, -0.2912927555967962, -4.416725081915412, -3.441460464239185, -0.22942151464698032, 9.437819744401646e-09
0.11102581024169922, -3.141593025266028, 1.5708014757395259, 0.9590719046921113, 0.5289811244199758, 1.422052829921183, 0.00018151596166404715, -8.854437155744743e-05, -0.0005306728242355507, 0.0003337116786288289, -0.0002344125640313323, -0.23303500672756047, -4.4218883746453574, -3.4421076565041284, -0.22963132851376872, 8.634970684139541e-09
0.1167905330657959, -3.141592420212822, 1.5708011805916207, 0.9590698661999403, 0.5289824016222413, 1.4220519256970947, 0.00014521276933976426, -7.083549724384852e-05, -0.000489238121065827, 0.0003065285437250286, -0.00021701378118143617, -0.18642858363538994, -4.4260804055769345, -3.4426813525812094, -0.22981845056502712, 7.883603951733028e-09
0.12172222137451172, -3.141591936170258, 1.5708009444732964, 0.9590679928560955, 0.5289835717232644, 1.4220510918168636, 0.00011617021546328488, -5.666839779294719e-05, -0.0004496025227567757, 0.0002808242455404848, -0.00020013125546623984, -0.14914328361389814, -4.4294892693566865, -3.44319063835931, -0.2299854846669901, 7.184393631230116e-09
0.12675213813781738, -3.1415915489362063, 1.5708007555786372, 0.9590662759528354, 0.5289846413023619, 1.422050325318514, 9.293617237915441e-05, -4.5334718230094495e-05, -0.0004120567824047183, 0.0002566989834127681, -0.00018395960392973994, -0.11931492716439569, -4.432266058853329, -3.4436433456984106, -0.2301347080646971, 6.536775740793031e-09
0.1326150894165039, -3.141591239148965, 1.5708006044629097, 0.9590647060850622, 0.528985617107784, 1.4220496227160937, 7.434893790758679e-05, -3.6267774586207224e-05, -0.00037676826557139775, 0.00023419330131594566, -0.00016862458083724747, -0.09545215806538879, -4.434532203762286, -3.4440462467801076, -0.23026811723632887, 5.9393067869558494e-09
0.1370551586151123, -3.141590991319172, 1.5708004835703278, 0.959063273534356, 0.5289865058743772, 1.4220489802166791, 5.947915033033269e-05, -2.901421966683415e-05, -0.0003438121694677998, 0.00021330398237629153, -0.00015419985950702246, -0.07636188229543851, -4.436385347647069, -3.444405215226512, -0.23038746652150638, 5.389939458736042e-09
0.14292430877685547, -3.1415907930553377, 1.570800386856262, 0.9590619685516798, 0.5289873141925769, 1.4220483938826987, 4.75833202600029e-05, -2.321137573346732e-05, -0.0003131958423035208, 0.00019399636793638458, -0.00014072015529517182, -0.06108961808242808, -4.437904055115175, -3.4447253600905725, -0.2304943007811387, 4.8862331408762795e-09
0.14838838577270508, -3.1415906344442703, 1.5708003094850096, 0.9590607815614772, 0.5289880484169768, 1.422047859751649, 3.8066656216528834e-05, -1.85691005825106e-05, -0.0002848776486302218, 0.00017621385596486836, -0.00012819145191207454, -0.048871775322689694, -4.4391515825601555, -3.445011137621253, -0.23058998310303472, 4.425513310062195e-09
0.15466642379760742, -3.1415905075554162, 1.5708002475880076, 0.9590597033050999, 0.528988714605221, 1.4220473739227417, 3.0453324981749574e-05, -1.485528046177298e-05, -0.0002587815305591379, 0.00015988517860938593, -0.00011659893777694595, -0.039097478493659445, -4.440178899251851, -3.4452664448050396, -0.2306757183904755, 4.004990920697886e-09
0.15974044799804688, -3.141590406044333, 1.570800198070406, 0.9590587249376874, 0.5289893184799511, 1.4220469326180127, 2.4362659985399663e-05, -1.1884224367264551e-05, -0.00023480817900939366, 0.00014492993522553072, -0.00010591313495146722, -0.031278024725252714, -4.4410271082664075, -3.4454946979079657, -0.23075257351272685, 3.6218506247286997e-09
0.16523408889770508, -3.1415903248354664, 1.570800158456325, 0.9590578380896005, 0.5289898654081123, 1.422046532223828, 1.949012799684624e-05, -9.507379491680013e-06, -0.0002128435408424445, 0.0001312627586892155, -9.609460430438308e-05, -0.02502244998288446, -4.441729386880615, -3.4456988986513966, -0.23082149457820128, 3.273314770598704e-09
0.1704862117767334, -3.141590259868373, 1.57080012676506, 0.9590570349011097, 0.5289903603931722, 1.4220461693174467, 1.5592102393213736e-05, -7.605903597635022e-06, -0.0001927652378044542, 0.00011879641434603655, -8.709753154456e-05, -0.020017981722421963, -4.442312542172485, -3.445881690159316, -0.2308833217901662, 2.9566886961112234e-09
0.17553305625915527, -3.1415902078946982, 1.570800101412048, 0.9590563080371358, 0.528990808076791, 1.4220458406822973, 1.2473681906044476e-05, -6.084722880189686e-06, -0.00017444735373775555, 0.00010744406852421965, -7.887243586065939e-05, -0.016014401020782096, -4.442798258465108, -3.446045404417977, -0.2309388022632943, 2.669391654662753e-09
0.18069696426391602, -3.1415901663157584, 1.5708000811296385, 0.959055650687339, 0.5289912127472649, 1.4220455433148278, 9.978945520572326e-06, -4.8677783084372095e-06, -0.00015776395122948927, 9.712091373851618e-05, -7.136819270639122e-05, -0.012811532080748762, -4.443204097940597, -3.446192102681926, -0.23098860111777209, 2.40897677552597e-09
0.18710732460021973, -3.1415901330526066, 1.5708000649037108, 0.9590550565556586, 0.5289915783526742, 1.4220452744251508, 7.983156407931347e-06, -3.894222651013024e-06, -0.0001425916032865293, 8.774529823637611e-05, -6.453352245439663e-05, -0.010249233768068206, -4.443544303534602, -3.446323609984597, -0.2310333111088251, 2.1731427282194418e-09
0.19157981872558594, -3.1415901064420853, 1.5708000519229686, 0.9590545198424701, 0.5289919085171579, 1.4220450314332145, 6.386525122081821e-06, -3.1153781208381748e-06, -0.00012881116521895608, 7.923947608897744e-05, -5.831806472154044e-05, -0.008199392849961564, -4.443830443407541, -3.4464415447188084, -0.23107346101014042, 1.959739195322279e-09
0.19750046730041504, -3.141590085153668, 1.570800041538375, 0.9590540352217863, 0.5289922065591124, 1.4220448119618272, 5.109220097665457e-06, -2.492302492385079e-06, -0.0001163089641172399, 7.153006906125509e-05, -5.2673132971138436e-05, -0.0065595184847054505, -4.444071928464207, -3.4465473440739887, -0.23110952293223994, 1.7667677665764892e-09
0.2029564380645752, -3.1415900681229343, 1.5708000332307, 0.9590535978153477, 0.5289924755104114, 1.422044613827561, 4.087376069605854e-06, -1.9938419981713196e-06, -0.00010497754527621916, 6.454831175923635e-05, -4.755222385148324e-05, -0.00524761780511419, -4.444276428115599, -3.446642285979384, -0.2311419187265547, 1.592379535631406e-09
0.2079627513885498, -3.1415900544983475, 1.5708000265845599, 0.9590532031649944, 0.5289927181359774, 1.4220444350303116, 3.2699008514214265e-06, -1.5950735985370557e-06, -9.471608477820692e-05, 5.823013582687147e-05, -4.291133984833034e-05, -0.004198096417486871, -4.44445020446867, -3.4467275080912567, -0.23117102560299693, 1.434870357590772e-09
0.2140522003173828, -3.141590043598678, 1.5708000212676478, 0.9590528472043551, 0.528992936953213, 1.4220442737420989, 2.615920685400397e-06, -1.2760588745663881e-06, -8.543055342707939e-05, 5.251613656052181e-05, -3.8709171077649834e-05, -0.0033584787071851484, -4.444598381085848, -3.4468040242802687, -0.23119718107113116, 1.2926745213781926e-09
0.22804903984069824, -3.1415900348789423, 1.5708000170141183, 0.9590525262306113, 0.5289931342509446, 1.4220441282955485, 2.092736544057061e-06, -1.0208470975214823e-06, -7.703369851225217e-05, 4.735145557145354e-05, -3.4907172072166164e-05, -0.0026867840904367456, -4.444725159268074, -3.446872738976026, -0.23122068729151166, 1.164357420991438e-09
0.2460496425628662, -3.141590027903154, 1.5708000136112947, 0.9590522368768831, 0.5289933121076336, 1.4220439971723757, 1.6741892352456493e-06, -8.16677680148814e-07, -6.944489477059279e-05, 4.2685605333004177e-05, -3.146956146356701e-05, -0.002149428084741041, -4.444833992228968, -3.4469344596883524, -0.23124181491727566, 1.048607642847245e-09
0.2520482540130615, -3.1415900223225233, 1.5708000108890359, 0.9590519760856157, 0.5289934724086978, 1.4220438789921, 1.3393513924597755e-06, -6.533421483823076e-07, -6.258990419696908e-05, 3.847225540854906e-05, -2.8363266210137612e-05, -0.001719543057807491, -4.444927725465607, -3.446989907966202, -0.23126080649202066, 9.442287891579636e-10
0.25804901123046875, -3.1415900178580185, 1.5708000087112286, 0.9590517410832196, 0.5289936168628451, 1.422043772501154, 1.0714811224943332e-06, -5.226737229691025e-07, -5.6400575056125835e-05, 3.46689953518727e-05, -2.555782699132212e-05, -0.0013756348776889523, -4.445008709981381, -3.447039729009903, -0.23127787945965986, 8.501312877080877e-10
0.26404905319213867, -3.1415900142864146, 1.570800006968983, 0.9590515293561229, 0.5289937470173683, 1.4220436765624975, 8.571848937322103e-07, -4.1813897408427003e-07, -5.0814503186169535e-05, 3.123708557263945e-05, -2.302527760189624e-05, -0.0011005082012062394, -4.4450788936995576, -3.4470845001201984, -0.23129322883397535, 7.653243468789786e-10
0.2700488567352295, -3.1415900114291317, 1.5708000055751863, 0.9590513386283191, 0.5289938642723871, 1.4220435901457973, 6.857479064592552e-07, -3.345111814212487e-07, -4.577467291841386e-05, 2.8141204508502005e-05, -2.0740008051164036e-05, -0.0008804067688529687, -4.44513989534164, -3.4471247381452517, -0.23130702957130053, 6.889081759323207e-10
0.27504801750183105, -3.1415900091433056, 1.5708000044601491, 0.9590511668404417, 0.5289939698940465, 1.4220435123182193, 5.485983294306607e-07, -2.6760894297761517e-07, -4.1229090604666396e-05, 2.534919823271397e-05, -1.86786186788888e-05, -0.0007043255762099872, -4.445193064213307, -3.4471609060464736, -0.23131943867855564, 6.200665708585127e-10
0.2810478210449219, -3.1415900073146443, 1.5708000035681193, 0.9590510121303581, 0.5289940650266997, 1.4220434422358412, 4.388786720710414e-07, -2.14087158667553e-07, -3.7130420047187807e-05, 2.283183675852912e-05, -1.681977074672796e-05, -0.0005634605843106413, -4.445239528633076, -3.4471934187153654, -0.2313305970938329, 5.580598791193739e-10
0.2870500087738037, -3.1415900058517154, 1.5708000028544955, 0.9590508728152467, 0.5289941507041168, 1.422043379135685, 3.511029333935767e-07, -1.7126972906567062e-07, -3.343562675600653e-05, 2.056258011737854e-05, -1.5144037511025383e-05, -0.0004507685447321953, -4.445280235229268, -3.4472226481158468, -0.23134063135974745, 5.022184125276027e-10
0.29204797744750977, -3.1415900046813725, 1.5708000022835964, 0.9590507473750985, 0.5289942278597672, 1.4220433223283575, 2.8088234671486145e-07, -1.370157853841647e-07, -3.0105635564298128e-05, 1.851735609457238e-05, -1.3633758587722359e-05, -0.0003606148939178977, -4.445315980863706, -3.447248927853779, -0.2313496551187786, 4.519362951415605e-10
0.29704809188842773, -3.141590003745098, 1.570800001826877, 0.9590506344375785, 0.528994297336229, 1.4220432711912756, 2.247058858984019e-07, -1.0961262830733176e-07, -2.71050048118171e-05, 1.667435083784255e-05, -1.2272899669691354e-05, -0.00028849196715812945, -4.445347438616069, -3.4472725572304443, -0.23135777044700492, 4.0666575276209016e-10
0.30304765701293945, -3.1415900029960784, 1.5708000014615016, 0.9590505327641663, 0.5289943598937829, 1.4220432251624469, 1.7976470445546513e-07, -8.76901005142372e-08, -2.440161894778914e-05, 1.5013812916096393e-05, -1.1046918902597802e-05, -0.00023079359998564916, -4.445375178969376, -3.4472938048515718, -0.23136506904709003, 3.659118329557489e-10
0.3080484867095947, -3.1415900023968626, 1.5708000011692012, 0.9590504412374973, 0.5289944162182453, 1.4220431837347773, 1.438117678276285e-07, -7.015207612037777e-08, -2.1966400570117006e-05, 1.3517870975115987e-05, -9.942640696379455e-06, -0.0001846349063317116, -4.44539968711653, -3.4473129118394787, -0.23137163331479255, 3.292275511250266e-10
0.3130476474761963, -3.14159000191749, 1.5708000009353609, 0.9590503588498214, 0.5289944669280988, 1.4220431464508712, 1.1504940999884639e-07, -5.612165668300584e-08, -1.9773042223586446e-05, 1.2170364841881958e-05, -8.948137486120987e-06, -0.00014770793627372355, -4.445421377127574, -3.4473300946968966, -0.23137753729342786, 2.9620942387309626e-10
0.3180525302886963, -3.141590001533992, 1.5708000007482887, 0.9590502846924972, 0.5289945125809725, 1.4220431128982898, 9.203952799907711e-08, -4.489732322032758e-08, -1.779775780799686e-05, 1.0956689688675873e-05, -8.052619541319593e-06, -0.00011816635990129051, -4.445440603574448, -3.4473455478622124, -0.23138284752852067, 2.6649338747857067e-10
0.3236966133117676, -3.1415900012271933, 1.570800000598631, 0.9590502179464427, 0.5289945536795255, 1.4220430827052364, 7.36316181360053e-08, -3.591786068568581e-08, -1.601905307430096e-05, 9.863652709737455e-06, -7.246332813493866e-06, -9.45330911255071e-05, -4.445457671090681, -3.4473594459910064, -0.2313876238333264, 2.3975106300564667e-10
0.32836389541625977, -3.1415900009817546, 1.5708000004789047, 0.9590501578734657, 0.5289945906767826, 1.422043055536634, 5.890528598229139e-08, -2.8734284285292233e-08, -1.4417514480474791e-05, 8.879341684795338e-06, -6.520464600188808e-06, -7.562646845703225e-05, -4.44547284225658, -3.447371945995145, -0.231391919974931, 2.1568635522445805e-10
0.33417439460754395, -3.1415900007854036, 1.5708000003831237, 0.9590501038084013, 0.5289946239809689, 1.422043031090564, 4.7124224522576696e-08, -2.298742529660558e-08, -1.2975615453714173e-05, 7.993004717958825e-06, -5.867056734918117e-06, -6.0501173187696235e-05, -4.445486344112449, -3.4473831888689204, -0.2313957842901244, 1.940323516439366e-10
0.33907175064086914, -3.141590000628323, 1.570800000306499, 0.9590500551519882, 0.5289946539598874, 1.4220430090950393, 3.769937961806136e-08, -1.8389940237284463e-08, -1.1677539144161475e-05, 7.194940448177916e-06, -5.278925949989694e-06, -4.840094115637672e-05, -4.445498373565332, -3.4473933013180607, -0.23139926023634844, 1.7454850895191063e-10
0.34507203102111816, -3.1415900005026582, 1.5708000002451992, 0.9590500113644194, 0.528994680944879, 1.4220429893050768, 3.015951222096193e-08, -1.4711954293700202e-08, -1.0509016523607695e-05, 6.476397973309704e-06, -4.749590999266925e-06, -3.872076498365028e-05, -4.445509101883042, -3.447402397222821, -0.231402386887187, 1.5701809289847097e-10
0.3508298397064209, -3.1415900004021267, 1.5708000001961593, 0.9590499719595076, 0.5289947052344032, 1.4220429715000515, 2.4127601250256703e-08, -1.176956135329199e-08, -9.457178829969104e-06, 5.829485795844627e-06, -4.273206076522632e-06, -3.097660454394979e-05, -4.4455186784436025, -3.4474105789465996, -0.2314051993765289, 1.412458664806266e-10
0.35662031173706055, -3.141590000321701, 1.5708000001569273, 0.9590499364994107, 0.5289947270972742, 1.4220429554813008, 1.9302085263461783e-08, -9.415646928800925e-09, -8.510423251395505e-06, 5.247089049597262e-06, -3.844500164783047e-06, -2.4781288845342645e-05, -4.445527233870804, -3.447417938510574, -0.23140772929784503, 1.2705597915740907e-10
0.36171793937683105, -3.141590000257361, 1.5708000001255418, 0.9590499045898653, 0.5289947467755842, 1.42204294106996, 1.5441663947513007e-08, -7.53251325202875e-09, -7.658290895135034e-06, 4.722794385820203e-06, -3.4587218025799102e-06, -1.9825027383113962e-05, -4.445534882670748, -3.447424558644299, -0.23141000506190812, 1.1429007547762034e-10
0.3667147159576416, -3.141590000205889, 1.5708000001004334, 0.959049875875882, 0.528994764487342, 1.422042928105006, 1.2353339684523238e-08, -6.026006360571046e-09, -6.89135597958801e-06, 4.250821845684674e-06, -3.111588935244554e-06, -1.5860031937344876e-05, -4.445541725450292, -3.447430513730401, -0.23141205221868713, 1.0280556549827703e-10
0.37184691429138184, -3.1415900001647112, 1.5708000000803468, 0.9590498500378596, 0.5289947804288551, 1.422042916441492, 9.882676010875006e-09, -4.820805116212412e-09, -6.201125379134975e-06, 3.8259631420372345e-06, -2.7992433437659948e-06, -1.268803176718234e-05, -4.445547850793992, -3.4474358706512827, -0.23141389374637178, 9.247407879431909e-11
0.3768494129180908, -3.141590000131769, 1.5708000000642774, 0.9590498267880779, 0.5289947947768792, 1.422042905948953, 7.90614507195642e-09, -3.856648334021884e-09, -5.579947605638402e-06, 3.443525786080989e-06, -2.518209384213371e-06, -1.015043108357022e-05, -4.445553336856184, -3.4474406895479905, -0.23141555031053007, 8.318005196444987e-11
0.381847620010376, -3.141590000105415, 1.570800000051422, 0.9590498058675345, 0.5289948076905564, 1.4220428965099674, 6.324924584077964e-09, -3.085318667217507e-09, -5.020930416294034e-06, 3.099282540332832e-06, -2.2653565633908867e-06, -8.120355388486155e-06, -4.445558252716725, -3.447445024502682, -0.2314170404974582, 7.481946813392011e-11
0.38684749603271484, -3.141590000084332, 1.5708000000411375, 0.9590497870430917, 0.5289948193131635, 1.4220428880188605, 5.059931140749541e-09, -2.4682549337740056e-09, -4.517866269843074e-06, 2.7894257066010662e-06, -2.0378656858730813e-06, -6.496275452712523e-06, -4.445562659536394, -3.4474489241535364, -0.23141838102455745, 6.72987044211819e-11
0.391848087310791, -3.1415900000674655, 1.57080000003291, 0.9590497701049043, 0.5289948297736878, 1.4220428803805345, 4.047940649343218e-09, -1.9746018153909972e-09, -4.06516496892495e-06, 2.5105258367601363e-06, -1.8331982419135688e-06, -5.197014680019549e-06, -4.4455666115499, -3.447452432242028, -0.23141958692778525, 6.053350350860886e-11
0.39784908294677734, -3.1415900000539723, 1.570800000026328, 0.9590497548641012, 0.528994839188248, 1.4220428735094148, 3.2383482562181602e-09, -1.5796857155692123e-09, -3.657792762262746e-06, 2.2594944233673835e-06, -1.6490687247455235e-06, -4.157606459358254e-06, -4.445570156917069, -3.4474555881089803, -0.23142067173151695, 5.4448040932141466e-11
0.4028470516204834, -3.141590000043178, 1.5708000000210625, 0.9590497411506953, 0.528994847661374, 1.4220428673284997, 2.5906743417181133e-09, -1.2637464408271626e-09, -3.291217397560775e-06, 2.033550234633744e-06, -1.4834196458734746e-06, -3.3260798599903625e-06, -4.445573338462828, -3.4474584271362954, -0.23142164760010758, 4.897408559481605e-11
0.40784716606140137, -3.141590000034542, 1.57080000001685, 0.9590497288117018, 0.5289948552871611, 1.4220428617685041, 2.072539473374491e-09, -1.0109992842899373e-09, -2.9613584482113264e-06, 1.830188901240615e-06, -1.3343989401859314e-06, -2.6608635009771854e-06, -4.445576194308418, -3.4474609811499644, -0.2314225254759022, 4.405024149510321e-11
0.41284823417663574, -3.1415900000276338, 1.57080000001348, 0.9590497177094411, 0.528994862150309, 1.422042856767089, 1.6580230521867638e-09, -8.088037184439401e-10, -2.6645425691695923e-06, 1.6471555046925153e-06, -1.2003396024699547e-06, -2.1286809573238913e-06, -4.445578758427835, -3.4474632787747836, -0.23142331520121237, 3.962126696891037e-11
0.4196789264678955, -3.141590000022107, 1.570800000010784, 0.9590497077200116, 0.5289948683270583, 1.422042852268167, 1.32642696826224e-09, -6.470450841788988e-10, -2.397463077341566e-06, 1.4824198419957506e-06, -1.0797413091278112e-06, -1.7029538031108623e-06, -4.44558106112761, -3.4474653457579016, -0.23142402562913245, 3.5637459889130036e-11
0.4249889850616455, -3.1415900000176857, 1.5708000000086273, 0.9590496987319136, 0.5289948738860338, 1.422042848221276, 1.0611458378662064e-09, -5.176339634704874e-10, -2.157143523390248e-06, 1.334154115248911e-06, -9.712538383516012e-07, -1.3623688535963017e-06, -4.445583129466634, -3.44746720525968, -0.23142466472354495, 3.205410184508485e-11
0.4300501346588135, -3.1415900000141486, 1.5708000000069018, 0.95904969064481, 0.5289948788890039, 1.4220428445810172, 8.489209335493797e-10, -4.14111411828344e-10, -1.940904840430635e-06, 1.2007128203747597e-06, -8.736621122797015e-07, -1.0899004603483032e-06, -4.445584987621575, -3.44746887811406, -0.23142523964849201, 2.8830961517614548e-11
0.43512749671936035, -3.141590000011319, 1.5708000000055213, 0.959049683368411, 0.5289948833915649, 1.4220428413065473, 6.791367468395038e-10, -3.3128702559004353e-10, -1.7463357624702969e-06, 1.0806146399427563e-06, -7.858727507767081e-07, -8.719208056563147e-07, -4.445586657212719, -3.4474703830591777, -0.23142575684744643, 2.5931846158007757e-11
0.44122886657714844, -3.141590000009055, 1.570800000004417, 0.9590496768214689, 0.5289948874437569, 1.4220428383611228, 5.43309397471603e-10, -2.6502533501115977e-10, -1.5712661128319816e-06, 9.725260835242214e-07, -7.069018995729575e-07, -6.97536650392181e-07, -4.445588157584623, -3.44747173695376, -0.23142622211761293, 2.3324194925333354e-11
0.44701266288757324, -3.141590000007244, 1.5708000000035336, 0.959049670930874, 0.5289948910906185, 1.422042835711688, 4.346389914644533e-10, -2.120223996371351e-10, -1.4137427786220513e-06, 8.752467840845781e-07, -6.358643126847457e-07, -5.580194506979486e-07, -4.445589506054103, -3.4474729549621115, -0.23142664067350996, 2.0978715679142815e-11
0.4520993232727051, -3.1415900000057952, 1.5708000000028268, 0.9590496656308404, 0.5289948943726862, 1.422042833328507, 3.4771119317156263e-10, -1.6961365645329352e-10, -1.2720080674322176e-06, 7.876962441156701e-07, -5.719634982521991e-07, -4.4641470514594177e-07, -4.44559071813499, -3.447474050723646, -0.23142701720530442, 1.886906112535638e-11
0.4564971923828125, -3.141590000004636, 1.5708000000022615, 0.959049660862173, 0.528994897326444, 1.4220428311848283, 2.781774810500792e-10, -1.3568879353442753e-10, -1.1444801739368682e-06, 7.08901869708342e-07, -5.144828352383873e-07, -3.5714164014272484e-07, -4.445591807729355, -3.4474750365114137, -0.23142735593323258, 1.6971525185722587e-11
0.46166467666625977, -3.141590000003709, 1.5708000000018092, 0.9590496565716079, 0.5289948999847283, 1.4220428292565883, 2.2254198484006338e-10, -1.0855319421132492e-10, -1.0297356347332975e-06, 6.379882306809776e-07, -4.6277758151192313e-07, -2.857141721400652e-07, -4.445592787300087, -3.447475923363946, -0.23142766065297862, 1.526478771481e-11
0.46666741371154785, -3.1415900000029673, 1.5708000000014473, 0.9590496527112183, 0.5289949023770922, 1.4220428275221395, 1.780335878720507e-10, -8.684253316459944e-11, -9.264935016128906e-07, 5.74167362670553e-07, -4.162676942140109e-07, -2.2857133884513136e-07, -4.445593668026331, -3.44747672121116, -0.231427934778974, 1.3729667849315199e-11
0.4720747470855713, -3.141590000002374, 1.5708000000011577, 0.9590496492378805, 0.5289949045301341, 1.422042825962009, 1.4243539681046968e-10, -6.946979103084061e-11, -8.336010908494007e-07, 5.167300366410742e-07, -3.744313334669605e-07, -1.8286694573039223e-07, -4.445594459937949, -3.447477438987133, -0.2314281813831492, 1.2348912756416197e-11
0.4772002696990967, -3.1415900000018993, 1.5708000000009261, 0.9590496461127923, 0.528994906467792, 1.4220428245586798, 1.1395684396120485e-10, -5.5571547363797436e-11, -7.500211567645909e-07, 4.650379008030491e-07, -3.3679903896052393e-07, -1.4630428946168224e-07, -4.445595172034956, -3.4474780847290463, -0.23142840322896316, 1.1107001947547381e-11
0.4829409122467041, -3.1415900000015196, 1.570800000000741, 0.9590496433010408, 0.5289949082116104, 1.4220428232963944, 9.116973842537848e-11, -4.445507850725505e-11, -6.748203474349346e-07, 4.185164127383342e-07, -3.0294847086396837e-07, -1.1704922736284191e-07, -4.4455958123959824, -3.4474786656662006, -0.2314286028019936, 9.989978582788352e-12
0.48833537101745605, -3.141590000001216, 1.5708000000005928, 0.9590496407712125, 0.528994909780979, 1.422042822160979, 7.294431725313189e-11, -3.55661888828962e-11, -6.071588143641282e-07, 3.766484586833171e-07, -2.7249969166728946e-07, -9.364968525904294e-08, -4.445596388275914, -3.4474791883031943, -0.23142878233867364, 8.985284916375321e-12
0.493377685546875, -3.1415900000009724, 1.5708000000004743, 0.9590496384950422, 0.5289949111933483, 1.4220428211396836, 5.836398031533463e-11, -2.8457264322767628e-11, -5.462808567446853e-07, 3.3896862781770535e-07, -2.4511093029570327e-07, -7.493048071662224e-08, -4.445596906190388, -3.4474796584908987, -0.2314289438505322, 8.08162505140673e-12
0.4990370273590088, -3.141590000000778, 1.5708000000003794, 0.9590496364470985, 0.5289949124644234, 1.422042820221039, 4.6682657739438576e-11, -2.276578925375361e-11, -4.915064871213737e-07, 3.050580344851883e-07, -2.2047472565893864e-07, -5.993536934350184e-08, -4.445597371992707, -3.4474800814926807, -0.2314290891471032, 7.268842215687973e-12
0.5036501884460449, -3.1415900000006225, 1.5708000000003035, 0.9590496346044991, 0.5289949136083387, 1.4220428193947285, 3.734612619155087e-11, -1.8214763031210168e-11, -4.422238534251832e-07, 2.7453967984986555e-07, -1.9831449508966673e-07, -4.794743713659144e-08, -4.445597790940571, -3.4474804620450876, -0.231429219856665, 6.537797775970635e-12
0.5093743801116943, -3.141590000000498, 1.570800000000243, 0.9590496329466557, 0.5289949146378148, 1.4220428186514724, 2.988542746606982e-11, -1.456970655233647e-11, -3.978824277273141e-07, 2.4707426343932365e-07, -1.783814473245628e-07, -3.836782362986202e-08, -4.445598167759002, -3.447480804407489, -0.23142933744349128, 5.880271857512387e-12
0.5151169300079346, -3.1415900000003987, 1.5708000000001943, 0.9590496314550438, 0.5289949155642998, 1.4220428179829234, 2.391686848568497e-11, -1.1660006293823244e-11, -3.579868438075007e-07, 2.2235640793443862e-07, -1.604517665022982e-07, -3.070499125323642e-08, -4.445598506692891, -3.447481112413655, -0.23142944322542758, 5.2888722008420476e-12
0.5200173854827881, -3.1415900000003187, 1.5708000000001554, 0.9590496301129964, 0.5289949163980968, 1.422042817381573, 1.9142021301377102e-11, -9.325873406851315e-12, -3.220914002732833e-07, 2.0011128502749306e-07, -1.4432414310586933e-07, -2.4574725335504124e-08, -4.445598811559328, -3.4474813895098495, -0.23142953838713057, 4.756948683661326e-12
0.5256545543670654, -3.141590000000255, 1.5708000000001243, 0.959049628905517, 0.5289949171484782, 1.4220428168406667, 1.5305090528272558e-11, -7.460726481056668e-12, -2.897950538427452e-07, 1.8009154255260821e-07, -1.2981747392803447e-07, -1.9650764911418234e-08, -4.445599085788293, -3.4474816387995513, -0.2314296239953088, 4.278520460890493e-12
0.5304646492004395, -3.1415900000002037, 1.5708000000000995, 0.959049627819113, 0.5289949178237889, 1.4220428163541299, 1.2235545909788928e-11, -5.968586735960457e-12, -2.607369694873629e-07, 1.6207457387298687e-07, -1.1676885478282688e-07, -1.570987966039214e-08, -4.445599332463201, -3.447481863072576, -0.23142970100887306, 3.848208879286727e-12
0.535895824432373, -3.141590000000163, 1.5708000000000795, 0.9590496268416443, 0.5289949184315391, 1.4220428159164975, 9.784173471416581e-12, -4.774819428732258e-12, -2.3459247755486246e-07, 1.4586003470647717e-07, -1.0503175948105813e-07, -1.2562108372938406e-08, -4.4455995543562405, -3.4474820648392877, -0.23142977029061443, 3.4611737054171242e-12
0.5408837795257568, -3.1415900000001304, 1.5708000000000635, 0.9590496259621882, 0.5289949189784875, 1.4220428155228544, 7.823075520718703e-12, -3.815586735456122e-12, -2.1106946260229797e-07, 1.3126761820521859e-07, -9.447437243909024e-08, -1.0044320564348153e-08, -4.445599753961297, -3.4474822463586223, -0.2314298326169389, 3.1130639592424985e-12
0.5467081069946289, -3.1415900000001042, 1.5708000000000508, 0.9590496251709171, 0.5289949194707169, 1.4220428151687787, 6.2669869294040844e-12, -3.0482560919864454e-12, -1.8990508515726034e-07, 1.1813505505284065e-07, -8.497813401901337e-08, -8.044901072915835e-09, -4.445599933518813, -3.447482409662573, -0.23142988868610948, 2.7999637210404062e-12
0.551795244216919, -3.1415900000000834, 1.5708000000000406, 0.9590496244589886, 0.5289949199137014, 1.4220428148502937, 5.009326287108706e-12, -2.440714297335944e-12, -1.7086285294953818e-07, 1.0631630118306552e-07, -7.643638283479466e-08, -6.431842396265417e-09, -4.445600095043159, -3.447482556579245, -0.231429939126386, 2.5183539083899293e-12
0.5576014518737793, -3.1415900000000665, 1.5708000000000324, 0.9590496238184469, 0.5289949203123677, 1.422042814563822, 4.007461029686965e-12, -1.950439809661475e-12, -1.5372999698226586e-07, 9.567993021812023e-08, -6.875319621545938e-08, -5.145044695436224e-09, -4.44560024034812, -3.447482688752224, -0.23142998450259605, 2.2650662232963892e-12
0.5627555847167969, -3.141590000000053, 1.570800000000026, 0.9590496232421342, 0.5289949206711496, 1.4220428143061459, 3.197442310920451e-12, -1.556116346890235e-12, -1.3831506867623133e-07, 8.610765588749882e-08, -6.184228039606365e-08, -4.106161920281704e-09, -4.445600371063825, -3.4474828076617077, -0.23143002532333096, 2.0372527850675716e-12
0.5689120292663574, -3.1415900000000425, 1.5708000000000208, 0.9590496227236099, 0.5289949209940372, 1.4220428140743708, 2.5579538487363607e-12, -1.2470025012589758e-12, -1.2444580937964744e-07, 7.749302155908303e-08, -5.5626015330536264e-08, -3.284071086803173e-09, -4.445600488654941, -3.447482914639198, -0.23143006204610353, 1.8323504693415634e-12
0.573972225189209, -3.141590000000034, 1.5708000000000166, 0.9590496222570798, 0.5289949212846214, 1.4220428138658934, 2.0463630789890885e-12, -1.0018930129973569e-12, -1.1196724161721683e-07, 6.974022678334207e-08, -5.0034579185477576e-08, -2.6272568710138105e-09, -4.445600594440029, -3.4474830108812284, -0.23143009508204793, 1.6480572091884953e-12
0.5797395706176758, -3.1415900000000274, 1.5708000000000133, 0.9590496218373301, 0.5289949215461341, 1.4220428136783718, 1.6413537196058314e-12, -7.993605777301127e-13, -1.0073993023107519e-07, 6.276305728294764e-08, -4.5005172504546835e-08, -2.1067424175050758e-09, -4.445600689606541, -3.447483097464967, -0.23143012480125374, 1.4822998337823863e-12
0.5854334831237793, -3.141590000000022, 1.5708000000000106, 0.9590496214596701, 0.5289949217814838, 1.4220428135096996, 1.3216094885137863e-12, -6.394884621840902e-13, -9.063840422651737e-08, 5.648391238517022e-08, -4.048130316779407e-08, -1.6956969997546488e-09, -4.445600775220208, -3.4474831753606234, -0.23143015153702412, 1.3332127078101296e-12
0.5907297134399414, -3.1415900000000176, 1.5708000000000084, 0.9590496211198793, 0.5289949219932878, 1.4220428133579823, 1.0658141036401503e-12, -5.115630141716565e-13, -8.154978289875991e-08, 5.08329607108809e-08, -3.641215675145643e-08, -1.3672898911376451e-09, -4.445600852240028, -3.4474832454393014, -0.23143017558863388, 1.1991207337536278e-12
0.5963327884674072, -3.141590000000014, 1.5708000000000066, 0.9590496208141606, 0.5289949221839018, 1.4220428132215155, 8.526512829121202e-13, -4.049816038076415e-13, -7.337250473860024e-08, 4.5747357541192e-08, -3.27520331153591e-08, -1.0946903649469295e-09, -4.445600921529715, -3.447483308485389, -0.23143019722554153, 1.0785147805062416e-12
0.6007912158966064, -3.1415900000000114, 1.5708000000000053, 0.9590496205390973, 0.5289949223554457, 1.4220428130987663, 6.821210263296962e-13, -3.1971647551642945e-13, -6.601518420801256e-08, 4.117054332048794e-08, -2.9459814154050637e-08, -8.757522922662236e-10, -4.445600983865047, -3.447483365205064, -0.23143021669029867, 9.700396181660054e-13
0.6057312488555908, -3.141590000000009, 1.5708000000000042, 0.9590496202916156, 0.5289949225098274, 1.4220428129883558, 5.542233338928781e-13, -2.5579538487363607e-13, -5.939560052126147e-08, 3.705161506226101e-08, -2.649852285205894e-08, -7.104756731807788e-10, -4.445601039943419, -3.447483416233225, -0.2314302342010069, 8.724735986747523e-13
0.6107432842254639, -3.1415900000000074, 1.5708000000000033, 0.9590496200689498, 0.5289949226487639, 1.4220428128890437, 4.4764192352886307e-13, -2.0250467969162855e-13, -5.3439785263620365e-08, 3.3344765352201944e-08, -2.383489240957879e-08, -5.741759098901593e-10, -4.4456010903937555, -3.4474834621404846, -0.23143024995368663, 7.847214370129085e-13
0.6164968013763428, -3.141590000000006, 1.5708000000000026, 0.9590496198686115, 0.5289949227738004, 1.4220428127997145, 3.623767952376512e-13, -1.5987211554602254e-13, -4.808117978760684e-08, 3.000876804583906e-08, -2.1439005458758182e-08, -4.647068734101952e-10, -4.445601135781051, -3.4474835034411484, -0.23143026412494636, 7.057946197244697e-13
0.6215708255767822, -3.1415900000000048, 1.5708000000000022, 0.9590496196883619, 0.5289949228863277, 1.4220428127193647, 2.984279490192421e-13, -1.278699368612024e-13, -4.325989691467136e-08, 2.7006520825599153e-08, -1.928394973907794e-08, -3.8206856377203453e-10, -4.445601176612923, -3.4474835405972994, -0.23143027687348036, 6.348060994053678e-13
0.6273267269134521, -3.141590000000004, 1.5708000000000018, 0.9590496195261866, 0.528994922987597, 1.4220428126470916, 2.3447910280083306e-13, -1.0658141036401503e-13, -3.892205888145206e-08, 2.4304632303024654e-08, -1.7345518297897756e-08, -3.015763831133515e-10, -4.445601213346641, -3.4474835740252168, -0.23143028834227544, 5.709566742647866e-13
0.6335036754608154, -3.141590000000003, 1.5708000000000013, 0.9590496193802733, 0.5289949230787347, 1.4220428125820836, 1.9184653865522705e-13, -8.526512829121202e-14, -3.501919523807295e-08, 2.187305779691395e-08, -1.5601934766586875e-08, -2.4576880030930423e-10, -4.445601246394256, -3.447483604098044, -0.2314302986594679, 5.135306617058603e-13
0.6386876106262207, -3.1415900000000025, 1.570800000000001, 0.9590496192489912, 0.5289949231607546, 1.4220428125236102, 1.4921397450962106e-13, -6.394884621840902e-14, -3.150769004034437e-08, 1.9684752900912138e-08, -1.403361988422169e-08, -1.9210734650624614e-10, -4.445601276126462, -3.4474836311532293, -0.23143030794093486, 4.618791661079708e-13
0.6433606147766113, -3.141590000000002, 1.5708000000000009, 0.9590496191308734, 0.5289949232345686, 1.4220428124710145, 1.2789769243681806e-13, -5.3290705182007514e-14, -2.8348289632385004e-08, 1.771537559645639e-08, -1.262294637025558e-08, -1.631304905832381e-10, -4.445601302874034, -3.4474836554937576, -0.23143031629066993, 4.154237082057625e-13
0.6499884128570557, -3.1415900000000017, 1.5708000000000006, 0.9590496190245996, 0.528994923300998, 1.422042812423706, 1.0658141036401503e-13, -4.260480856999038e-14, -2.5505697692773666e-08, 1.594302749470773e-08, -1.1354072536964209e-08, -1.3629976367554358e-10, -4.445601326937833, -3.4474836773916158, -0.2314303238021349, 3.7364035369348807e-13
0.6563887596130371, -3.141590000000001, 1.5708000000000004, 0.9590496189289823, 0.5289949233607812, 1.4220428123811528, 8.526512829121202e-14, -3.194666753358888e-14, -2.2948143607592897e-08, 1.4347995377146977e-08, -1.0212749675632551e-08, -1.094690367590674e-10, -4.445601348587026, -3.447483697091784, -0.2314303305594, 3.360591131633762e-13
0.6619455814361572, -3.1415900000000008, 1.5708000000000004, 0.9590496188429529, 0.5289949234145835, 1.4220428123428772, 6.394884621840904e-14, -2.1316282072803006e-14, -2.064704640591941e-08, 1.2912541122774018e-08, -9.186153626880627e-09, -8.263830983501966e-11, -4.445601368064246, -3.4474837148151276, -0.23143033663829454, 3.0225828796218574e-13
0.6687138080596924, -3.1415900000000008, 1.5708000000000004, 0.9590496187655501, 0.5289949234630031, 1.4220428123084492, 4.263256414560601e-14, -2.1316282072803006e-14, -1.8576682137005918e-08, 1.1620693119179885e-08, -8.262747171775272e-09, -5.5807582904455863e-11, -4.445601385586021, -3.4474837307606845, -0.2314303421071515, 2.7185637716362574e-13
0.6790456771850586, -3.1415900000000008, 1.5708000000000004, 0.9590496186959088, 0.5289949235065785, 1.4220428122774817, 4.263256414560601e-14, -2.1288526497187377e-14, -1.6713922995625907e-08, 1.0458089227498179e-08, -7.4321639356097425e-09, -5.366216937824159e-11, -4.445601401349122, -3.4474837451056213, -0.23143034702681498, 2.4451234641859823e-13
0.684044599533081, -3.1415900000000008, 1.5708000000000004, 0.9590496186332507, 0.5289949235457944, 1.4220428122496274, 4.263256414560602e-14, -2.1316282072803006e-14, -1.5037952327823234e-08, 9.411800601414774e-09, -6.6850668583808705e-09, -5.366216938249841e-11, -4.445601415530631, -3.4474837580111135, -0.23143035145259064, 2.1991964676935316e-13
0.6900467872619629, -3.1415900000000008, 1.5708000000000004, 0.9590496185768755, 0.5289949235810868, 1.422042812224573, 4.2632564145606005e-14, -2.1316282072803006e-14, -1.3530037840103759e-08, 8.470188406284928e-09, -6.013072564397017e-09, -5.366216938632795e-11, -4.445601428289029, -3.4474837696214147, -0.23143035543399923, 1.9779916235573993e-13
0.6965680122375488, -3.1415900000000008, 1.5708000000000004, 0.9590496185261533, 0.5289949236128484, 1.422042812202037, 4.263256414560601e-14, -2.1316282072803006e-14, -1.217332806779936e-08, 7.622781543740824e-09, -5.408627889214595e-09, -5.366216938977326e-11, -4.445601439767268, -3.4474837800666362, -0.23143035901569156, 1.7790433236719118e-13
0.7015657424926758, -3.1415900000000008, 1.5708000000000004, 0.9590496184805173, 0.5289949236414324, 1.4220428121817663, 4.263256414560601e-14, -2.1316282072803006e-14, -1.0952660556284854e-08, 6.860153894498102e-09, -4.864940650543993e-09, -5.3662169392872906e-11, -4.445601450093767, -3.4474837894636736, -0.2314303622378052, 1.6001078373167966e-13
0.7065680027008057, -3.1415900000000008, 1.5708000000000004, 0.9590496184394574, 0.5289949236671567, 1.4220428121635333, 4.263256414560601e-14, -2.1288526497187377e-14, -9.854395133235272e-09, 6.173822959672503e-09, -4.375903745865825e-09, -5.366216939566146e-11, -4.445601459384317, -3.447483797917913, -0.23143036513651397, 1.4391654115341935e-13
0.7115669250488281, -3.1415900000000008, 1.5708000000000004, 0.9590496184025146, 0.5289949236903074, 1.4220428121471331, 4.263256414560601e-14, -2.1316282072803006e-14, -8.866257644735143e-09, 5.556156602089955e-09, -3.93602681245982e-09, -5.366216939817023e-11, -4.445601467742545, -3.447483805523672, -0.23143036774416195, 1.2944086205378816e-13
0.7175662517547607, -3.1415900000000008, 1.5708000000000004, 0.9590496183692763, 0.528994923711142, 1.4220428121323816, 4.263256414560601e-14, -2.1316282072803006e-14, -7.977202537423622e-09, 5.0002852197134974e-09, -3.5403653076408224e-09, -5.366216940042718e-11, -4.4456014752619195, -3.447483812366012, -0.23143037008994338, 1.164219848947106e-13
0.724567174911499, -3.1415900000000008, 1.5708000000000004, 0.9590496183393709, 0.5289949237298921, 1.4220428121191129, 4.263256414560601e-14, -2.1288526497187377e-14, -7.177298949612165e-09, 4.500026997433503e-09, -3.1844786576504067e-09, -5.366216940245768e-11, -4.445601482027162, -3.447483818522056, -0.23143037220035056, 1.0471138545155129e-13
0.7295656204223633, -3.1415900000000008, 1.5708000000000004, 0.9590496183124642, 0.5289949237467664, 1.422042812107178, 4.263256414560601e-14, -2.1288526497187377e-14, -6.457603674014933e-09, 4.049818370543418e-09, -2.86436504174572e-09, -5.366216940428444e-11, -4.445601488113301, -3.4474838240600802, -0.23143037409877737, 9.417974055372076e-14
0.7345647811889648, -3.1415900000000008, 1.5708000000000004, 0.9590496182882555, 0.5289949237619525, 1.4220428120964428, 4.2632564145606005e-14, -2.1316282072803006e-14, -5.810074615864025e-09, 3.6446502957079152e-09, -2.576430110282453e-09, -5.366216940592792e-11, -4.445601493588901, -3.447483829042515, -0.2314303758066789, 8.470672448094747e-14
0.7415668964385986, -3.1415900000000008, 1.5708000000000004, 0.9590496182664744, 0.5289949237756192, 1.4220428120867867, 4.263256414560601e-14, -2.1288526497187377e-14, -5.227476729263714e-09, 3.2800178415173556e-09, -2.3174385376019723e-09, -5.366216940740649e-11, -4.445601498515124, -3.4474838335249847, -0.2314303773431187, 7.618668673100234e-14
0.7465672492980957, -3.1415900000000008, 1.5708000000000004, 0.9590496182468773, 0.5289949237879187, 1.4220428120781015, 4.2632564145606005e-14, -2.1316282072803006e-14, -4.703298361885544e-09, 2.9518662767599712e-09, -2.0844812398102526e-09, -5.3662169408736647e-11, -4.445601502947001, -3.4474838375576122, -0.2314303787252926, 6.852370270858061e-14
0.751568078994751, -3.1415900000000008, 1.5708000000000004, 0.9590496182292453, 0.5289949237989876, 1.4220428120702893, 4.263256414560601e-14, -2.1316282072803006e-14, -4.2316805337616614e-09, 2.65654347700068e-09, -1.8749444676110937e-09, -5.3662169409933325e-11, -4.445601506934138, -3.4474838411855173, -0.23143037996869692, 6.163081821988939e-14
0.7565653324127197, -3.1415900000000008, 1.5708000000000004, 0.9590496182133813, 0.5289949238089492, 1.4220428120632622, 4.263256414560601e-14, -2.1316282072803006e-14, -3.8073540986616194e-09, 2.3907679443799424e-09, -1.6864709698756643e-09, -5.3662169411009946e-11, -4.445601510521242, -3.44748384444938, -0.23143038108726208, 5.5431951102973263e-14
0.7615680694580078, -3.1415900000000008, 1.5708000000000004, 0.9590496181991081, 0.5289949238179141, 1.4220428120569417, 4.263256414560601e-14, -2.1316282072803006e-14, -3.4255765446467024e-09, 2.151580667472726e-09, -1.5169393538553624e-09, -5.3662169411978497e-11, -4.445601513748546, -3.4474838473858584, -0.23143038209360045, 4.985671522774931e-14
0.7665677070617676, -3.1415900000000008, 1.5708000000000004, 0.9590496181862661, 0.5289949238259821, 1.4220428120512565, 4.263256414560601e-14, -2.1288526497187377e-14, -3.0820810070775195e-09, 1.9363238385913957e-09, -1.3644534429997273e-09, -5.366216941284989e-11, -4.44560151665187, -3.4474838500274974, -0.23143038299882843, 4.484150138118533e-14
0.7735679149627686, -3.1415900000000008, 1.5708000000000004, 0.9590496181747118, 0.528994923833243, 1.4220428120461428, 4.263256414560601e-14, -2.1316282072803006e-14, -2.7730306106921176e-09, 1.742603662117165e-09, -1.2272935436331496e-09, -5.3662169413633847e-11, -4.4456015192640566, -3.4474838524042335, -0.23143038381325007, 4.033144006763174e-14
0.7785677909851074, -3.1415900000000008, 1.5708000000000004, 0.9590496181643161, 0.5289949238397774, 1.4220428120415431, 4.263256414560601e-14, -2.1288526497187377e-14, -2.4949684540587214e-09, 1.5682635585058701e-09, -1.103922640603199e-09, -5.366216941433909e-11, -4.44560152161392, -3.4474838545422544, -0.23143038454583345, 3.627463234591117e-14
0.7845659255981445, -3.1415900000000008, 1.5708000000000004, 0.9590496181549628, 0.5289949238456582, 1.4220428120374058, 4.263256414560601e-14, -2.1316282072803006e-14, -2.244789243377454e-09, 1.411365444679313e-09, -9.929527562936153e-10, -5.366216941497357e-11, -4.445601523728144, -3.447483856465868, -0.2314303852049219, 3.262597596978539e-14
0.7905664443969727, -3.1415900000000008, 1.5708000000000004, 0.9590496181465474, 0.5289949238509505, 1.4220428120336843, 4.263256414560601e-14, -2.1316282072803006e-14, -2.0196960770491046e-09, 1.2701633039927858e-09, -8.931361958340675e-10, -5.366216941554442e-11, -4.445601525630168, -3.447483858196394, -0.23143038579782366, 2.9344535201761617e-14
0.7955663204193115, -3.1415900000000008, 1.5708000000000004, 0.9590496181389758, 0.5289949238557133, 1.422042812030337, 4.263256414560601e-14, -2.1316282072803006e-14, -1.8171742999228968e-09, 1.1430896812822621e-09, -8.033529582361346e-10, -5.3662169416057996e-11, -4.445601527341382, -3.447483859753289, -0.23143038633119872, 2.6393160541621283e-14
0.8005661964416504, -3.1415900000000008, 1.5708000000000004, 0.9590496181321635, 0.5289949238599997, 1.422042812027326, 4.2632564145606005e-14, -2.1316282072803006e-14, -1.6349587517172637e-09, 1.0287290017051817e-09, -7.225964378791509e-10, -5.3662169416520074e-11, -4.44560152888074, -3.447483861153799, -0.2314303868109757, 2.3738430286109778e-14
0.8055667877197266, -3.1415900000000008, 1.5708000000000004, 0.9590496181260343, 0.5289949238638573, 1.422042812024618, 4.263256414560601e-14, -2.1316282072803006e-14, -1.4710156981401212e-09, 9.258097958261923e-10, -6.499555475278061e-10, -5.366216941693568e-11, -4.445601530265869, -3.447483862414003, -0.2314303872426771, 2.1350927617898032e-14
0.8105664253234863, -3.1415900000000008, 1.5708000000000004, 0.9590496181205197, 0.5289949238673288, 1.4220428120221822, 4.263256414560601e-14, -2.1316282072803006e-14, -1.323512327511267e-09, 8.331856828808747e-10, -5.846214767484212e-10, -5.366216941730963e-11, -4.4456015315120325, -3.4474838635477596, -0.23143038763105198, 1.920223240612065e-14
0.816565752029419, -3.1415900000000008, 1.5708000000000004, 0.959049618115558, 0.5289949238704531, 1.422042812019991, 4.263256414560601e-14, -2.1316282072803006e-14, -1.1908002084393132e-09, 7.498303692449242e-10, -5.258550614631634e-10, -5.3662169417646035e-11, -4.445601532632996, -3.4474838645675825, -0.23143038798035195, 1.7271082006219183e-14
0.8215675354003906, -3.1415900000000008, 1.5708000000000004, 0.9590496181110939, 0.5289949238732649, 1.4220428120180202, 4.2632564145606005e-14, -2.1288526497187377e-14, -1.0713939180284626e-09, 6.74813630781473e-10, -4.729920928969665e-10, -5.366216941794872e-11, -4.445601533641433, -3.4474838654850157, -0.23143038829457957, 1.5534638317168705e-14
0.826566219329834, -3.1415900000000008, 1.5708000000000004, 0.9590496181070773, 0.5289949238757953, 1.4220428120162476, 4.2632564145606005e-14, -2.1316282072803006e-14, -9.639623821389165e-10, 6.073008404466868e-10, -4.254429968887399e-10, -5.3662169418220996e-11, -4.4456015345489845, -3.44748386631069, -0.23143038857738188, 1.3971629289367199e-14
0.8315658569335938, -3.1415900000000008, 1.5708000000000004, 0.9590496181034636, 0.5289949238780726, 1.422042812014653, 4.263256414560601e-14, -2.1316282072803006e-14, -8.673013418558639e-10, 5.465431471544993e-10, -3.8267786409693267e-10, -5.366216941846594e-11, -4.4456015353650855, -3.4474838670531276, -0.23143038883163142, 1.2566038158439353e-14
0.8365678787231445, -3.1415900000000008, 1.5708000000000004, 0.9590496181002122, 0.528994923880122, 1.422042812013219, 4.263256414560601e-14, -2.1288526497187377e-14, -7.803336865563892e-10, 4.918633511650978e-10, -3.442091076032375e-10, -5.3662169418686415e-11, -4.445601536099553, -3.4474838677213, -0.23143038906045896, 1.1302317717356375e-14
0.8425679206848145, -3.1415900000000008, 1.5708000000000004, 0.9590496180972868, 0.5289949238819665, 1.4220428120119288, 4.263256414560602e-14, -2.1316282072803006e-14, -7.020868331153451e-10, 4.4265367750889613e-10, -3.0960802918816136e-10, -5.3662169418884686e-11, -4.445601536760307, -3.4474838683224163, -0.2314303892663081, 1.0165266090451602e-14
0.8475675582885742, -3.1415900000000008, 1.5708000000000004, 0.9590496180946548, 0.5289949238836263, 1.4220428120107684, 4.2632564145606005e-14, -2.1316282072803006e-14, -6.31686869478898e-10, 3.9836759941941785e-10, -2.7848349287703973e-10, -5.3662169419062995e-11, -4.4456015373548015, -3.4474838688632454, -0.23143038945150374, 9.14295202456957e-15
0.8525679111480713, -3.1415900000000008, 1.5708000000000004, 0.9590496180922867, 0.5289949238851201, 1.4220428120097248, 4.263256414560601e-14, -2.1316282072803006e-14, -5.683462589445298e-10, 3.5851209978078564e-10, -2.504876648120053e-10, -5.36621694192235e-11, -4.4456015378895515, -3.4474838693497096, -0.23143038961806955, 8.223317186797306e-15
0.8575665950775146, -3.1415900000000008, 1.5708000000000004, 0.9590496180901561, 0.5289949238864645, 1.422042812008786, 4.263256414560601e-14, -2.1316282072803006e-14, -5.113563739111981e-10, 3.22644461100915e-10, -2.2530953120869213e-10, -5.3662169419367876e-11, -4.4456015383706005, -3.447483869787315, -0.23143038976789354, 7.395792144509018e-15
0.8635683059692383, -3.1415900000000008, 1.5708000000000004, 0.9590496180882391, 0.5289949238876743, 1.4220428120079416, 4.263256414560601e-14, -2.1288526497187377e-14, -4.600814729194269e-10, 2.9036496250345136e-10, -2.026598541158623e-10, -5.3662169419497795e-11, -4.44560153880351, -3.447483870181122, -0.23143038990272297, 6.652158006322958e-15
0.8695671558380127, -3.1415900000000008, 1.5708000000000004, 0.9590496180865143, 0.5289949238887631, 1.422042812007182, 4.263256414560601e-14, -2.1316282072803006e-14, -4.139472931097288e-10, 2.6131640615355516e-10, -1.8228695397395357e-10, -5.366216941961462e-11, -4.445601539192767, -3.4474838705352187, -0.23143039002393678, 5.983425858425158e-15
0.8755671977996826, -3.1415900000000008, 1.5708000000000004, 0.9590496180849625, 0.528994923889743, 1.4220428120064987, 4.263256414560601e-14, -2.1316282072803006e-14, -3.7244060613339514e-10, 2.351734248903816e-10, -1.6396043337110756e-10, -5.3662169419719725e-11, -4.445601539543276, -3.447483870854076, -0.23143039013310485, 5.381494335255302e-15
0.8805687427520752, -3.1415900000000008, 1.5708000000000004, 0.9590496180835663, 0.5289949238906249, 1.4220428120058843, 4.2632564145606005e-14, -2.1316282072803006e-14, -3.350940080970588e-10, 2.1164558130845285e-10, -1.4747674705771545e-10, -5.366216941981435e-11, -4.445601539858275, -3.4474838711406126, -0.23143039023118467, 4.840371133660904e-15
0.8855669498443604, -3.1415900000000008, 1.5708000000000004, 0.95904961808231, 0.5289949238914184, 1.4220428120053317, 4.263256414560601e-14, -2.1316282072803006e-14, -3.0149310825677844e-10, 1.9047153051332312e-10, -1.3265355573850578e-10, -5.366216941989939e-11, -4.44560154014196, -3.4474838713986715, -0.23143039031952545, 4.352721610063231e-15
0.8905658721923828, -3.1415900000000008, 1.5708000000000004, 0.9590496180811798, 0.5289949238921327, 1.4220428120048345, 4.263256414560601e-14, -2.1316282072803006e-14, -2.712615132516305e-10, 1.7141678914913326e-10, -1.1931976447729965e-10, -5.366216941997599e-11, -4.445601540397042, -3.4474838716307006, -0.2314303903989381, 3.915147466623538e-15
0.8965656757354736, -3.1415900000000008, 1.5708000000000004, 0.9590496180801629, 0.5289949238927755, 1.4220428120043873, 4.263256414560601e-14, -2.1316282072803006e-14, -2.4406260346054864e-10, 1.542681205193768e-10, -1.0732532623230766e-10, -5.366216942004487e-11, -4.4456015406266385, -3.4474838718395517, -0.23143039047043032, 3.521299653734756e-15
0.9025654792785645, -3.1415900000000008, 1.5708000000000004, 0.9590496180792479, 0.5289949238933539, 1.4220428120039852, 4.263256414560601e-14, -2.1316282072803006e-14, -2.1958876383898485e-10, 1.3883345726772083e-10, -9.653610294863766e-11, -5.366216942010674e-11, -4.4456015408329685, -3.447483872027234, -0.23143039053466372, 3.16728200181925e-15
0.9075686931610107, -3.1415900000000008, 1.5708000000000004, 0.9590496180784247, 0.5289949238938745, 1.4220428120036235, 4.263256414560601e-14, -2.1316282072803006e-14, -1.9757034896983328e-10, 1.2494496864704416e-10, -8.683436819632774e-11, -5.366216942016258e-11, -4.445601541018786, -3.447483872196249, -0.2314303905924986, 2.848354939675019e-15
0.9125673770904541, -3.1415900000000008, 1.5708000000000004, 0.9590496180776841, 0.528994923894343, 1.422042812003298, 4.263256414560601e-14, -2.1316282072803006e-14, -1.7775880767345598e-10, 1.1244526401619342e-10, -7.810757656526881e-11, -5.3662169420212724e-11, -4.445601541185866, -3.4474838723482284, -0.23143039064450996, 2.561909845706898e-15
0.9225685596466064, -3.1415900000000008, 1.5708000000000004, 0.9590496180770177, 0.5289949238947647, 1.4220428120030053, 4.263256414560601e-14, -2.1316282072803006e-14, -1.5993512070267002e-10, 1.0119585741534905e-10, -7.025400887414734e-11, -5.366216942025775e-11, -4.445601541336374, -3.44748387248513, -0.23143039069136584, 2.304582518460991e-15
0.9285681247711182, -3.1415900000000008, 1.5708000000000004, 0.9590496180764181, 0.5289949238951441, 1.422042812002742, 4.263256414560601e-14, -2.1288526497187377e-14, -1.4389900382383303e-10, 9.107140689135109e-11, -6.319340043059457e-11, -5.3662169420298415e-11, -4.445601541471636, -3.4474838726081654, -0.23143039073346935, 2.072143095428753e-15
0.9345686435699463, -3.1415900000000008, 1.5708000000000004, 0.9590496180758786, 0.5289949238954856, 1.422042812002505, 4.263256414560601e-14, -2.1316282072803006e-14, -1.2946868577223825e-10, 8.195989008614685e-11, -5.6839998286598327e-11, -5.366216942033493e-11, -4.4456015415930965, -3.4474838727186348, -0.2314303907712564, 1.86450725381854e-15
0.9415674209594727, -3.1415900000000008, 1.5708000000000004, 0.9590496180753932, 0.528994923895793, 1.422042812002292, 4.263256414560601e-14, -2.1316282072803006e-14, -1.1648629283378398e-10, 7.37600909451938e-11, -5.1123834945947e-11, -5.366216942036771e-11, -4.445601541702697, -3.4474838728183266, -0.23143039080537, 1.6770369671203491e-15
0.9475672245025635, -3.1415900000000008, 1.5708000000000004, 0.9590496180749566, 0.5289949238960695, 1.4220428120021005, 4.2632564145606005e-14, -2.1288526497187377e-14, -1.0480508128019039e-10, 6.638134083623876e-11, -4.598627846150045e-11, -5.366216942039732e-11, -4.445601541801136, -3.4474838729078536, -0.2314303908359909, 1.507903041214805e-15
0.952566385269165, -3.1415900000000008, 1.5708000000000004, 0.9590496180745637, 0.5289949238963184, 1.4220428120019282, 4.263256414560601e-14, -2.1316282072803006e-14, -9.429693137441575e-11, 5.974096611505777e-11, -4.136315230871333e-11, -5.366216942042387e-11, -4.445601541889917, -3.4474838729886073, -0.23143039086362438, 1.3563069159385487e-15
0.9595668315887451, -3.1415900000000008, 1.5708000000000004, 0.9590496180742102, 0.5289949238965425, 1.4220428120017732, 4.263256414560601e-14, -2.1316282072803006e-14, -8.484130065156137e-11, 5.376435855232806e-11, -3.720591462423565e-11, -5.3662169420447786e-11, -4.445601541969549, -3.447483873061036, -0.23143039088840142, 1.2197809957190492e-15
0.9645683765411377, -3.1415900000000008, 1.5708000000000004, 0.9590496180738921, 0.5289949238967441, 1.4220428120016337, 4.2632564145606005e-14, -2.1316282072803006e-14, -7.633429999209795e-11, 4.838490508124488e-11, -3.346665630490469e-11, -5.366216942046931e-11, -4.445601542041349, -3.4474838731263437, -0.23143039091074935, 1.0968553888796056e-15
0.970564603805542, -3.1415900000000008, 1.5708000000000004, 0.9590496180736059, 0.5289949238969255, 1.4220428120015083, 4.263256414560601e-14, -2.1316282072803006e-14, -6.867961754863927e-11, 4.3543910693594544e-11, -3.0102378268642305e-11, -5.36621694204887e-11, -4.445601542105774, -3.4474838731849324, -0.23143039093078263, 9.868786162415774e-16
0.9755649566650391, -3.1415900000000008, 1.5708000000000004, 0.9590496180733484, 0.5289949238970888, 1.4220428120013955, 4.263256414560601e-14, -2.1316282072803006e-14, -6.179168288156234e-11, 3.91880853557863e-11, -2.7075549216862724e-11, -5.36621694205061e-11, -4.445601542163741, -3.4474838732376454, -0.23143039094880358, 8.879696690920189e-16
0.9806783199310303, -3.1415900000000008, 1.5708000000000004, 0.9590496180731167, 0.5289949238972358, 1.422042812001294, 4.263256414560602e-14, -2.1316282072803006e-14, -5.559583349246111e-11, 3.526683925689238e-11, -2.4354168936632842e-11, -5.366216942052183e-11, -4.445601542216148, -3.4474838732853232, -0.23143039096512613, 7.980643016686919e-16
0.9865663051605225, -3.1415900000000008, 1.5708000000000004, 0.9590496180729083, 0.528994923897368, 1.4220428120012027, 4.263256414560601e-14, -2.1288526497187377e-14, -5.0019710595705646e-11, 3.173739250017397e-11, -2.1905892113362168e-11, -5.366216942053593e-11, -4.445601542263033, -3.447483873327957, -0.23143039097970228, 7.179976024308053e-16
0.9915657043457031, -3.1415900000000008, 1.5708000000000004, 0.9590496180727208, 0.528994923897487, 1.4220428120011206, 4.263256414560601e-14, -2.1316282072803006e-14, -4.500474992674697e-11, 2.8562514960621124e-11, -1.9704099951377815e-11, -5.366216942054855e-11, -4.445601542305465, -3.4474838733665494, -0.23143039099290122, 6.456120692738617e-16
0.9965660572052002, -3.1415900000000008, 1.5708000000000004, 0.9590496180725521, 0.5289949238975942, 1.4220428120010467, 4.263256414560601e-14, -2.1316282072803006e-14, -4.049205415412871e-11, 2.5704829490750633e-11, -1.772193758173642e-11, -5.3662169420559914e-11, -4.445601542343448, -3.447483873401093, -0.23143039100471452, 5.809461412809263e-16
1.0025665760040283, -3.1415900000000008, 1.5708000000000004, 0.9590496180724003, 0.5289949238976905, 1.4220428120009803, 4.263256414560602e-14, -2.1316282072803006e-14, -3.643110813023043e-11, 2.3132434453417965e-11, -1.593814318488962e-11, -5.366216942057029e-11, -4.445601542377564, -3.447483873432112, -0.23143039101532178, 5.227643084018655e-16
1.0085675716400146, -3.1415900000000008, 1.5708000000000004, 0.9590496180722637, 0.5289949238977772, 1.4220428120009205, 4.263256414560601e-14, -2.1288526497187377e-14, -3.277861315709174e-11, 2.0818538246794048e-11, -1.4336222529442511e-11, -5.366216942057953e-11, -4.445601542408438, -3.447483873460201, -0.23143039102492358, 4.697215005144128e-16
1.0155677795410156, -3.1415900000000008, 1.5708000000000004, 0.9590496180721408, 0.5289949238978553, 1.4220428120008668, 4.263256414560601e-14, -2.1344037648418634e-14, -2.9492297493050046e-11, 1.873656807057734e-11, -1.289517080840694e-11, -5.366216942058776e-11, -4.445601542436096, -3.4474838734853477, -0.23143039103351715, 4.2262774250521707e-16
1.0205678939819336, -3.1415900000000008, 1.5708000000000004, 0.9590496180720303, 0.5289949238979256, 1.4220428120008184, 4.263256414560601e-14, -2.1288526497187377e-14, -2.6534496821994935e-11, 1.6862543107965328e-11, -1.1598599934945357e-11, -5.366216942059531e-11, -4.445601542460959, -3.4474838735079483, -0.23143039104124333, 3.8025591193555576e-16
1.0275688171386719, -3.1415900000000008, 1.5708000000000004, 0.9590496180719308, 0.5289949238979889, 1.4220428120007749, 4.263256414560601e-14, -2.1316282072803006e-14, -2.3873431009846513e-11, 1.5175183241909808e-11, -1.0430796708214673e-11, -5.366216942060199e-11, -4.44560154248339, -3.4474838735283626, -0.2314303910482303, 3.421027024899149e-16
1.032567024230957, -3.1415900000000008, 1.5708000000000004, 0.9590496180718413, 0.5289949238980457, 1.4220428120007358, 4.263256414560601e-14, -2.1316282072803006e-14, -2.147937383512044e-11, 1.3655690836242132e-11, -9.380677452648864e-12, -5.366216942060804e-11, -4.445601542503656, -3.4474838735467945, -0.23143039105453822, 3.074131795104418e-16
1.0385653972625732, -3.1415900000000008, 1.5708000000000004, 0.9590496180717608, 0.5289949238980969, 1.4220428120007007, 4.2632564145606005e-14, -2.1288526497187377e-14, -1.9326207301162412e-11, 1.2290852431412654e-11, -8.438068742874385e-12, -5.36621694206135e-11, -4.445601542521742, -3.447483873563221, -0.23143039106013624, 2.7654805991865866e-16
1.044567346572876, -3.1415900000000008, 1.5708000000000004, 0.9590496180716883, 0.528994923898143, 1.4220428120006692, 4.263256414560601e-14, -2.1288526497187377e-14, -1.7388979145493977e-11, 1.1061942546177854e-11, -7.591465331639231e-12, -5.366216942061837e-11, -4.445601542538097, -3.4474838735781104, -0.23143039106523436, 2.4838223746078917e-16
1.0495655536651611, -3.1415900000000008, 1.5708000000000004, 0.9590496180716231, 0.5289949238981845, 1.4220428120006408, 4.263256414560601e-14, -2.1316282072803006e-14, -1.5644430195749237e-11, 9.955675926581357e-12, -6.830832511520354e-12, -5.366216942062277e-11, -4.445601542552622, -3.4474838735913145, -0.23143039106973975, 2.2350577315499193e-16
1.055565595626831, -3.1415900000000008, 1.5708000000000004, 0.9590496180715645, 0.5289949238982218, 1.4220428120006152, 4.263256414560601e-14, -2.1316282072803006e-14, -1.4075990373285663e-11, 8.958656444595091e-12, -6.145053584525248e-12, -5.366216942062671e-11, -4.4456015425660365, -3.447483873603512, -0.23143039107392538, 2.008269374852072e-16
1.060565710067749, -3.1415900000000008, 1.5708000000000004, 0.9590496180715118, 0.5289949238982554, 1.4220428120005921, 4.263256414560601e-14, -2.1316282072803006e-14, -1.2665229975894476e-11, 8.062962704106386e-12, -5.5289341325398194e-12, -5.3662169420630315e-11, -4.445601542577888, -3.447483873614285, -0.23143039107759714, 1.807128001200615e-16
1.0655667781829834, -3.1415900000000008, 1.5708000000000004, 0.9590496180714643, 0.5289949238982856, 1.4220428120005715, 4.263256414560601e-14, -2.1316282072803006e-14, -1.1396078525294229e-11, 7.255236221666567e-12, -4.971732908419444e-12, -5.3662169420633494e-11, -4.445601542588642, -3.447483873624082, -0.23143039108095842, 1.6273797515774332e-16
1.0705668926239014, -3.1415900000000008, 1.5708000000000004, 0.9590496180714215, 0.5289949238983128, 1.4220428120005528, 4.263256414560601e-14, -2.1316282072803006e-14, -1.0252604321081549e-11, 6.530183909246427e-12, -4.473536699371654e-12, -5.3662169420636377e-11, -4.445601542598041, -3.447483873632614, -0.23143039108385283, 1.4641739561524544e-16
1.0755679607391357, -3.1415900000000008, 1.5708000000000004, 0.9590496180713831, 0.5289949238983374, 1.422042812000536, 4.263256414560601e-14, -2.1316282072803006e-14, -9.224010444341957e-12, 5.877074925924614e-12, -4.023563431263768e-12, -5.366216942063897e-11, -4.445601542606742, -3.4474838736405298, -0.23143039108656396, 1.3187640417078801e-16
1.0805673599243164, -3.1415900000000008, 1.5708000000000004, 0.9590496180713486, 0.5289949238983593, 1.4220428120005209, 4.263256414560601e-14, -2.1316282072803006e-14, -8.299555487312205e-12, 5.287988175544002e-12, -3.6163954885649256e-12, -5.366216942064136e-11, -4.4456015426146385, -3.4474838736477187, -0.23143039108903518, 1.1867822464552467e-16
1.0855662822723389, -3.1415900000000008, 1.5708000000000004, 0.9590496180713175, 0.5289949238983792, 1.4220428120005073, 4.263256414560601e-14, -2.1316282072803006e-14, -7.468498042229044e-12, 4.760113168374887e-12, -3.252009594280342e-12, -5.366216942064347e-11, -4.4456015426216995, -3.44748387365413, -0.231430391091212, 1.0659229698731851e-16
1.0907948017120361, -3.1415900000000008, 1.5708000000000004, 0.9590496180712895, 0.5289949238983971, 1.422042812000495, 4.263256414560602e-14, -2.1316282072803006e-14, -6.7204852793878445e-12, 4.283010962378608e-12, -2.9252665134336467e-12, -5.3662169420645333e-11, -4.445601542628003, -3.4474838736598694, -0.2314303910931842, 9.548106933210808e-17
1.0957999229431152, -3.1415900000000008, 1.5708000000000004, 0.9590496180712643, 0.5289949238984132, 1.4220428120004842, 4.2632564145606024e-14, -2.1316282072803006e-14, -6.047301548406381e-12, 3.8538340675204995e-12, -2.6307151362701484e-12, -5.366216942064709e-11, -4.445601542633607, -3.4474838736649644, -0.23143039109492256, 8.608751530608852e-17
1.1016249656677246, -3.1415900000000008, 1.5708000000000004, 0.9590496180712417, 0.5289949238984276, 1.4220428120004744, 4.263256414560601e-14, -2.1316282072803006e-14, -5.440703443326811e-12, 3.467327036327346e-12, -2.3681358266172282e-12, -5.36621694206486e-11, -4.445601542638668, -3.447483873669563, -0.23143039109649235, 7.709309246923805e-17
1.1066584587097168, -3.1415900000000008, 1.5708000000000004, 0.9590496180712212, 0.5289949238984406, 1.4220428120004656, 4.263256414560601e-14, -2.1316282072803006e-14, -4.895556182660243e-12, 3.1207156284796968e-12, -2.1323118091379095e-12, -5.3662169420649986e-11, -4.445601542643287, -3.4474838736737596, -0.23143039109791982, 6.934939153398612e-17
1.1124615669250488, -3.1415900000000008, 1.5708000000000004, 0.9590496180712029, 0.5289949238984523, 1.4220428120004576, 4.263256414560602e-14, -2.1316282072803006e-14, -4.4041437163855335e-12, 2.80885248087302e-12, -1.918185003188378e-12, -5.36621694206512e-11, -4.4456015426472915, -3.4474838736773954, -0.23143039109915517, 6.29155228269058e-17
1.1173439025878906, -3.1415900000000008, 1.5708000000000004, 0.9590496180711864, 0.5289949238984628, 1.4220428120004505, 4.263256414560601e-14, -2.1316282072803006e-14, -3.963246397731268e-12, 2.528964296253172e-12, -1.7252689138071915e-12, -5.366216942065226e-11, -4.4456015426511355, -3.4474838736808935, -0.23143039110035254, 5.651567605841977e-17
1.1223890781402588, -3.1415900000000008, 1.5708000000000004, 0.9590496180711715, 0.5289949238984722, 1.422042812000444, 4.263256414560602e-14, -2.1288526497187377e-14, -3.5652314434031496e-12, 2.2757211381166435e-12, -1.5538778737564057e-12, -5.3662169420653314e-11, -4.4456015426543685, -3.4474838736838356, -0.23143039110136068, 5.052493627729023e-17
1.1290357112884521, -3.1415900000000008, 1.5708000000000004, 0.9590496180711582, 0.5289949238984808, 1.4220428120004382, 4.263256414560601e-14, -2.1316282072803006e-14, -3.2072122735371522e-12, 2.0490882483605643e-12, -1.3985681092219267e-12, -5.3662169420654206e-11, -4.445601542657337, -3.447483873686528, -0.23143039110227137, 4.5837700792646246e-17
1.134171962738037, -3.1415900000000008, 1.5708000000000004, 0.9590496180711462, 0.5289949238984885, 1.422042812000433, 4.263256414560601e-14, -2.1288526497187377e-14, -2.8863855749960976e-12, 1.843843761297582e-12, -1.2590831884963909e-12, -5.3662169420654995e-11, -4.44560154266023, -3.44748387368917, -0.23143039110318936, 4.075944876064232e-17
1.138658046722412, -3.1415900000000008, 1.5708000000000004, 0.9590496180711354, 0.5289949238984953, 1.4220428120004283, 4.263256414560601e-14, -2.1316282072803006e-14, -2.5978386108960194e-12, 1.659879961230102e-12, -1.1305376312631624e-12, -5.366216942065574e-11, -4.445601542662658, -3.447483873691374, -0.23143039110393948, 3.722089417723235e-17
1.1444694995880127, -3.1415900000000008, 1.5708000000000004, 0.9590496180711257, 0.5289949238985016, 1.422042812000424, 4.263256414560601e-14, -2.1316282072803006e-14, -2.3387403125241235e-12, 1.4946402952002388e-12, -1.018048008226283e-12, -5.366216942065637e-11, -4.445601542664863, -3.447483873693377, -0.23143039110462138, 3.297462867714039e-17
1.1495330333709717, -3.1415900000000008, 1.5708000000000004, 0.9590496180711169, 0.5289949238985071, 1.4220428120004203, 4.263256414560601e-14, -2.1316282072803006e-14, -2.103622831484131e-12, 1.3453521791555908e-12, -9.16252572877546e-13, -5.366216942065697e-11, -4.445601542666656, -3.447483873695008, -0.2314303911051736, 2.9980350664984186e-17
1.154411792755127, -3.1415900000000008, 1.5708000000000004, 0.959049618071109, 0.5289949238985121, 1.422042812000417, 4.263256414560601e-14, -2.1288526497187377e-14, -1.8925694345028887e-12, 1.2120874543014584e-12, -8.251664104502252e-13, -5.3662169420657457e-11, -4.445601542668474, -3.4474838736966515, -0.2314303911057311, 2.694294345568947e-17
1.1594598293304443, -3.1415900000000008, 1.5708000000000004, 0.9590496180711019, 0.5289949238985167, 1.4220428120004138, 4.263256414560601e-14, -2.1316282072803006e-14, -1.7027768084432182e-12, 1.0920728268777095e-12, -7.447791510375849e-13, -5.3662169420657987e-11, -4.445601542670068, -3.4474838736981055, -0.23143039110622804, 2.4001423023001898e-17
1.1641006469726562, -3.1415900000000008, 1.5708000000000004, 0.9590496180710956, 0.5289949238985208, 1.422042812000411, 4.263256414560601e-14, -2.1288526497187377e-14, -1.5319134849534066e-12, 9.828621427067927e-13, -6.698165499171221e-13, -5.366216942065847e-11, -4.445601542671546, -3.447483873699452, -0.23143039110669786, 2.183508662956227e-17
1.170569658279419, -3.1415900000000008, 1.5708000000000004, 0.9590496180710898, 0.5289949238985244, 1.4220428120004085, 4.263256414560601e-14, -2.1316282072803006e-14, -1.379452108096757e-12, 8.841647100338475e-13, -6.000859485979509e-13, -5.366216942065879e-11, -4.445601542672982, -3.4474838737007665, -0.23143039110715496, 1.9690538173457292e-17
1.175567626953125, -3.1415900000000008, 1.5708000000000004, 0.9590496180710846, 0.5289949238985278, 1.4220428120004063, 4.263256414560601e-14, -2.1316282072803006e-14, -1.240701985594228e-12, 7.962338337441128e-13, -5.413066428183359e-13, -5.366216942065911e-11, -4.4456015426739155, -3.447483873701606, -0.23143039110742872, 1.7533284223143498e-17
1.1811835765838623, -3.1415900000000008, 1.5708000000000004, 0.9590496180710799, 0.5289949238985308, 1.4220428120004043, 4.263256414560601e-14, -2.1288526497187377e-14, -1.1150802503578916e-12, 7.162606683047153e-13, -4.877021558692048e-13, -5.3662169420659415e-11, -4.445601542674952, -3.447483873702547, -0.2314303911077503, 1.5840723797349744e-17
1.186192274093628, -3.1415900000000008, 1.5708000000000004, 0.9590496180710757, 0.5289949238985334, 1.4220428120004025, 4.263256414560602e-14, -2.1288526497187377e-14, -1.0029199692951352e-12, 6.442810453269061e-13, -4.3951464483517783e-13, -5.36621694206598e-11, -4.4456015426759725, -3.4474838737034803, -0.23143039110807204, 1.4113818832522788e-17
1.1919450759887695, -3.1415900000000008, 1.5708000000000004, 0.9590496180710719, 0.5289949238985359, 1.422042812000401, 4.263256414560601e-14, -2.1316282072803006e-14, -9.012512958150865e-13, 5.802588142915293e-13, -3.9651319900571287e-13, -5.366216942065999e-11, -4.445601542676754, -3.4474838737041837, -0.23143039110830538, 1.284004340725238e-17
1.1969518661499023, -3.1415900000000008, 1.5708000000000004, 0.9590496180710686, 0.5289949238985381, 1.4220428120003994, 4.263256414560601e-14, -2.1316282072803006e-14, -8.105460747032112e-13, 5.216382799674377e-13, -3.591411858127098e-13, -5.366216942066018e-11, -4.445601542677555, -3.4474838737049223, -0.23143039110856758, 1.115160234090914e-17
1.202523946762085, -3.1415900000000008, 1.5708000000000004, 0.9590496180710656, 0.5289949238985401, 1.422042812000398, 4.263256414560601e-14, -2.1316282072803006e-14, -7.302769500228123e-13, 4.683106584426109e-13, -3.2154062989564767e-13, -5.3662169420660436e-11, -4.445601542678413, -3.4474838737057074, -0.23143039110884472, 1.0333214658267551e-17
1.2070021629333496, -3.1415900000000008, 1.5708000000000004, 0.9590496180710628, 0.5289949238985419, 1.422042812000397, 4.263256414560601e-14, -2.1288526497187377e-14, -6.581402089977928e-13, 4.203484485375538e-13, -2.894083953368864e-13, -5.3662169420660604e-11, -4.445601542679062, -3.447483873706284, -0.23143039110904048, 8.979062092875366e-18
1.2127277851104736, -3.1415900000000008, 1.5708000000000004, 0.9590496180710604, 0.5289949238985434, 1.4220428120003958, 4.263256414560602e-14, -2.1316282072803006e-14, -5.914158052178209e-13, 3.776791913481892e-13, -2.626571736859921e-13, -5.3662169420660785e-11, -4.445601542679381, -3.447483873706578, -0.23143039110912683, 8.120944925412856e-18
1.217864751815796, -3.1415900000000008, 1.5708000000000004, 0.9590496180710582, 0.5289949238985449, 1.422042812000395, 4.263256414560601e-14, -2.1316282072803006e-14, -5.325739849126876e-13, 3.4033877343703076e-13, -2.35855041966836e-13, -5.36621694206609e-11, -4.445601542679968, -3.447483873707108, -0.23143039110930672, 7.730697656022588e-18
1.2226855754852295, -3.1415900000000008, 1.5708000000000004, 0.9590496180710562, 0.5289949238985461, 1.422042812000394, 4.263256414560601e-14, -2.1288526497187377e-14, -4.792277685794488e-13, 3.057358474267856e-13, -2.1448549825055143e-13, -5.366216942066106e-11, -4.445601542680418, -3.447483873707508, -0.23143039110944844, 6.413867479868796e-18
1.2288165092468262, -3.1415900000000008, 1.5708000000000004, 0.9590496180710544, 0.5289949238985472, 1.4220428120003932, 4.263256414560602e-14, -2.1316282072803006e-14, -4.311273560375639e-13, 2.7638925181572543e-13, -1.9301032984338158e-13, -5.366216942066119e-11, -4.44560154268075, -3.447483873707814, -0.23143039110953983, 6.424761448536119e-18
1.2352197170257568, -3.1415900000000008, 1.5708000000000004, 0.9590496180710527, 0.5289949238985482, 1.4220428120003925, 4.263256414560601e-14, -2.1316282072803006e-14, -3.883837695894954e-13, 2.4974369900730877e-13, -1.716228756154273e-13, -5.366216942066134e-11, -4.445601542681153, -3.447483873708184, -0.23143039110967206, 6.0232479792028795e-18
1.2409467697143555, -3.1415900000000008, 1.5708000000000004, 0.9590496180710513, 0.5289949238985491, 1.4220428120003918, 4.263256414560601e-14, -2.1288526497187377e-14, -3.4841574070298975e-13, 2.257990554879673e-13, -1.5561691255131785e-13, -5.3662169420661386e-11, -4.445601542681342, -3.4474838737083506, -0.23143039110972125, 5.130314779758012e-18
1.2465314865112305, -3.1415900000000008, 1.5708000000000004, 0.9590496180710499, 0.52899492389855, 1.4220428120003912, 4.263256414560601e-14, -2.1316282072803006e-14, -3.1358249330537546e-13, 2.0444595448113393e-13, -1.394888992392891e-13, -5.3662169420661496e-11, -4.445601542681756, -3.4474838737087317, -0.23143039110985847, 4.7240367500964666e-18
1.251575231552124, -3.1415900000000008, 1.5708000000000004, 0.9590496180710487, 0.5289949238985507, 1.4220428120003907, 4.263256414560601e-14, -2.1316282072803006e-14, -2.814415367424772e-13, 1.83093095302207e-13, -1.233269190590425e-13, -5.3662169420661625e-11, -4.4456015426820175, -3.447483873708979, -0.2314303911099534, 4.30743550639026e-18
1.2566311359405518, -3.1415900000000008, 1.5708000000000004, 0.9590496180710477, 0.5289949238985514, 1.4220428120003903, 4.263256414560601e-14, -2.1316282072803006e-14, -2.520761377411418e-13, 1.644412750083962e-13, -1.1261507211037859e-13, -5.3662169420661664e-11, -4.445601542682214, -3.447483873709151, -0.2314303911100062, 3.4060402492789744e-18
1.2623655796051025, -3.1415900000000008, 1.5708000000000004, 0.9590496180710467, 0.5289949238985521, 1.4220428120003898, 4.263256414560601e-14, -2.1288526497187377e-14, -2.280953204092384e-13, 1.4849031836976055e-13, -1.0194065840639003e-13, -5.3662169420661696e-11, -4.445601542682613, -3.447483873709507, -0.23143039111013364, 3.0259424860047327e-18
1.2673640251159668, -3.1415900000000008, 1.5708000000000004, 0.9590496180710458, 0.5289949238985526, 1.4220428120003894, 4.263256414560601e-14, -2.1316282072803006e-14, -2.0405899192610377e-13, 1.324663498204122e-13, -9.128353867996468e-14, -5.366216942066178e-11, -4.445601542682614, -3.4474838737095164, -0.23143039111013505, 3.000382605076844e-18
1.2733643054962158, -3.1415900000000008, 1.5708000000000004, 0.959049618071045, 0.5289949238985531, 1.422042812000389, 4.2632564145606005e-14, -2.1316282072803006e-14, -1.8263168755083825e-13, 1.1910754100520458e-13, -8.055863450666059e-14, -5.366216942066182e-11, -4.4456015426827875, -3.4474838737096727, -0.23143039111018143, 3.0132618072142947e-18
1.2793638706207275, -3.1415900000000008, 1.5708000000000004, 0.9590496180710444, 0.5289949238985535, 1.4220428120003887, 4.263256414560601e-14, -2.1316282072803006e-14, -1.6389667401028873e-13, 1.0844925756138882e-13, -6.982810137590552e-14, -5.366216942066192e-11, -4.445601542682956, -3.447483873709821, -0.23143039111022592, 3.0243294838102543e-18
1.284362554550171, -3.1415900000000008, 1.5708000000000004, 0.9590496180710437, 0.528994923898554, 1.4220428120003885, 4.263256414560601e-14, -2.1316282072803006e-14, -1.478261957288396e-13, 9.775437001227394e-14, -6.444891022414984e-14, -5.366216942066195e-11, -4.44560154268323, -3.447483873710078, -0.2314303911103263, 1.6936771196207008e-18
1.289363145828247, -3.1415900000000008, 1.5708000000000004, 0.9590496180710432, 0.5289949238985543, 1.4220428120003883, 4.263256414560601e-14, -2.1316282072803006e-14, -1.3186673974985297e-13, 8.709627556268454e-14, -5.911988491633265e-14, -5.3662169420661954e-11, -4.445601542683217, -3.4474838737100657, -0.23143039111032077, 1.736657424248956e-18
1.295362949371338, -3.1415900000000008, 1.5708000000000004, 0.9590496180710427, 0.5289949238985546, 1.422042812000388, 4.263256414560602e-14, -2.1316282072803006e-14, -1.185440634543511e-13, 7.913899998140321e-14, -5.378881307103577e-14, -5.3662169420661974e-11, -4.445601542683389, -3.447483873710218, -0.23143039111036692, 1.7070526301256832e-18
1.301363229751587, -3.1349761374053964, 1.5708000000000004, 0.9590496180710423, 0.528994923898555, 1.4220428120003878, 1.5873270227050966, -2.1316282072803006e-14, -1.0785816684233396e-13, 7.114533110014751e-14, -4.8406779911983814e-14, 159.8391526767648, -4.445601542683626, -3.4474838737104405, -0.23143039111045335, 1.3126860012849017e-18
1.307365894317627, -3.1224097866348273, 1.5708000000000004, 0.9590485427220821, 0.5289950329112929, 1.4220418859298734, 3.0159241849365443, -2.1316282072803006e-14, -0.00025808375045102694, 2.616305709913537e-05, -0.00022225692348046885, 143.89896121921677, -3.623217172748819, -2.6765400645972512, 0.0651101610489885, -7.266841867954712e-08
1.3133633136749268, -3.1111000709413155, 1.5707999946784976, 0.9590446632925343, 0.5289962090719169, 1.4220373829736266, 2.714331766442885, -1.2771606545669556e-06, -0.0009310630914458606, 0.0002822785497658964, -0.0010807094992198035, -30.257787729839176, -1.4481595805622216, -0.6358495920338892, 0.8511439724865988, -2.0430361202813666e-07
1.3193628787994385, -3.09430745238173, 1.5708005905566578, 0.9590429230426224, 0.5289965806306981, 1.4220362176111703, 4.0302284543005555, 0.00014301075844749822, -0.00041765997886136774, 8.91741074902086e-05, -0.00027968698953583643, 132.60388662203445, -8.554245011016759, -1.0740748216317664, 0.6803148616371708, 2.0232602494146983e-07
1.3243629932403564, -3.0692732840249657, 1.5708004724453262, 0.9590366993512909, 0.528997080342511, 1.42203091424042, 6.008200405623435, -2.834671957430146e-05, -0.0014936859195732732, 0.00011993083511281644, -0.0012728089800827548, 199.35411714845344, 0.8916185003713073, 1.5510488578806378, 1.691989815290379, -3.536221856413701e-07
1.3313639163970947, -3.0368217208507406, 1.570800377956261, 0.9590224359444319, 0.5289984148982442, 1.422018686969295, 7.788375161814021, -2.267737565730954e-05, -0.0034232176461595487, 0.00032029337595679275, -0.002934545069958286, 179.60856222732298, 7.502655139434605, 7.7494948238483685, 4.076020119291956, -5.421376507258904e-07
1.337364912033081, -3.007615313993938, 1.5708003023650088, 0.958998840436808, 0.5290007120454411, 1.421998421992493, 7.009537645632619, -1.8141900525903143e-05, -0.005662921829721279, 0.0005513153272494187, -0.004863594432455862, -77.87820609275047, 15.71826047203415, 15.452508467300497, 7.039723120921607, -6.307316153007716e-07
1.3433647155761719, -2.974715673387391, 1.570800241892007, 0.9589821882800567, 0.5290023191185486, 1.4219841345686615, 7.895913745571306, -1.4513520422754222e-05, -0.003996517620338258, 0.00038569754578896, -0.0034289817195906486, 89.73130390046451, 12.20314652859013, 12.158509647885337, 5.773610601711069, 4.6810994667458825e-07
1.349365234375, -2.938492122406074, 1.5708001935136056, 0.958961699253985, 0.5290043267805901, 1.4219665407366975, 8.693652235516133, -1.1610816340379415e-05, -0.004917366257209621, 0.00048183888997366253, -0.004222519671344391, 80.90510686297395, 16.402840006718122, 16.095794788367645, 7.28780690773007, -2.6012826249466066e-07
1.3543660640716553, -2.902583989305176, 1.5708001548108845, 0.9589374380843397, 0.5290067266742, 1.4219456961186814, 8.617951944215498, -9.288653068095787e-06, -0.0058226807148625825, 0.0005759744663802469, -0.005002708323881416, -6.9478978043236355, 20.84658577150474, 20.26227926361929, 8.891023076892093, -2.564883441842795e-07
1.3603625297546387, -2.870266669514368, 1.5708001238487077, 0.9589159832422551, 0.5290088503274819, 1.421927265549126, 7.7561567497939485, -7.430922458695477e-06, -0.005149162100305804, 0.0005096767876474617, -0.004423336693297059, -86.12386916255119, 20.549703807292264, 19.984602945668403, 8.784783594637425, 1.8752090685447798e-07
1.3673641681671143, -2.8345672072672157, 1.5708000990789661, 0.9589027116336367, 0.5290101512599887, 1.4219158788846098, 8.56787093931651, -5.944737971164127e-06, -0.003185186068408785, 0.0003122238016380341, -0.0027327994838858005, 82.30854316738926, 15.929335408421094, 15.653505710878639, 7.118781798979998, 5.512495476263168e-07
1.372363805770874, -2.795823816809354, 1.5708000792631729, 0.9588852953775029, 0.5290118783774937, 1.4219009204944966, 9.298413709886807, -4.755790374788571e-06, -0.004179901472111558, 0.0004145082012148582, -0.003590013627165878, 74.22901448152774, 20.108888813389886, 19.571499651433403, 8.62551147879537, -2.811847811038126e-07
1.3783659934997559, -2.751033953744141, 1.5708000634105383, 0.9588638794370381, 0.5290140161542043, 1.4218825154516508, 10.749567135651054, -3.8046322998752657e-06, -0.0051398257115531365, 0.0005130664105262306, -0.004417210282996881, 146.91773841088758, 24.493790496311775, 23.682546071866547, 10.2074678416699, -2.7203912499749156e-07
1.384364366531372, -2.71072307698545, 1.5708000507284308, 0.9588320055101843, 0.5290172188153642, 1.4218551030950346, 9.674610422085948, -3.043705842031841e-06, -0.0076497424449042395, 0.0007686386783916088, -0.0065789655879064934, -107.28930033475355, 34.12019887482306, 32.707169120302865, 13.679686576620574, -7.092890807012149e-07
1.391364336013794, -2.6744432879026276, 1.5708000405827447, 0.9588123108837544, 0.5290191902974863, 1.4218381758744636, 8.707149379877356, -2.43496467794424e-06, -0.004726710343180174, 0.0004731557093029526, -0.004062532937022301, -96.61947758849789, 27.242746513285393, 26.260689910934612, 11.200997066814422, 8.193021210188146e-07
1.3963673114776611, -2.6351776032926626, 1.5708000324661957, 0.9588024618301407, 0.5290201665842982, 1.4218297238372264, 9.423764306391579, -1.9479717465742397e-06, -0.0023637728672858405, 0.00023430883483210874, -0.0020284889369173442, 72.86251262275286, 21.221428603201996, 20.615663001611157, 9.028765322892859, 6.632261438571655e-07
1.4023640155792236, -2.596531549925982, 1.5708000259729566, 0.9587882917317254, 0.52902158384582, 1.4218175490260558, 9.275052808003393, -1.5583773951277635e-06, -0.003400823619674087, 0.00034014276523103293, -0.0029219546809113317, -14.216026631980363, 25.27489639448293, 24.415199071209447, 10.489865684102554, -2.930431909224917e-07
1.4083642959594727, -2.561750101895969, 1.5708000207783652, 0.9587765646982463, 0.5290227557671544, 1.4218074757461396, 8.347547527203057, -1.2467019203654672e-06, -0.002814488034974416, 0.0002812611202649973, -0.0024175871798844117, -92.6835300713218, 24.488737020350193, 23.678541813768515, 10.206967451164243, 1.6350162076689638e-07
1.4143640995025635, -2.5304467986689576, 1.570800016622692, 0.9587730263642343, 0.5290230993013667, 1.4218044510705592, 7.512792774482747, -9.973615320291174e-07, -0.0008492001628904733, 8.244821095104715e-05, -0.0007259221392804244, -83.47119706798756, 19.126278228504095, 18.65154560236883, 8.27303344708908, 5.521079048713075e-07
1.4203636646270752, -2.4956599513292224, 1.5708000132981537, 0.9587757147279907, 0.5290228131121398, 1.4218067856466772, 8.34884336153643, -7.978892213600375e-07, 0.000645207301521622, -6.868541444246534e-05, 0.0005602982683139274, 84.72793293965242, 14.638440846380531, 14.444142827235467, 6.653878186917927, 4.2041191994809866e-07
1.4253654479980469, -2.4610448515057484, 1.570800010638523, 0.9587726492204598, 0.5290231120053922, 1.4218041642531376, 8.307623957633758, -6.3831137708803e-07, -0.0007357218074119931, 7.173438057134218e-05, -0.000629134449487978, -3.550391665890678, 18.829645936201278, 18.37286787295175, 8.16480791176807, -3.8848197944489625e-07
1.430363655090332, -2.429891261664622, 1.5708000085108182, 0.9587700146158606, 0.5290233685606869, 1.4218019122367151, 7.476861561870383, -5.10649101670424e-07, -0.0006323051037945282, 6.157327073008645e-05, -0.0005404839413958307, -83.08511820204826, 18.733890783863338, 18.28340972306492, 8.130839042704006, 2.8804286711569327e-08
1.4353625774383545, -2.401853030807608, 1.5708000068086545, 0.9587732497625412, 0.5290230310046304, 1.4218047125679374, 6.72917540568335, -4.085192770730828e-07, 0.000776435203334036, -8.101345355610023e-05, 0.0006720794933267882, -74.81879691988279, 14.449747491265233, 14.267298885286353, 6.585813926596076, 3.963597582258325e-07
1.4403636455535889, -2.370004748600871, 1.5708000054469236, 0.9587808711276324, 0.5290222496340382, 1.4218112879826432, 7.643587729616969, -3.268154173952098e-07, 0.0018291276218943553, -0.0001875289421274795, 0.0015780995293934036, 92.52721453879529, 10.851236995699017, 10.89364177776159, 5.287493077058106, 2.9664636050396076e-07
1.4453630447387695, -2.341341294614807, 1.5708000043575387, 0.9587822590515472, 0.5290221013461402, 1.4218124950190631, 6.8792289566552745, -2.6145233178453964e-07, 0.00033310173955358735, -3.5589095501498136e-05, 0.00028968874079575435, -76.48886780173092, 15.032325753434437, 14.812928851914927, 6.794869535662116, -4.2044698257938705e-07
1.4513626098632812, -2.3122372726514953, 1.570800003486031, 0.958788080978498, 0.5290215041826813, 1.4218175185877682, 6.984965271194824, -2.091618611643753e-07, 0.0013972624681690693, -0.0001433192301332209, 0.0012056564892094501, 11.081250016068473, 11.537821395549269, 11.537338753627765, 5.535164136364091, 2.9971542483283044e-07
1.4563634395599365, -2.279429766528161, 1.5708000027888247, 0.9587928340176158, 0.5290210161288043, 1.421821620728476, 7.8738014696002425, -1.6732948893150024e-07, 0.0011407293882709224, -0.00011713293050497064, 0.000984513769885384, 89.97377310341965, 11.910059134487549, 11.886062069976793, 5.668941900618259, -7.170794278545566e-08
1.4613642692565918, -2.24990301101716, 1.5708000022310598, 0.9587914536376494, 0.5290211507292226, 1.4218204409232127, 7.086421322640218, -1.3386358688194377e-07, -0.0003312911919500783, 3.230410041130116e-05, -0.0002831532631811934, -78.77587918056068, 16.233800751620574, 15.939342317560222, 7.228272715632447, -4.139595896547874e-07
1.4663631916046143, -2.2233289310572593, 1.5708000017848478, 0.9587950688496839, 0.529020779272424, 1.4218235615573565, 6.377779190376192, -1.0709086956106617e-07, 0.0008676508882852207, -8.914963168413226e-05, 0.000748952194526642, -70.92934328719028, 12.52151038947083, 12.459593132778886, 5.8900580838678955, 3.374137321821706e-07
1.472362756729126, -2.1994122590933487, 1.5708000014278782, 0.9588025473363444, 0.529020016517102, 1.4218300077186095, 5.740001271338577, -8.567269560444402e-08, 0.0017948367985072267, -0.00018306127728859312, 0.001547078700725249, -63.87085265850696, 9.293426576346214, 9.433212777002607, 4.725410019075306, 2.6132804155083306e-07
1.477365255355835, -2.1745803171081164, 1.5708000011423027, 0.9588127076708428, 0.5290189822218786, 1.42183876225194, 5.959666076455701, -6.853815648355521e-08, 0.002438480279622346, -0.00024823085361064257, 0.0021010879993146048, 22.437396663780117, 6.67292524177771, 6.976436636650399, 3.779937568769497, 1.8176779023562826e-07
1.4823634624481201, -2.1522315693214074, 1.570800000913842, 0.9588208571681841, 0.5290181522422048, 1.421845784728901, 5.363699468810125, -5.4830529450100585e-08, 0.0019558793619162684, -0.0001991951217025778, 0.0016853944706692325, -59.704393091102745, 7.4335095178470425, 7.689265945767308, 4.0538728399228585, -1.3508277963831396e-07
1.4873647689819336, -2.1321176963133692, 1.5708000007310736, 0.9588310412040836, 0.5290171162893699, 1.4218545584114084, 4.827329521929109, -4.3864421400696685e-08, 0.0024441686158808706, -0.0002486286803956572, 0.002105683801798902, -53.75308099521245, 5.256009428364398, 5.648045300517151, 3.268687720275521, 1.380490657041172e-07
1.4923644065856934, -2.110708273388423, 1.5708000005848588, 0.9588426265741821, 0.5290159385448314, 1.4218645381691513, 5.13826150198717, -3.50915350111336e-08, 0.002780488823632854, -0.000282658689230747, 0.0023951418582755166, 31.549142234967647, 3.407040551233125, 3.9146014581164383, 2.601602732494403, 9.5349508528439e-08
1.4973630905151367, -2.0881328555382583, 1.570800000467887, 0.9588518012052304, 0.5290150055560583, 1.42187244171406, 5.418100284039432, -2.8073223773406042e-08, 0.0022019114516039218, -0.0002239173055623711, 0.0018968507780771984, 28.44106865574399, 4.364300576103748, 4.8118535185674665, 2.946564017741576, -1.620982977212789e-07
1.5023658275604248, -2.0678149794731104, 1.5708000003743097, 0.9588587553640259, 0.5290142979963297, 1.4218784329118805, 4.876290255635486, -2.2458578996520373e-08, 0.0016689981109025975, -0.00016981433485173392, 0.0014378874769439554, -54.29469141408434, 5.360248252375255, 5.745564578254762, 3.305841123220443, -1.4937971655816237e-07
1.5083637237548828, -2.0495288910144773, 1.5708000002994478, 0.9588673539755561, 0.529013423914392, 1.4218858397171787, 4.388661230071936, -1.796686530108893e-08, 0.0020636667672463416, -0.00020977966505993095, 0.0017776332715864554, -48.88078345581383, 3.571924723459628, 4.069185264862773, 2.6610525636155584, 1.115728167566218e-07
1.5143632888793945, -2.0330714114017074, 1.5708000002395581, 0.9588770918379101, 0.5290124345198144, 1.4218942271736479, 3.949795107064741, -1.4373494394703812e-08, 0.002337086964970869, -0.00023745469861691237, 0.002012989552600146, -44.00748221433259, 2.0441587701484925, 2.6368723855482386, 2.1098671167705714, 7.74986446016347e-08
1.5203626155853271, -2.018259679750215, 1.5708000001916465, 0.958887477458613, 0.5290113796344357, 1.4219031721255193, 3.5548155963582637, -1.149879128026221e-08, 0.002492548968686281, -0.0002531724908872643, 0.0021467884491447944, -39.618393624958884, 0.8048951700128204, 1.4750305232421352, 1.6627592805568532, 4.43101991658466e-08
1.525362491607666, -1.9983152468284464, 1.5707999948509792, 0.9588977792370827, 0.5290095410256141, 1.4219131818362747, 4.786663901224395, -1.2817601593717587e-06, 0.002472426832731134, -0.00044126611716251846, 0.0024023305812789116, 124.21108220536344, -0.21160629898958477, 0.5203145041623696, 1.294330944248134, 7.901727538122178e-09
1.530364990234375, -1.9770583199811425, 1.5707994101866465, 0.9589053675651276, 0.5290085793890257, 1.4219193895981874, 5.101662443352929, -0.00014031943985401418, 0.0018211987307601984, -0.000230792781243494, 0.001489862859056043, 31.95260552668033, -3.8249851193354028, 3.6972831974072187, 2.519133307422655, -2.3807768779644835e-07
1.5363655090332031, -1.957927085818569, 1.570798635238237, 0.9589110678019748, 0.529007713916096, 1.421923913267072, 4.591496199017634, -0.00018598761827218202, 0.001368056843328802, -0.00020771350312021042, 0.0010856805323172028, -51.128894012604775, -2.813373752371754, 4.698933589103343, 2.903167516761908, -1.4030773616136556e-07
1.5423636436462402, -1.9407089750722528, 1.5707983027054457, 0.9589178545684504, 0.5290069349904594, 1.4219295443671482, 4.132346579115868, -7.980786989889022e-05, 0.001628823954138825, -0.00018694215280845583, 0.001351464018290817, -46.029893926735625, -4.26505084082057, 3.2225284597972284, 2.3347874157708612, 1.0486743622379932e-07
1.5473628044128418, -1.9185988009651436, 1.5707984671133985, 0.958924784757206, 0.5290059328700503, 1.4219367446875923, 5.306441785706236, 3.945790865778065e-05, 0.0016632453013512571, -0.00024050889817478494, 0.0017280769065951343, 118.43018322437673, -5.550963389886621, 1.9405423380928797, 1.840838642285769, 7.66487048416369e-08
1.5523631572723389, -1.8953927070510328, 1.5707976362456837, 0.9589278611245259, 0.5290053320490181, 1.4219388904890902, 5.569462539386591, -0.0001994082515735518, 0.0007383281567793221, -0.00014419704771029274, 0.0005149923594855652, 26.761744739482186, -2.225399647276779, 5.309258832983661, 3.139068091163866, -3.6435244656968396e-07
1.5591330528259277, -1.874507222528333, 1.570796646484545, 0.9589295312915187, 0.5290047913100893, 1.4219397872850512, 5.012516285447933, -0.00023754267324369027, 0.0004008400782883337, -0.00012977734293871668, 0.0002152310306272956, -55.79430140859517, -1.2285184760807557, 6.280936600281729, 3.511846323681646, -1.0559489081369859e-07
1.5644655227661133, -1.8490964120224784, 1.5707961927469964, 0.9589330185275708, 0.5290043046450532, 1.4219424626309525, 6.098594521405089, -0.00010889701165328614, 0.000836936652503617, -0.00011679960864618977, 0.0006420830162970695, 109.63584424689651, -2.969521741353765, 4.512987683219622, 2.831270419938607, 1.6077139612197688e-07
1.5696544647216797, -1.8163058828350012, 1.5707948873322262, 0.9589320845528672, 0.5290038666465208, 1.4219410357321656, 7.8697270049945605, -0.0003132995448447695, -0.0002241539288946881, -0.00010511964778103788, -0.0003424557088581581, 178.72684786553606, 0.6061210730692294, 8.14148131274406, 4.228054627135984, -3.578990517651389e-07
1.575169563293457, -1.7867944065662715, 1.570791811651063, 0.9589226146610593, 0.5290034724478416, 1.42193162606156, 7.082754304495106, -0.0007381634791152059, -0.0022727740338872593, -9.460768300240119e-05, -0.002258320945352721, -78.71202767772947, 8.245694905512634, 15.816017601984116, 7.18144563071286, -7.008469547347653e-07
1.5809710025787354, -1.7536201915680611, 1.570789867639956, 0.9589178332832102, 0.5290031176690304, 1.421926680480595, 7.961811599570496, -0.0004665626656500943, -0.001147530683788589, -8.514691470296043e-05, -0.0011869394316127713, 89.00302533354036, 5.0118415007743575, 12.470829950798962, 5.893019046057669, 3.9527370270807735e-07
1.5870361328125, -1.7204564608519595, 1.570787147378927, 0.9589091237048892, 0.5290027983681003, 1.4219180804576859, 7.9592953718644255, -0.0006528626469574639, -0.002090298797028267, -7.66322232337302e-05, -0.0020640054982210554, 0.31122916470808054, 8.867403125026126, 16.39928673625502, 7.40550718448015, -3.2030885913926564e-07
1.5918543338775635, -1.6806882915543306, 1.5707846690683234, 0.9589011488568524, 0.5290025109972631, 1.4219102122385217, 9.544360631430912, -0.0005947945448930847, -0.0019139635288447643, -6.896900091035718e-05, -0.0018883725994253003, 160.21739624435506, 9.020179812146795, 16.51292711532493, 7.448818058585145, 6.566510780274553e-08
1.603630781173706, -1.6448969391864647, 1.5707803407927037, 0.9588844487497342, 0.5290022523635097, 1.4218941643271832, 8.589924568287824, -0.001038786148717108, -0.004008025708366891, -6.207210081937697e-05, -0.0038514987212069363, -95.34909326714576, 17.415669548325376, 24.98851134896466, 10.711088023740757, -7.203410719845269e-07
