sulimanbadour1/Project_S/control/InverseKinematics/robot_joint_data.csv
Time, Joint 1 Angle (Rad), Joint 2 Angle (Rad), Joint 3 Angle (Rad), Joint 4 Angle (Rad), Joint 5 Angle (Rad), Joint 1 Angle (Deg), Joint 2 Angle (Deg), Joint 3 Angle (Deg), Joint 4 Angle (Deg), Joint 5 Angle (Deg), Joint 1 Vel, Joint 2 Vel, Joint 3 Vel, Joint 4 Vel, Joint 5 Vel, Joint 1 Eff, Joint 2 Eff, Joint 3 Eff, Joint 4 Eff, Joint 5 Eff
0.0, -3.14, 1.57, 0.96, 0.53, 1.42, -179.91, 89.95, 54.95, 30.31, 81.47, -0.00, 0.00, 0.00, -0.00, 0.00, 0.01, -1.14, 0.00, 0.00, 0.00
0.05857348442077637, -3.14, 1.57, 0.96, 0.53, 1.42, -179.91, 89.95, 54.95, 30.31, 81.47, -0.00, 0.00, 0.00, -0.00, 0.00, 0.01, -1.15, 0.00, -0.00, -0.00
0.10457563400268555, -3.14, 1.57, 0.96, 0.53, 1.42, -179.91, 89.95, 54.95, 30.31, 81.47, -0.00, 0.00, 0.00, -0.00, 0.00, -0.00, -1.16, -0.00, 0.00, 0.00
0.15557408332824707, -3.14, 1.57, 0.96, 0.53, 1.42, -179.91, 89.95, 54.95, 30.31, 81.47, -0.00, 0.00, 0.00, -0.00, 0.00, -0.00, -1.16, -0.00, 0.00, 0.00
0.19957280158996582, -3.14, 1.57, 0.96, 0.53, 1.42, -179.91, 89.95, 54.95, 30.31, 81.47, -0.00, 0.00, 0.00, -0.00, 0.00, -0.00, -1.16, -0.00, 0.00, 0.00
0.24857115745544434, -3.14, 1.57, 0.96, 0.53, 1.42, -179.91, 89.95, 54.95, 30.31, 81.47, -0.00, 0.00, 0.00, -0.00, 0.00, -0.00, -1.16, -0.00, 0.00, 0.00
0.2885720729827881, -3.14, 1.57, 0.96, 0.53, 1.42, -179.91, 89.95, 54.95, 30.31, 81.47, -0.00, 0.00, 0.00, -0.00, 0.00, -0.00, -1.16, -0.00, 0.00, 0.00
0.32857370376586914, -3.14, 1.57, 0.96, 0.53, 1.42, -179.91, 89.95, 54.95, 30.31, 81.47, -0.00, 0.00, 0.00, -0.00, 0.00, -0.00, -1.16, -0.00, 0.00, 0.00
0.37488889694213867, -3.14, 1.57, 0.96, 0.53, 1.42, -179.91, 89.95, 54.95, 30.31, 81.47, -0.00, 0.00, 0.00, -0.00, 0.00, -0.00, -1.16, -0.00, 0.00, 0.00
0.4156627655029297, -3.14, 1.57, 0.96, 0.53, 1.42, -179.91, 89.95, 54.95, 30.31, 81.47, -0.00, 0.00, 0.00, -0.00, 0.00, -0.00, -1.16, -0.00, 0.00, 0.00
0.4584481716156006, -3.14, 1.57, 0.96, 0.53, 1.42, -179.91, 89.95, 54.95, 30.31, 81.47, -0.00, 0.00, 0.00, -0.00, 0.00, -0.00, -1.16, -0.00, 0.00, 0.00
0.5006513595581055, -3.14, 1.57, 0.96, 0.53, 1.42, -179.91, 89.95, 54.95, 30.31, 81.47, -0.00, 0.00, 0.00, -0.00, 0.00, -0.00, -1.16, -0.00, 0.00, 0.00
0.5509898662567139, -3.14, 1.57, 0.96, 0.53, 1.42, -179.91, 89.95, 54.95, 30.31, 81.47, -0.00, 0.00, 0.00, -0.00, 0.00, -0.00, -1.16, -0.00, 0.00, 0.00
0.597191333770752, -3.14, 1.57, 0.96, 0.53, 1.42, -179.91, 89.95, 54.95, 30.31, 81.47, -0.00, 0.00, 0.00, -0.00, 0.00, -0.00, -1.16, -0.00, 0.00, 0.00
0.6358940601348877, -3.14, 1.57, 0.96, 0.53, 1.42, -179.91, 89.95, 54.95, 30.31, 81.47, -0.00, 0.00, 0.00, -0.00, 0.00, -0.00, -1.16, -0.00, 0.00, 0.00
0.6817121505737305, -3.14, 1.57, 0.96, 0.53, 1.42, -179.91, 89.95, 54.95, 30.31, 81.47, -0.00, 0.00, 0.00, -0.00, 0.00, -0.00, -1.16, -0.00, 0.00, 0.00
0.7292649745941162, -3.14, 1.57, 0.96, 0.53, 1.42, -179.91, 89.95, 54.95, 30.31, 81.47, -0.00, 0.00, 0.00, -0.00, 0.00, -0.00, -1.16, -0.00, 0.00, 0.00
0.7712669372558594, -3.14, 1.57, 0.96, 0.53, 1.42, -179.91, 89.95, 54.95, 30.31, 81.47, -0.00, 0.00, 0.00, -0.00, 0.00, -0.00, -1.16, -0.00, 0.00, 0.00
0.8162670135498047, -3.14, 1.57, 0.96, 0.53, 1.42, -179.91, 89.95, 54.95, 30.31, 81.47, -0.00, 0.00, 0.00, -0.00, 0.00, -0.00, -1.16, -0.00, 0.00, 0.00
0.8622663021087646, -3.14, 1.57, 0.96, 0.53, 1.42, -179.91, 89.95, 54.95, 30.31, 81.47, -0.00, 0.00, 0.00, -0.00, 0.00, -0.00, -1.16, -0.00, 0.00, 0.00
0.9042656421661377, -3.14, 1.57, 0.96, 0.53, 1.42, -179.91, 89.95, 54.95, 30.31, 81.47, -0.00, 0.00, 0.00, -0.00, 0.00, -0.00, -1.16, -0.00, 0.00, 0.00
0.9768121242523193, -3.14, 1.57, 0.96, 0.53, 1.42, -179.91, 89.95, 54.95, 30.31, 81.47, -0.00, 0.00, 0.00, -0.00, 0.00, -0.00, -1.16, -0.00, 0.00, 0.00
1.021808385848999, -3.14, 1.57, 0.96, 0.53, 1.42, -179.91, 89.95, 54.95, 30.31, 81.47, -0.00, 0.00, 0.00, -0.00, 0.00, -0.00, -1.16, -0.00, 0.00, 0.00
1.059807538986206, -3.14, 1.57, 0.96, 0.53, 1.42, -179.91, 89.95, 54.95, 30.31, 81.47, -0.00, 0.00, 0.00, -0.00, 0.00, -0.00, -1.16, -0.00, 0.00, 0.00
1.1018071174621582, -3.14, 1.57, 0.96, 0.53, 1.42, -179.91, 89.95, 54.95, 30.31, 81.47, -0.00, 0.00, 0.00, -0.00, 0.00, -0.00, -1.16, -0.00, 0.00, 0.00
1.1468079090118408, -3.14, 1.57, 0.96, 0.53, 1.42, -179.91, 89.95, 54.95, 30.31, 81.47, -0.00, 0.00, 0.00, -0.00, 0.00, -0.00, -1.16, -0.00, 0.00, 0.00
1.1918067932128906, -3.14, 1.57, 0.96, 0.53, 1.42, -179.91, 89.95, 54.95, 30.31, 81.47, -0.00, 0.00, 0.00, -0.00, 0.00, -0.00, -1.16, -0.00, 0.00, 0.00
1.2338078022003174, -3.14, 1.57, 0.96, 0.53, 1.42, -179.91, 89.95, 54.95, 30.31, 81.47, -0.00, 0.00, 0.00, -0.00, 0.00, -0.00, -1.16, -0.00, 0.00, 0.00
1.27280855178833, -3.14, 1.57, 0.96, 0.53, 1.42, -179.91, 89.95, 54.95, 30.30, 81.47, -0.00, 0.00, 0.00, -0.00, 0.00, -0.00, -1.16, -0.00, 0.00, 0.00
1.3128080368041992, -3.14, 1.57, 0.96, 0.53, 1.42, -179.91, 89.95, 54.95, 30.30, 81.47, -0.00, 0.00, 0.00, -0.00, 0.00, -0.00, -1.16, -0.00, 0.00, 0.00
1.3548095226287842, -3.14, 1.57, 0.96, 0.53, 1.42, -179.91, 89.95, 54.95, 30.30, 81.47, -0.00, 0.00, 0.00, -0.00, 0.00, -0.00, -1.16, -0.00, 0.00, 0.00
1.4071073532104492, -3.14, 1.57, 0.96, 0.53, 1.42, -179.91, 89.95, 54.95, 30.30, 81.47, -0.00, 0.00, 0.00, -0.00, 0.00, -0.00, -1.16, -0.00, 0.00, 0.00
1.5169825553894043, -3.14, 1.57, 0.96, 0.53, 1.42, -179.91, 89.95, 54.95, 30.30, 81.47, -0.00, 0.00, 0.00, -0.00, 0.00, -0.00, -1.16, -0.00, 0.00, 0.00
1.7215025424957275, -3.14, 1.57, 0.96, 0.53, 1.42, -179.91, 89.95, 54.95, 30.30, 81.47, -0.00, 0.00, 0.00, -0.00, 0.00, -0.00, -1.16, -0.00, 0.00, 0.00
1.8022246360778809, -3.14, 1.57, 0.96, 0.53, 1.42, -179.91, 89.95, 54.95, 30.30, 81.47, -0.00, 0.00, 0.00, -0.00, 0.00, -0.00, -1.16, -0.00, 0.00, 0.00
1.8643920421600342, -3.14, 1.57, 0.96, 0.53, 1.42, -179.91, 89.95, 54.95, 30.30, 81.47, -0.00, 0.00, 0.00, -0.00, 0.00, -0.00, -1.16, -0.00, 0.00, 0.00
1.9203858375549316, -3.14, 1.57, 0.96, 0.53, 1.42, -179.91, 89.95, 54.95, 30.30, 81.47, -0.00, 0.00, 0.00, -0.00, 0.00, -0.00, -1.16, -0.00, 0.00, 0.00
1.977384328842163, -3.14, 1.57, 0.96, 0.53, 1.42, -179.91, 89.95, 54.95, 30.30, 81.47, -0.00, 0.00, 0.00, -0.00, 0.00, -0.00, -1.16, -0.00, 0.00, 0.00
2.0273849964141846, -3.14, 1.57, 0.96, 0.53, 1.42, -179.91, 89.95, 54.95, 30.30, 81.47, -0.00, 0.00, 0.00, -0.00, 0.00, -0.00, -1.16, -0.00, 0.00, 0.00
2.0793845653533936, -3.14, 1.57, 0.96, 0.53, 1.42, -179.91, 89.95, 54.95, 30.30, 81.47, -0.00, 0.00, 0.00, -0.00, 0.00, -0.00, -1.16, -0.00, 0.00, 0.00
2.1323835849761963, -3.14, 1.57, 0.96, 0.53, 1.42, -179.91, 89.95, 54.95, 30.30, 81.47, -0.00, 0.00, 0.00, -0.00, 0.00, -0.00, -1.16, -0.00, 0.00, 0.00
2.226384162902832, -3.14, 1.57, 0.96, 0.53, 1.42, -179.91, 89.95, 54.95, 30.30, 81.47, -0.00, 0.00, 0.00, -0.00, 0.00, -0.00, -1.16, -0.00, 0.00, 0.00
2.2753846645355225, -3.14, 1.57, 0.96, 0.53, 1.42, -179.91, 89.95, 54.95, 30.30, 81.47, -0.00, 0.00, 0.00, -0.00, 0.00, -0.00, -1.16, -0.00, 0.00, 0.00
2.3269035816192627, -3.14, 1.57, 0.96, 0.53, 1.42, -179.91, 89.95, 54.95, 30.30, 81.47, -0.00, 0.00, 0.00, -0.00, 0.00, -0.00, -1.16, -0.00, 0.00, 0.00
2.3819029331207275, -3.14, 1.57, 0.96, 0.53, 1.42, -179.91, 89.95, 54.95, 30.30, 81.47, -0.00, 0.00, 0.00, -0.00, 0.00, -0.00, -1.16, -0.00, 0.00, 0.00
2.4309048652648926, -3.14, 1.57, 0.96, 0.53, 1.42, -179.91, 89.95, 54.95, 30.30, 81.47, -0.00, 0.00, 0.00, -0.00, 0.00, -0.00, -1.16, -0.00, 0.00, 0.00
2.4795444011688232, -3.14, 1.57, 0.96, 0.53, 1.42, -179.91, 89.95, 54.95, 30.30, 81.47, -0.00, 0.00, 0.00, -0.00, 0.00, -0.00, -1.16, -0.00, 0.00, 0.00
2.5214498043060303, -3.14, 1.57, 0.96, 0.53, 1.42, -179.91, 89.95, 54.95, 30.30, 81.47, -0.00, 0.00, 0.00, -0.00, 0.00, -0.00, -1.16, -0.00, 0.00, 0.00
2.605177164077759, -3.14, 1.57, 0.96, 0.53, 1.42, -179.91, 89.95, 54.95, 30.30, 81.47, -0.00, 0.00, 0.00, -0.00, 0.00, -0.00, -1.16, -0.00, 0.00, 0.00
2.6611788272857666, -3.14, 1.57, 0.96, 0.53, 1.42, -179.91, 89.95, 54.95, 30.30, 81.47, -0.00, 0.00, 0.00, -0.00, 0.00, -0.00, -1.16, -0.00, 0.00, 0.00
2.718177080154419, -3.14, 1.57, 0.96, 0.53, 1.42, -179.91, 89.95, 54.95, 30.30, 81.47, -0.00, 0.00, 0.00, -0.00, 0.00, -0.00, -1.16, -0.00, 0.00, 0.00
2.767179250717163, -3.14, 1.57, 0.96, 0.53, 1.42, -179.91, 89.95, 54.95, 30.30, 81.47, -0.00, 0.00, 0.00, -0.00, 0.00, -0.00, -1.16, -0.00, 0.00, 0.00
2.8111789226531982, -3.14, 1.57, 0.96, 0.53, 1.42, -179.91, 89.95, 54.95, 30.30, 81.47, -0.00, 0.00, 0.00, -0.00, 0.00, -0.00, -1.16, -0.00, 0.00, 0.00
2.863178253173828, -3.14, 1.57, 0.96, 0.53, 1.42, -179.91, 89.95, 54.95, 30.30, 81.47, -0.00, 0.00, 0.00, -0.00, 0.00, -0.00, -1.16, -0.00, 0.00, 0.00
2.9251792430877686, -3.14, 1.57, 0.96, 0.53, 1.42, -179.92, 89.95, 54.95, 30.30, 81.47, -0.04, 0.00, -0.00, 0.00, 0.00, -10.41, -1.92, -0.71, -0.00, -0.00
2.975177049636841, -3.12, 1.57, 0.96, 0.53, 1.42, -178.79, 89.95, 54.95, 30.31, 81.47, 4.73, 0.00, -0.00, 0.00, 0.00, 1299.48, 92.41, 88.60, 0.00, 0.00
3.019178628921509, -3.06, 1.57, 0.96, 0.53, 1.42, -175.50, 89.95, 54.95, 30.31, 81.47, 13.78, -0.00, -0.00, 0.00, -0.00, 2468.77, 194.75, 170.18, 0.00, 0.00
3.0641798973083496, -2.96, 1.57, 0.96, 0.53, 1.42, -169.32, 89.95, 54.95, 30.31, 81.47, 25.89, -0.00, -0.00, 0.00, -0.00, 3308.55, 390.61, 241.19, 0.00, 0.00
3.12117862701416, -2.81, 1.57, 0.96, 0.53, 1.42, -160.91, 89.95, 54.95, 30.31, 81.47, 35.21, -0.00, -0.00, 0.00, -0.00, 2557.70, 724.89, 229.40, 0.00, 0.00
3.1751797199249268, -2.62, 1.57, 0.96, 0.53, 1.42, -150.13, 89.95, 54.95, 30.31, 81.47, 45.18, -0.00, -0.00, 0.00, -0.00, 2750.78, 1198.73, 289.25, 0.00, 0.00
3.2311785221099854, -2.43, 1.57, 0.96, 0.53, 1.42, -139.47, 89.95, 54.95, 30.31, 81.47, 44.63, -0.00, -0.00, 0.00, -0.00, -98.05, 1641.29, 160.73, -0.00, -0.00
3.2821779251098633, -2.26, 1.57, 0.96, 0.53, 1.42, -129.69, 89.95, 54.95, 30.31, 81.47, 40.96, -0.00, -0.00, 0.00, -0.00, -949.99, 1540.01, 98.59, -0.00, -0.00
3.325176954269409, -2.11, 1.57, 0.96, 0.53, 1.42, -120.89, 89.95, 54.95, 30.31, 81.47, 36.87, 0.00, -0.00, 0.00, 0.00, -1074.18, 1277.26, 64.35, -0.00, -0.00
3.3744351863861084, -1.96, 1.57, 0.96, 0.53, 1.42, -112.40, 89.95, 54.95, 30.31, 81.47, 35.56, 0.00, -0.00, 0.00, 0.00, -321.22, 1073.89, 89.55, -0.00, -0.00
3.4177889823913574, -1.81, 1.57, 0.96, 0.53, 1.42, -103.82, 89.95, 54.95, 30.31, 81.47, 35.97, -0.00, -0.00, 0.00, -0.00, 144.84, 1031.06, 113.59, 0.00, 0.00
3.4681928157806396, -1.63, 1.57, 0.96, 0.53, 1.42, -93.62, 89.95, 54.95, 30.31, 81.47, 42.69, -0.00, -0.00, 0.00, -0.00, 1865.65, 1178.84, 233.35, 0.00, 0.00
3.516193151473999, -1.45, 1.57, 0.96, 0.53, 1.42, -82.93, 89.95, 54.95, 30.31, 81.47, 44.77, -0.00, -0.00, 0.00, -0.00, 613.56, 1515.88, 191.33, 0.00, 0.00
3.564190626144409, -1.26, 1.57, 0.96, 0.53, 1.42, -72.37, 89.95, 54.95, 30.31, 81.47, 44.26, -0.00, -0.00, 0.00, -0.00, -87.90, 1612.36, 158.41, -0.00, -0.00
3.613190174102783, -1.05, 1.57, 0.96, 0.53, 1.42, -60.39, 89.95, 54.95, 30.31, 81.47, 50.15, -0.00, -0.00, 0.00, -0.00, 1656.14, 1701.35, 273.62, 0.00, 0.00
3.6601943969726562, -0.84, 1.57, 0.96, 0.53, 1.42, -48.10, 89.95, 54.95, 30.31, 81.47, 51.49, -0.00, -0.00, 0.00, -0.00, 427.29, 2062.35, 235.45, 0.00, 0.00
3.7151944637298584, -0.63, 1.57, 0.96, 0.53, 1.42, -35.90, 89.95, 54.95, 30.31, 81.47, 51.10, -0.00, -0.00, 0.00, -0.00, -38.57, 2138.34, 214.80, 0.00, 0.00
3.766190767288208, -0.43, 1.57, 0.96, 0.53, 1.42, -24.54, 89.95, 54.95, 30.31, 81.47, 47.58, -0.00, -0.00, 0.00, -0.00, -894.67, 2044.61, 153.16, -0.00, -0.00
3.811190366744995, -0.24, 1.57, 0.96, 0.53, 1.42, -13.56, 89.95, 54.95, 30.31, 81.47, 46.00, -0.00, -0.00, 0.00, -0.00, -374.43, 1801.16, 160.13, -0.00, -0.00
3.8591904640197754, -0.06, 1.57, 0.96, 0.53, 1.42, -3.30, 89.95, 54.95, 30.31, 81.47, 42.98, 0.00, -0.00, 0.00, 0.00, -767.76, 1653.12, 121.15, -0.00, -0.00
3.9031944274902344, 0.11, 1.57, 0.96, 0.53, 1.42, 6.50, 89.95, 54.95, 30.31, 81.47, 41.07, 0.00, -0.00, 0.00, 0.00, -475.88, 1457.55, 119.08, -0.00, -0.00
3.9501917362213135, 0.27, 1.57, 0.96, 0.53, 1.42, 15.52, 89.95, 54.95, 30.31, 81.47, 37.75, 0.00, -0.00, 0.00, 0.00, -860.43, 1299.63, 79.63, -0.00, -0.00
3.9971935749053955, 0.41, 1.57, 0.96, 0.53, 1.42, 23.63, 89.95, 54.95, 30.31, 81.47, 33.98, 0.00, -0.00, 0.00, 0.00, -993.05, 1079.06, 49.17, -0.00, -0.00
4.04819393157959, 0.54, 1.57, 0.96, 0.53, 1.42, 30.93, 89.95, 54.95, 30.31, 81.47, 30.58, 0.00, -0.00, 0.00, 0.00, -896.87, 867.15, 33.52, -0.00, -0.00
4.093191862106323, 0.65, 1.57, 0.96, 0.53, 1.42, 37.50, 89.95, 54.95, 30.31, 81.47, 27.52, 0.00, -0.00, 0.00, 0.00, -809.71, 696.17, 21.47, -0.00, -0.00
4.1367104053497314, 0.76, 1.57, 0.96, 0.53, 1.42, 43.41, 89.95, 54.94, 30.31, 81.47, 24.77, 0.00, -0.00, 0.00, 0.00, -730.79, 558.28, 12.28, -0.00, -0.00
4.185238361358643, 0.85, 1.57, 0.96, 0.53, 1.42, 48.73, 89.95, 54.94, 30.31, 81.47, 22.29, 0.00, -0.00, 0.00, 0.00, -659.37, 447.14, 5.35, -0.00, -0.00
4.236236572265625, 0.93, 1.57, 0.96, 0.53, 1.42, 53.52, 89.95, 54.94, 30.31, 81.47, 20.06, 0.00, -0.00, 0.00, 0.00, -594.78, 357.58, 0.19, -0.00, -0.00
4.284237623214722, 0.94, 1.57, 0.96, 0.53, 1.42, 53.85, 89.95, 54.94, 30.31, 81.47, 1.39, 0.00, 0.00, -0.00, 0.00, -5081.05, -41.77, -313.49, -0.01, -0.00
4.328284740447998, 0.86, 1.57, 0.96, 0.53, 1.42, 49.23, 89.95, 54.94, 30.31, 81.47, -19.38, 0.00, 0.00, -0.00, 0.00, -5664.63, -407.68, -386.16, -0.01, -0.00
4.376718282699585, 0.70, 1.57, 0.96, 0.53, 1.42, 40.33, 89.95, 54.94, 30.31, 81.47, -37.29, 0.00, 0.00, -0.00, 0.00, -4891.88, -50.09, -302.88, -0.01, -0.00
4.424797773361206, 0.44, 1.57, 0.96, 0.53, 1.42, 25.49, 89.95, 54.95, 30.31, 81.47, -62.13, 0.00, 0.00, -0.00, 0.00, -6809.71, 631.46, -350.63, -0.01, -0.00
4.473456621170044, 0.11, 1.57, 0.96, 0.53, 1.42, 6.27, 89.95, 54.94, 30.31, 81.47, -80.52, -0.00, -0.00, 0.00, -0.00, -5111.57, 2748.98, -32.71, -0.01, -0.00
4.514711380004883, -0.22, 1.57, 0.96, 0.53, 1.42, -12.36, 89.95, 54.94, 30.31, 81.47, -78.03, -0.00, 0.00, -0.00, -0.00, 518.98, 5274.11, 565.99, 0.00, 0.00
4.555725812911987, -0.51, 1.57, 0.96, 0.53, 1.42, -29.12, 89.95, 54.95, 30.31, 81.47, -70.22, -0.00, 0.00, -0.00, -0.00, 1975.62, 5059.57, 632.96, 0.00, 0.00
4.597244024276733, -0.77, 1.57, 0.96, 0.53, 1.42, -44.21, 89.95, 54.95, 30.31, 81.47, -63.20, -0.00, 0.00, -0.00, -0.00, 1791.47, 4111.90, 525.75, 0.00, 0.00
4.64224100112915, -1.01, 1.57, 0.96, 0.53, 1.42, -57.79, 89.95, 54.95, 30.31, 81.47, -56.88, -0.00, 0.00, -0.00, -0.00, 1623.17, 3342.81, 437.59, 0.00, 0.00
4.684241056442261, -1.22, 1.57, 0.96, 0.53, 1.42, -70.01, 89.95, 54.95, 30.31, 81.47, -51.19, -0.00, 0.00, -0.00, -0.00, 1469.63, 2718.60, 365.01, 0.00, 0.00
4.730915069580078, -1.41, 1.57, 0.96, 0.53, 1.42, -81.01, 89.95, 54.95, 30.31, 81.47, -46.07, -0.00, 0.00, -0.00, -0.00, 1329.78, 2211.88, 305.16, 0.00, 0.00
4.775353908538818, -1.59, 1.57, 0.96, 0.53, 1.42, -90.91, 89.95, 54.95, 30.31, 81.47, -41.47, -0.00, 0.00, -0.00, -0.00, 1202.55, 1800.44, 255.73, 0.00, 0.00
4.8189027309417725, -1.74, 1.57, 0.96, 0.53, 1.42, -99.82, 89.95, 54.95, 30.31, 81.47, -37.32, -0.00, 0.00, -0.00, -0.00, 1086.96, 1466.26, 214.84, 0.00, 0.00
4.856901168823242, -1.88, 1.57, 0.96, 0.53, 1.42, -107.84, 89.95, 54.95, 30.31, 81.47, -33.59, 0.00, 0.00, -0.00, 0.00, 982.03, 1194.77, 180.95, 0.00, 0.00
4.900070667266846, -2.01, 1.57, 0.96, 0.53, 1.42, -115.05, 89.95, 54.95, 30.31, 81.47, -30.23, 0.00, 0.00, -0.00, 0.00, 886.88, 974.12, 152.81, 0.00, 0.00
4.946777582168579, -2.12, 1.57, 0.96, 0.53, 1.42, -121.55, 89.95, 54.95, 30.31, 81.47, -27.21, 0.00, 0.00, -0.00, 0.00, 800.67, 794.74, 129.38, 0.00, 0.00
4.988816261291504, -2.22, 1.57, 0.96, 0.53, 1.42, -127.39, 89.95, 54.95, 30.31, 81.47, -24.48, 0.00, -0.00, 0.00, 0.00, 722.62, 648.86, 109.85, 0.00, 0.00
5.040917158126831, -2.32, 1.57, 0.96, 0.53, 1.42, -132.65, 89.95, 54.95, 30.31, 81.47, -22.04, 0.00, -0.00, 0.00, 0.00, 651.96, 530.15, 93.53, 0.00, 0.00
5.092468738555908, -2.40, 1.57, 0.96, 0.53, 1.42, -137.39, 89.95, 54.94, 30.31, 81.47, -19.83, 0.00, -0.00, 0.00, 0.00, 588.08, 433.52, 79.85, 0.00, 0.00
5.135290622711182, -2.47, 1.57, 0.96, 0.53, 1.42, -141.65, 89.95, 54.94, 30.31, 81.47, -17.85, 0.00, -0.00, 0.00, 0.00, 530.33, 354.81, 68.35, 0.00, 0.00
5.180182695388794, -2.54, 1.57, 0.96, 0.53, 1.42, -145.48, 89.95, 54.94, 30.31, 81.47, -16.06, 0.00, -0.00, 0.00, 0.00, 478.16, 290.69, 58.68, 0.00, 0.00
5.2277045249938965, -2.60, 1.57, 0.96, 0.53, 1.42, -148.94, 89.95, 54.94, 30.31, 81.47, -14.46, 0.00, -0.00, 0.00, 0.00, 431.04, 238.37, 50.51, 0.00, 0.00
5.272705316543579, -2.65, 1.57, 0.96, 0.53, 1.42, -152.04, 89.95, 54.94, 30.31, 81.47, -13.01, 0.00, -0.00, 0.00, 0.00, 388.50, 195.71, 43.60, 0.00, 0.00
5.315063238143921, -2.70, 1.57, 0.96, 0.53, 1.42, -154.84, 89.95, 54.94, 30.31, 81.47, -11.71, 0.00, -0.00, 0.00, 0.00, 350.11, 160.86, 37.73, 0.00, 0.00
5.356990337371826, -2.75, 1.57, 0.96, 0.53, 1.42, -157.35, 89.95, 54.94, 30.31, 81.47, -10.54, 0.00, -0.00, 0.00, 0.00, 315.46, 132.36, 32.74, 0.00, 0.00
5.398378610610962, -2.79, 1.57, 0.96, 0.53, 1.42, -159.62, 89.95, 54.94, 30.31, 81.47, -9.49, 0.00, -0.00, 0.00, 0.00, 284.22, 109.07, 28.47, 0.00, 0.00
5.443286418914795, -2.82, 1.57, 0.96, 0.53, 1.42, -161.66, 89.95, 54.94, 30.31, 81.47, -8.54, 0.00, -0.00, 0.00, 0.00, 256.04, 89.97, 24.82, 0.00, 0.00
5.488882541656494, -2.85, 1.57, 0.96, 0.53, 1.42, -163.49, 89.95, 54.94, 30.31, 81.47, -7.68, 0.00, -0.00, 0.00, 0.00, 230.64, 74.34, 21.69, 0.00, 0.00
5.5303895473480225, -2.88, 1.57, 0.96, 0.53, 1.42, -165.14, 89.95, 54.94, 30.31, 81.47, -6.92, 0.00, -0.00, 0.00, 0.00, 207.73, 61.50, 19.00, 0.00, 0.00
5.57292366027832, -2.91, 1.57, 0.96, 0.53, 1.42, -166.63, 89.77, 54.94, 30.31, 81.47, -6.22, -0.77, 0.00, -0.00, 0.00, 171.90, -89.63, 1.47, 0.00, 0.00
5.614921808242798, -2.93, 1.54, 0.96, 0.53, 1.42, -167.96, 88.18, 54.94, 30.31, 81.47, -5.60, -6.65, 0.00, -0.00, 0.00, 46.07, -1024.60, -101.29, 0.00, 0.00
5.6619226932525635, -2.95, 1.49, 0.96, 0.53, 1.42, -169.17, 85.24, 54.95, 30.31, 81.47, -5.04, -12.33, 0.00, -0.00, 0.00, -14.43, -998.14, -102.51, 0.00, 0.00
5.7019994258880615, -2.97, 1.41, 0.96, 0.53, 1.42, -170.25, 80.98, 54.95, 30.31, 81.47, -4.54, -17.85, 0.00, -0.00, 0.00, -59.55, -974.93, -102.36, 0.00, 0.00
5.740255355834961, -2.99, 1.33, 0.96, 0.53, 1.42, -171.23, 76.01, 54.95, 30.31, 81.47, -4.08, -20.82, 0.00, -0.00, 0.00, -45.70, -522.83, -54.26, 0.00, 0.00
5.779033899307251, -3.00, 1.24, 0.96, 0.53, 1.42, -172.10, 70.77, 54.95, 30.31, 81.47, -3.68, -21.92, 0.00, -0.00, 0.00, -17.52, -187.57, -17.46, 0.00, 0.00
5.816285848617554, -3.02, 1.13, 0.96, 0.53, 1.42, -172.89, 64.83, 54.95, 30.31, 81.47, -3.31, -24.88, 0.00, -0.00, 0.00, -41.44, -533.66, -54.01, 0.00, 0.00
5.8534095287323, -3.03, 1.02, 0.96, 0.53, 1.42, -173.60, 58.54, 54.95, 30.31, 81.47, -2.98, -26.36, 0.00, -0.00, 0.00, -9.07, -270.52, -24.30, 0.00, 0.00
5.8927953243255615, -3.04, 0.90, 0.96, 0.53, 1.42, -174.24, 51.64, 54.95, 30.31, 81.47, -2.68, -28.89, 0.00, -0.00, 0.00, -6.25, -465.38, -44.09, 0.00, 0.00
6.001797676086426, -3.05, 0.78, 0.96, 0.53, 1.42, -174.82, 44.87, 54.95, 30.31, 81.47, -2.41, -28.38, -0.00, 0.00, 0.00, 60.51, 78.36, 16.47, 0.00, 0.00
6.095798015594482, -3.06, 0.65, 0.96, 0.53, 1.42, -175.34, 37.44, 54.95, 30.31, 81.47, -2.17, -31.10, 0.00, -0.00, 0.00, 46.85, -510.28, -46.44, 0.00, 0.00
6.151797533035278, -3.07, 0.50, 0.96, 0.53, 1.42, -175.80, 28.39, 54.95, 30.31, 81.47, -1.95, -37.91, -0.00, 0.00, 0.00, 38.92, -1259.48, -125.52, 0.00, 0.00
6.198796033859253, -3.08, 0.34, 0.96, 0.53, 1.42, -176.22, 19.59, 54.95, 30.31, 81.47, -1.76, -36.89, -0.00, 0.00, -0.00, 166.58, 150.51, 31.82, 0.00, 0.00
6.243797063827515, -3.08, 0.19, 0.96, 0.53, 1.42, -176.60, 10.71, 54.95, 30.31, 81.47, -1.58, -37.17, 0.00, -0.00, -0.00, 186.87, -85.02, 6.70, 0.00, 0.00
6.290796995162964, -3.09, 0.04, 0.96, 0.53, 1.42, -176.94, 2.25, 54.95, 30.31, 81.47, -1.42, -35.44, -0.00, 0.00, -0.00, 216.13, 278.08, 46.88, 0.00, 0.00
6.357795715332031, -3.09, -0.11, 0.96, 0.53, 1.42, -177.25, -6.03, 54.95, 30.31, 81.47, -1.28, -34.67, -0.00, 0.00, -0.00, 216.37, 103.57, 27.30, 0.00, 0.00
6.449796676635742, -3.10, -0.25, 0.96, 0.53, 1.42, -177.52, -14.33, 54.95, 30.31, 81.47, -1.15, -34.78, 0.00, -0.00, -0.00, 217.87, -53.99, 9.97, 0.00, 0.00
6.571301698684692, -3.10, -0.38, 0.96, 0.53, 1.42, -177.77, -21.90, 54.95, 30.31, 81.47, -1.04, -31.70, -0.00, 0.00, 0.00, 193.60, 524.31, 72.69, 0.00, 0.00
6.705411434173584, -3.11, -0.50, 0.96, 0.53, 1.42, -177.99, -28.71, 54.95, 30.31, 81.47, -0.93, -28.53, -0.00, 0.00, 0.00, 157.38, 544.22, 72.69, 0.00, 0.00
6.875061511993408, -3.11, -0.61, 0.96, 0.53, 1.42, -178.19, -34.84, 54.95, 30.31, 81.47, -0.84, -25.67, -0.00, 0.00, 0.00, 124.63, 490.48, 64.68, 0.00, 0.00
7.045926809310913, -3.11, -0.70, 0.96, 0.53, 1.42, -178.37, -40.35, 54.94, 30.31, 81.47, -0.76, -23.11, -0.00, 0.00, 0.00, 96.40, 442.11, 57.55, 0.00, 0.00
7.2082014083862305, -3.12, -0.79, 0.96, 0.53, 1.42, -178.54, -45.32, 54.94, 30.31, 81.47, -0.68, -20.80, -0.00, 0.00, 0.00, 72.94, 398.50, 51.20, 0.00, 0.00
7.364198446273804, -3.12, -0.87, 0.96, 0.53, 1.42, -178.68, -49.79, 54.94, 30.31, 81.47, -0.61, -18.72, -0.00, 0.00, 0.00, 54.03, 359.24, 45.58, -0.00, -0.00
7.515500068664551, -3.12, -0.94, 0.96, 0.53, 1.42, -178.81, -53.81, 54.94, 30.31, 81.47, -0.55, -16.85, -0.00, 0.00, 0.00, 39.10, 323.82, 40.58, -0.00, -0.00
7.6684300899505615, -3.12, -1.00, 0.96, 0.53, 1.42, -178.93, -57.43, 54.94, 30.31, 81.47, -0.50, -15.16, -0.00, 0.00, 0.00, 27.54, 291.92, 36.16, -0.00, -0.00
7.831429719924927, -3.12, -1.06, 0.96, 0.53, 1.42, -179.04, -60.68, 54.94, 30.31, 81.47, -0.45, -13.64, -0.00, 0.00, 0.00, 18.73, 263.12, 32.23, -0.00, -0.00
7.999433517456055, -3.13, -1.11, 0.96, 0.53, 1.42, -179.14, -63.62, 54.94, 30.31, 81.47, -0.40, -12.28, -0.00, 0.00, 0.00, 12.11, 237.20, 28.76, -0.00, -0.00
8.160432815551758, -3.13, -1.16, 0.96, 0.53, 1.42, -179.22, -66.25, 54.94, 30.12, 81.47, -0.36, -11.05, -0.00, -0.79, 0.00, 7.20, 213.81, 25.67, -0.00, -0.00
8.319432258605957, -3.13, -1.20, 0.96, 0.47, 1.42, -179.30, -68.63, 54.94, 26.73, 81.47, -0.33, -9.95, -0.00, -14.20, 0.00, 3.63, 192.71, 22.92, -0.00, -0.00
8.49071216583252, -3.13, -1.24, 0.96, 0.39, 1.42, -179.37, -70.77, 54.94, 22.17, 81.47, -0.29, -8.95, -0.00, -19.13, 0.00, 1.06, 173.72, 20.49, -0.00, -0.00
8.677595376968384, -3.13, -1.27, 0.96, 0.29, 1.42, -179.43, -72.69, 54.94, 16.63, 81.47, -0.26, -8.06, 0.00, -23.17, 0.00, -0.74, 156.58, 18.33, -0.00, -0.00
8.890266180038452, -3.13, -1.30, 0.96, 0.17, 1.42, -179.49, -74.42, 54.94, 9.57, 81.47, -0.24, -7.25, -0.00, -29.58, 0.00, -1.97, 141.13, 16.40, -0.00, -0.00
9.122266292572021, -3.13, -1.33, 0.96, 0.03, 1.42, -179.54, -75.98, 54.94, 1.79, 81.47, -0.21, -6.53, -0.00, -32.58, 0.00, -2.77, 127.23, 14.69, -0.00, -0.00
9.348084926605225, -3.13, -1.35, 0.96, -0.08, 1.42, -179.59, -77.38, 54.94, -4.83, 81.47, -0.19, -5.87, -0.00, -27.73, 0.00, -3.27, 114.68, 13.15, 0.00, 0.00
9.584321737289429, -3.14, -1.37, 0.96, -0.04, 1.42, -179.63, -78.64, 54.94, -2.26, 81.47, -0.17, -5.29, -0.00, 10.75, 0.00, -3.54, 103.40, 11.80, 0.01, 0.01
9.817732810974121, -3.14, -1.39, 0.96, 0.10, 1.42, -179.66, -79.78, 54.94, 5.64, 81.47, -0.16, -4.76, 0.00, 33.09, 0.00, -3.64, 93.22, 10.58, 0.01, 0.00
10.044193983078003, -3.14, -1.41, 0.96, 0.25, 1.42, -179.70, -80.80, 54.94, 14.08, 81.47, -0.14, -4.28, -0.00, 35.34, 0.00, -3.62, 84.03, 9.48, 0.00, 0.00
10.310019493103027, -3.14, -1.43, 0.96, 0.38, 1.42, -179.73, -81.72, 54.94, 21.67, 81.47, -0.13, -3.85, 0.00, 31.80, 0.00, -3.52, 75.81, 8.51, -0.00, -0.00
10.520388126373291, -3.14, -1.44, 0.96, 0.50, 1.42, -179.76, -82.55, 54.94, 28.50, 81.47, -0.11, -3.47, 0.00, 28.62, 0.00, -3.38, 68.35, 7.63, -0.00, -0.00
10.722988367080688, -3.14, -1.45, 0.96, 0.60, 1.42, -179.78, -83.29, 54.94, 34.46, 81.47, -0.10, -3.12, 0.00, 24.97, 0.00, -3.20, 61.65, 6.85, -0.00, -0.00
10.873988628387451, -3.14, -1.47, 0.96, 0.69, 1.42, -179.80, -83.96, 54.94, 39.64, 81.47, -0.09, -2.81, 0.00, 21.68, 0.00, -3.01, 55.62, 6.15, -0.00, -0.00
10.990988492965698, -3.14, -1.48, 0.96, 0.77, 1.42, -179.82, -84.57, 54.94, 44.20, 81.47, -0.08, -2.53, 0.00, 19.11, 0.00, -2.81, 50.18, 5.52, -0.00, -0.00
11.071468353271484, -3.14, -1.49, 0.96, 0.83, 1.42, -179.84, -85.11, 54.94, 47.64, 81.47, -0.07, -2.28, 0.00, 14.42, 0.00, -2.60, 45.30, 4.96, -0.00, -0.00
11.124939441680908, -3.14, -1.49, 0.96, 0.89, 1.42, -179.86, -85.60, 54.94, 50.74, 81.47, -0.07, -2.05, 0.00, 12.98, 0.00, -2.40, 40.88, 4.46, -0.00, -0.00
11.195932626724243, -3.14, -1.50, 0.96, 0.93, 1.42, -179.87, -86.04, 54.94, 53.53, 81.47, -0.06, -1.84, 0.00, 11.68, 0.00, -2.21, 36.91, 4.00, -0.00, -0.00
11.276933670043945, -3.14, -1.51, 0.96, 0.98, 1.42, -179.88, -86.44, 54.94, 56.04, 81.47, -0.05, -1.66, 0.00, 10.51, 0.00, -2.02, 33.35, 3.60, -0.00, -0.00
11.372370719909668, -3.14, -1.51, 0.96, 1.02, 1.42, -179.89, -86.79, 54.94, 58.30, 81.47, -0.05, -1.49, 0.00, 9.46, 0.00, -1.85, 30.14, 3.24, -0.00, -0.00
11.483558654785156, -3.14, -1.52, 0.96, 1.05, 1.42, -179.91, -87.11, 54.94, 60.34, 81.47, -0.04, -1.34, 0.00, 8.52, 0.00, -1.69, 27.24, 2.91, -0.00, -0.00
11.61555790901184, -3.14, -1.53, 0.96, 1.08, 1.42, -179.91, -87.40, 54.94, 62.16, 81.47, -0.04, -1.21, 0.00, 7.66, 0.00, -1.54, 24.64, 2.62, -0.00, -0.00
11.75355863571167, -3.14, -1.53, 0.96, 1.11, 1.40, -179.92, -87.66, 54.94, 63.81, 79.96, -0.04, -1.09, 0.00, 6.90, -6.35, -1.40, 22.29, 2.35, -0.00, -0.00
11.89556097984314, -3.14, -1.53, 0.96, 1.14, 1.29, -179.93, -87.90, 54.94, 65.29, 73.76, -0.03, -0.98, 0.00, 6.21, -25.95, -1.27, 20.18, 2.11, -0.00, -0.00
12.033559083938599, -3.14, -1.54, 0.96, 1.16, 1.15, -179.94, -88.11, 54.94, 66.63, 66.10, -0.03, -0.88, 0.00, 5.59, -32.09, -1.15, 18.27, 1.90, -0.00, -0.00
12.14712142944336, -3.14, -1.54, 0.96, 1.18, 0.97, -179.94, -88.30, 54.94, 67.83, 55.70, -0.03, -0.79, 0.00, 5.03, -43.56, -1.04, 16.56, 1.71, -0.00, -0.00
12.226967811584473, -3.14, -1.54, 0.96, 1.20, 0.78, -179.95, -88.47, 54.94, 68.91, 44.54, -0.02, -0.71, 0.00, 4.53, -46.75, -0.94, 15.02, 1.54, -0.00, -0.00
12.284470558166504, -3.14, -1.55, 0.96, 1.22, 0.60, -179.95, -88.62, 54.95, 69.88, 34.50, -0.02, -0.64, 0.00, 4.07, -42.07, -0.86, 13.63, 1.38, 0.00, 0.00
12.406178951263428, -3.14, -1.55, 0.96, 1.23, 0.44, -179.96, -88.76, 54.95, 70.76, 25.46, -0.02, -0.58, 0.00, 3.67, -37.86, -0.77, 12.39, 1.24, 0.00, 0.00
12.581743478775024, -3.14, -1.55, 0.96, 1.25, 0.35, -179.96, -88.88, 54.95, 71.54, 20.26, -0.02, -0.52, 0.00, 3.30, -21.78, -0.70, 11.27, 1.12, 0.00, 0.00
12.784553289413452, -3.14, -1.55, 0.96, 1.26, 0.38, -179.97, -88.99, 54.95, 72.25, 21.83, -0.02, -0.47, 0.00, 2.97, 6.59, -0.64, 10.26, 1.01, 0.00, 0.00
13.01459527015686, -3.14, -1.55, 0.96, 1.27, 0.50, -179.97, -89.09, 54.95, 72.89, 28.65, -0.01, -0.42, 0.00, 2.67, 28.55, -0.57, 9.34, 0.91, 0.00, 0.00
13.221842527389526, -3.14, -1.56, 0.96, 1.28, 0.61, -179.97, -89.18, 54.95, 73.46, 34.79, -0.01, -0.38, 0.00, 2.40, 25.70, -0.52, 8.52, 0.81, -0.00, -0.00
13.408896923065186, -3.14, -1.56, 0.96, 1.29, 0.70, -179.98, -89.27, 54.95, 73.98, 40.31, -0.01, -0.34, 0.00, 2.16, 23.13, -0.46, 7.79, 0.73, -0.00, -0.00
13.555980205535889, -3.14, -1.56, 0.96, 1.30, 0.79, -179.98, -89.34, 54.95, 74.45, 45.28, -0.01, -0.31, 0.00, 1.95, 20.82, -0.42, 7.12, 0.66, -0.00, -0.00
13.673980236053467, -3.14, -1.56, 0.96, 1.31, 0.87, -179.98, -89.41, 54.95, 74.86, 49.75, -0.01, -0.28, 0.00, 1.75, 18.73, -0.38, 6.53, 0.59, -0.00, -0.00
13.74465298652649, -3.14, -1.56, 0.96, 1.31, 0.91, -179.98, -89.47, 54.95, 75.24, 52.35, -0.01, -0.25, 0.00, 1.58, 10.91, -0.34, 5.99, 0.53, -0.00, -0.00
13.78947901725769, -3.14, -1.56, 0.96, 1.32, 0.97, -179.98, -89.52, 54.95, 75.58, 55.45, -0.01, -0.22, 0.00, 1.42, 12.99, -0.31, 5.50, 0.48, 0.00, 0.00
13.84201431274414, -3.14, -1.56, 0.96, 1.32, 1.03, -179.99, -89.57, 54.95, 75.89, 58.91, -0.01, -0.20, -0.00, 1.28, 14.47, -0.27, 5.07, 0.43, 0.00, 0.00
13.90209698677063, -3.14, -1.56, 0.96, 1.33, 1.08, -179.99, -89.61, 54.95, 76.16, 62.02, -0.01, -0.18, 0.00, 1.15, 13.02, -0.25, 4.68, 0.39, -0.00, -0.00
13.977302074432373, -3.14, -1.56, 0.96, 1.33, 1.13, -179.99, -89.65, 54.95, 76.41, 64.82, -0.01, -0.16, 0.00, 1.04, 11.72, -0.22, 4.33, 0.35, -0.00, -0.00
14.073518991470337, -3.14, -1.57, 0.96, 1.34, 1.18, -179.99, -89.68, 54.95, 76.63, 67.34, -0.00, -0.15, 0.00, 0.93, 10.55, -0.20, 4.01, 0.32, -0.00, -0.00
14.208519697189331, -3.14, -1.57, 0.96, 1.34, 1.08, -179.99, -89.72, 54.95, 76.83, 61.74, -0.00, -0.13, 0.00, 0.84, -23.44, -0.18, 3.73, 0.28, -0.01, -0.01
14.32799482345581, -3.14, -1.57, 0.96, 1.34, 0.81, -179.99, -89.74, 54.95, 77.01, 46.56, -0.00, -0.12, 0.00, 0.75, -63.56, -0.16, 3.46, 0.25, -0.01, -0.01
14.441232204437256, -3.14, -1.57, 0.96, 1.35, 0.57, -179.99, -89.77, 54.95, 77.17, 32.91, -0.00, -0.11, 0.00, 0.68, -57.20, -0.15, 3.23, 0.23, 0.00, 0.00
14.48573613166809, -3.14, -1.57, 0.96, 1.35, 0.41, -179.99, -89.79, 54.95, 77.32, 23.46, -0.00, -0.10, 0.00, 0.61, -39.58, -0.14, 3.02, 0.21, 0.00, 0.00
14.609177589416504, -3.14, -1.57, 0.96, 1.35, 0.33, -179.99, -89.81, 54.95, 77.45, 19.03, -0.00, -0.09, 0.00, 0.55, -18.56, -0.12, 2.84, 0.19, 0.00, 0.00
14.788972854614258, -3.14, -1.57, 0.96, 1.35, 0.36, -179.99, -89.83, 54.95, 77.57, 20.35, -0.00, -0.08, 0.00, 0.50, 5.52, -0.11, 2.67, 0.17, 0.00, 0.00
15.16394591331482, -3.14, -1.57, 0.96, 1.36, 0.41, -179.99, -89.85, 54.95, 77.67, 23.24, -0.00, -0.07, 0.00, 0.45, 12.11, -0.10, 2.51, 0.15, 0.00, 0.00
15.471460342407227, -3.14, -1.57, 0.96, 1.36, 0.34, -180.00, -89.86, 54.95, 77.77, 19.68, -0.00, -0.06, 0.00, 0.40, -14.89, -0.08, 2.38, 0.13, -0.00, -0.00
15.68546175956726, -3.14, -1.57, 0.96, 1.36, 0.35, -180.00, -89.88, 54.95, 77.86, 20.18, -0.00, -0.06, 0.00, 0.36, 2.07, -0.08, 2.26, 0.12, 0.00, 0.00
15.914295196533203, -3.14, -1.57, 0.96, 1.36, 0.36, -180.00, -89.89, 54.95, 77.93, 20.62, -0.00, -0.05, -0.00, 0.33, 1.87, -0.07, 2.14, 0.11, -0.00, -0.00
