sulimanbadour1/Project_S/control/InverseKinematics/robot_joint_data.csv
Time, Joint 1 Angle (Rad), Joint 2 Angle (Rad), Joint 3 Angle (Rad), Joint 4 Angle (Rad), Joint 5 Angle (Rad), Joint 1 Angle (Deg), Joint 2 Angle (Deg), Joint 3 Angle (Deg), Joint 4 Angle (Deg), Joint 5 Angle (Deg), Joint 1 Vel, Joint 2 Vel, Joint 3 Vel, Joint 4 Vel, Joint 5 Vel, Joint 1 Eff, Joint 2 Eff, Joint 3 Eff, Joint 4 Eff, Joint 5 Eff
0.0, -3.14, 1.57, 0.96, 0.53, 1.42, -180.02, 90.01, 54.95, 30.31, 81.48, 0.02, -0.01, 0.01, -0.01, 0.01, -49.53, -0.66, -3.49, -0.22, 0.00
0.06557798385620117, -3.14, 1.57, 0.96, 0.53, 1.42, -180.01, 90.01, 54.95, 30.31, 81.48, 0.02, -0.01, 0.01, -0.00, 0.00, -20.21, -3.36, -3.87, -0.39, -0.00
0.11974263191223145, -3.14, 1.57, 0.96, 0.53, 1.42, -180.01, 90.01, 54.95, 30.31, 81.48, 0.01, -0.01, 0.00, -0.00, 0.00, -16.17, -3.16, -3.40, -0.22, -0.00
0.1747429370880127, -3.14, 1.57, 0.96, 0.53, 1.42, -180.01, 90.00, 54.95, 30.31, 81.48, 0.01, -0.00, 0.00, -0.00, 0.00, -12.93, -3.40, -3.40, -0.22, -0.00
0.23049569129943848, -3.14, 1.57, 0.96, 0.53, 1.42, -180.01, 90.00, 54.95, 30.31, 81.48, 0.01, -0.00, 0.00, -0.00, 0.00, -10.35, -3.60, -3.40, -0.22, 0.00
0.2850930690765381, -3.14, 1.57, 0.96, 0.53, 1.42, -180.01, 90.00, 54.95, 30.31, 81.48, 0.01, -0.00, 0.00, -0.00, 0.00, -8.28, -3.77, -3.41, -0.22, 0.00
0.3592112064361572, -3.14, 1.57, 0.96, 0.53, 1.42, -180.00, 90.00, 54.95, 30.31, 81.48, 0.01, -0.00, 0.00, 0.00, 0.00, -6.62, -3.90, -3.41, -0.22, 0.00
0.41420674324035645, -3.14, 1.57, 0.96, 0.53, 1.42, -180.00, 90.00, 54.95, 30.31, 81.48, 0.00, -0.00, -0.00, 0.00, 0.00, -5.30, -4.01, -3.42, -0.22, 0.00
0.46623992919921875, -3.14, 1.57, 0.96, 0.53, 1.42, -180.00, 90.00, 54.95, 30.31, 81.48, 0.00, -0.00, -0.00, 0.00, -0.00, -4.24, -4.09, -3.42, -0.22, 0.00
0.516240119934082, -3.14, 1.57, 0.96, 0.53, 1.42, -180.00, 90.00, 54.95, 30.31, 81.48, 0.00, -0.00, -0.00, 0.00, -0.00, -3.39, -4.16, -3.42, -0.22, 0.00
0.5727434158325195, -3.14, 1.57, 0.96, 0.53, 1.42, -180.00, 90.00, 54.95, 30.31, 81.48, 0.00, -0.00, -0.00, 0.00, -0.00, -2.71, -4.22, -3.43, -0.23, 0.00
0.6227381229400635, -3.14, 1.57, 0.96, 0.53, 1.42, -180.00, 90.00, 54.95, 30.31, 81.48, 0.00, -0.00, -0.00, 0.00, -0.00, -2.17, -4.26, -3.43, -0.23, 0.00
0.6837775707244873, -3.14, 1.57, 0.96, 0.53, 1.42, -180.00, 90.00, 54.95, 30.31, 81.48, 0.00, -0.00, -0.00, 0.00, -0.00, -1.74, -4.30, -3.43, -0.23, 0.00
0.743776798248291, -3.14, 1.57, 0.96, 0.53, 1.42, -180.00, 90.00, 54.95, 30.31, 81.48, 0.00, -0.00, -0.00, 0.00, -0.00, -1.39, -4.32, -3.43, -0.23, 0.00
0.8066906929016113, -3.14, 1.57, 0.96, 0.53, 1.42, -180.00, 90.00, 54.95, 30.31, 81.48, 0.00, -0.00, -0.00, 0.00, -0.00, -1.11, -4.35, -3.44, -0.23, 0.00
0.8656902313232422, -3.14, 1.57, 0.96, 0.53, 1.42, -180.00, 90.00, 54.95, 30.31, 81.48, 0.00, -0.00, -0.00, 0.00, -0.00, -0.89, -4.37, -3.44, -0.23, 0.00
0.9233710765838623, -3.14, 1.57, 0.96, 0.53, 1.42, -180.00, 90.00, 54.95, 30.31, 81.48, 0.00, -0.00, -0.00, 0.00, -0.00, -0.71, -4.38, -3.44, -0.23, 0.00
0.9773976802825928, -3.14, 1.57, 0.96, 0.53, 1.42, -180.00, 90.00, 54.95, 30.31, 81.48, 0.00, -0.00, -0.00, 0.00, -0.00, -0.57, -4.39, -3.44, -0.23, 0.00
1.0368292331695557, -3.14, 1.57, 0.96, 0.53, 1.42, -180.00, 90.00, 54.95, 30.31, 81.48, 0.00, -0.00, -0.00, 0.00, -0.00, -0.46, -4.40, -3.44, -0.23, 0.00
1.0888290405273438, -3.14, 1.57, 0.96, 0.53, 1.42, -180.00, 90.00, 54.95, 30.31, 81.48, 0.00, -0.00, -0.00, 0.00, -0.00, -0.36, -4.41, -3.44, -0.23, 0.00
1.1728293895721436, -3.14, 1.57, 0.96, 0.53, 1.42, -180.00, 90.00, 54.95, 30.31, 81.48, 0.00, -0.00, -0.00, 0.00, -0.00, -0.29, -4.42, -3.44, -0.23, 0.00
1.2288291454315186, -3.14, 1.57, 0.96, 0.53, 1.42, -180.00, 90.00, 54.95, 30.31, 81.48, 0.00, -0.00, -0.00, 0.00, -0.00, -0.23, -4.42, -3.44, -0.23, 0.00
1.282829999923706, -3.14, 1.57, 0.96, 0.53, 1.42, -180.00, 90.00, 54.95, 30.31, 81.48, 0.00, -0.00, -0.00, 0.00, -0.00, -0.19, -4.43, -3.44, -0.23, 0.00
1.3338301181793213, -3.14, 1.57, 0.96, 0.53, 1.42, -180.00, 90.00, 54.95, 30.31, 81.48, 0.00, -0.00, -0.00, 0.00, -0.00, -0.15, -4.43, -3.44, -0.23, 0.00
1.3898289203643799, -3.14, 1.57, 0.96, 0.53, 1.42, -180.00, 90.00, 54.95, 30.31, 81.48, 0.00, -0.00, -0.00, 0.00, -0.00, -0.12, -4.43, -3.44, -0.23, 0.00
1.4548320770263672, -3.14, 1.57, 0.96, 0.53, 1.42, -180.00, 90.00, 54.95, 30.31, 81.48, 0.00, -0.00, -0.00, 0.00, -0.00, -0.10, -4.43, -3.44, -0.23, 0.00
1.524832010269165, -3.14, 1.57, 0.96, 0.53, 1.42, -180.00, 90.00, 54.95, 30.31, 81.48, 0.00, -0.00, -0.00, 0.00, -0.00, -0.08, -4.44, -3.44, -0.23, 0.00
1.5811402797698975, -3.14, 1.57, 0.96, 0.53, 1.42, -180.00, 90.00, 54.95, 30.31, 81.48, 0.00, -0.00, -0.00, 0.00, -0.00, -0.06, -4.44, -3.44, -0.23, 0.00
1.6463117599487305, -3.14, 1.57, 0.96, 0.53, 1.42, -180.00, 90.00, 54.95, 30.31, 81.48, 0.00, -0.00, -0.00, 0.00, -0.00, -0.05, -4.44, -3.45, -0.23, 0.00
1.7060203552246094, -3.14, 1.57, 0.96, 0.53, 1.42, -180.00, 90.00, 54.95, 30.31, 81.48, 0.00, -0.00, -0.00, 0.00, -0.00, -0.04, -4.44, -3.45, -0.23, 0.00
1.7606010437011719, -3.14, 1.57, 0.96, 0.53, 1.42, -180.00, 90.00, 54.95, 30.31, 81.48, 0.00, -0.00, -0.00, 0.00, -0.00, -0.03, -4.44, -3.45, -0.23, 0.00
1.81611967086792, -3.14, 1.57, 0.96, 0.53, 1.42, -180.00, 90.00, 54.95, 30.31, 81.48, 0.00, -0.00, -0.00, 0.00, -0.00, -0.03, -4.44, -3.45, -0.23, 0.00
1.8721203804016113, -3.14, 1.57, 0.96, 0.53, 1.42, -180.00, 90.00, 54.95, 30.31, 81.48, 0.00, -0.00, -0.00, 0.00, -0.00, -0.02, -4.44, -3.45, -0.23, 0.00
1.9261233806610107, -3.14, 1.57, 0.96, 0.53, 1.42, -180.00, 90.00, 54.95, 30.31, 81.48, 0.00, -0.00, -0.00, 0.00, -0.00, -0.02, -4.44, -3.45, -0.23, 0.00
1.978121280670166, -3.14, 1.57, 0.96, 0.53, 1.42, -180.00, 90.00, 54.95, 30.31, 81.48, 0.00, -0.00, -0.00, 0.00, -0.00, -0.01, -4.44, -3.45, -0.23, 0.00
2.0351195335388184, -3.14, 1.57, 0.96, 0.53, 1.42, -180.00, 90.00, 54.95, 30.31, 81.48, 0.00, -0.00, -0.00, 0.00, -0.00, -0.01, -4.44, -3.45, -0.23, 0.00
2.0841212272644043, -3.14, 1.57, 0.96, 0.53, 1.42, -180.00, 90.00, 54.95, 30.31, 81.48, 0.00, -0.00, -0.00, 0.00, -0.00, -0.01, -4.44, -3.45, -0.23, 0.00
2.138787031173706, -3.14, 1.57, 0.96, 0.53, 1.42, -180.00, 90.00, 54.95, 30.31, 81.48, 0.00, -0.00, -0.00, 0.00, -0.00, -0.01, -4.44, -3.45, -0.23, 0.00
2.1887714862823486, -3.14, 1.57, 0.96, 0.53, 1.42, -180.00, 90.00, 54.95, 30.31, 81.48, 0.00, -0.00, -0.00, 0.00, -0.00, -0.01, -4.44, -3.45, -0.23, 0.00
2.242772102355957, -3.14, 1.57, 0.96, 0.53, 1.42, -180.00, 90.00, 54.95, 30.31, 81.48, 0.00, -0.00, -0.00, 0.00, -0.00, -0.00, -4.44, -3.45, -0.23, 0.00
2.296771287918091, -3.14, 1.57, 0.96, 0.53, 1.42, -180.00, 90.00, 54.95, 30.31, 81.48, 0.00, -0.00, -0.00, 0.00, -0.00, -0.00, -4.44, -3.45, -0.23, 0.00
2.3517725467681885, -3.14, 1.57, 0.96, 0.53, 1.42, -180.00, 90.00, 54.95, 30.31, 81.48, 0.00, -0.00, -0.00, 0.00, -0.00, -0.00, -4.44, -3.45, -0.23, 0.00
2.4056613445281982, -3.14, 1.57, 0.96, 0.53, 1.42, -180.00, 90.00, 54.95, 30.31, 81.48, 0.00, -0.00, -0.00, 0.00, -0.00, -0.00, -4.44, -3.45, -0.23, 0.00
2.4594650268554688, -3.14, 1.57, 0.96, 0.53, 1.42, -180.00, 90.00, 54.95, 30.31, 81.48, 0.00, -0.00, -0.00, 0.00, -0.00, -0.00, -4.44, -3.45, -0.23, 0.00
2.5124731063842773, -3.14, 1.57, 0.96, 0.53, 1.42, -180.00, 90.00, 54.95, 30.31, 81.48, 0.00, -0.00, -0.00, 0.00, -0.00, -0.00, -4.45, -3.45, -0.23, 0.00
2.5643506050109863, -3.14, 1.57, 0.96, 0.53, 1.42, -180.00, 90.00, 54.95, 30.31, 81.48, 0.00, -0.00, -0.00, 0.00, -0.00, -0.00, -4.45, -3.45, -0.23, 0.00
2.617353916168213, -3.14, 1.57, 0.96, 0.53, 1.42, -180.00, 90.00, 54.95, 30.31, 81.48, 0.00, -0.00, -0.00, 0.00, -0.00, -0.00, -4.45, -3.45, -0.23, 0.00
2.669351577758789, -3.14, 1.57, 0.96, 0.53, 1.42, -180.00, 90.00, 54.95, 30.31, 81.48, 0.00, -0.00, -0.00, 0.00, -0.00, -0.00, -4.45, -3.45, -0.23, 0.00
2.72286057472229, -3.14, 1.57, 0.96, 0.53, 1.42, -180.00, 90.00, 54.95, 30.31, 81.48, 0.00, -0.00, -0.00, 0.00, -0.00, -0.00, -4.45, -3.45, -0.23, 0.00
2.7768614292144775, -3.14, 1.57, 0.96, 0.53, 1.42, -180.00, 90.00, 54.95, 30.31, 81.48, 0.00, -0.00, -0.00, 0.00, -0.00, -0.00, -4.45, -3.45, -0.23, 0.00
2.834864854812622, -3.14, 1.57, 0.96, 0.53, 1.42, -180.00, 90.00, 54.95, 30.31, 81.48, 0.00, -0.00, -0.00, 0.00, -0.00, -0.00, -4.45, -3.45, -0.23, 0.00
2.8948636054992676, -3.14, 1.57, 0.96, 0.53, 1.42, -180.00, 90.00, 54.95, 30.31, 81.48, 0.00, -0.00, -0.00, 0.00, -0.00, -0.00, -4.45, -3.45, -0.23, 0.00
2.9498605728149414, -3.14, 1.57, 0.96, 0.53, 1.42, -180.00, 90.00, 54.95, 30.31, 81.48, 0.00, -0.00, -0.00, 0.00, -0.00, -0.00, -4.45, -3.45, -0.23, 0.00
3.0098636150360107, -3.14, 1.57, 0.96, 0.53, 1.42, -180.00, 90.00, 54.95, 30.31, 81.48, 0.00, -0.00, -0.00, 0.00, -0.00, -0.00, -4.45, -3.45, -0.23, 0.00
3.0738635063171387, -3.14, 1.57, 0.96, 0.53, 1.42, -180.00, 90.00, 54.95, 30.31, 81.48, 0.00, -0.00, -0.00, 0.00, -0.00, -0.00, -4.45, -3.45, -0.23, 0.00
3.1328608989715576, -3.14, 1.57, 0.96, 0.53, 1.42, -180.00, 90.00, 54.95, 30.31, 81.48, 0.00, -0.00, -0.00, 0.00, -0.00, -0.00, -4.45, -3.45, -0.23, 0.00
3.1873764991760254, -3.14, 1.57, 0.96, 0.53, 1.42, -180.00, 90.00, 54.95, 30.31, 81.48, 0.00, -0.00, -0.00, 0.00, -0.00, -0.00, -4.45, -3.45, -0.23, 0.00
3.2404227256774902, -3.14, 1.57, 0.96, 0.53, 1.42, -180.00, 90.00, 54.95, 30.31, 81.48, 0.00, -0.00, -0.00, 0.00, -0.00, -0.00, -4.45, -3.45, -0.23, 0.00
3.2920002937316895, -3.14, 1.57, 0.96, 0.53, 1.42, -180.00, 90.00, 54.95, 30.31, 81.48, 0.00, -0.00, -0.00, 0.00, -0.00, -0.00, -4.45, -3.45, -0.23, 0.00
3.341701030731201, -3.14, 1.57, 0.96, 0.53, 1.42, -180.00, 90.00, 54.95, 30.31, 81.48, 0.00, -0.00, -0.00, 0.00, -0.00, -0.00, -4.45, -3.45, -0.23, 0.00
3.4038193225860596, -3.14, 1.57, 0.96, 0.53, 1.42, -180.00, 90.00, 54.95, 30.31, 81.48, 0.00, -0.00, -0.00, 0.00, -0.00, -0.00, -4.45, -3.45, -0.23, 0.00
3.459817886352539, -3.14, 1.57, 0.96, 0.53, 1.42, -180.00, 90.00, 54.95, 30.31, 81.48, 0.00, -0.00, -0.00, 0.00, -0.00, -0.00, -4.45, -3.45, -0.23, 0.00
3.513212203979492, -3.14, 1.57, 0.96, 0.53, 1.42, -180.00, 90.00, 54.95, 30.31, 81.48, 0.00, -0.00, -0.00, 0.00, -0.00, -0.00, -4.45, -3.45, -0.23, 0.00
3.5708494186401367, -3.14, 1.57, 0.96, 0.53, 1.42, -180.00, 90.00, 54.95, 30.31, 81.48, 0.00, -0.00, -0.00, 0.00, -0.00, -0.00, -4.45, -3.45, -0.23, 0.00
3.621675491333008, -3.14, 1.57, 0.96, 0.53, 1.42, -180.00, 90.00, 54.95, 30.31, 81.48, 0.00, -0.00, -0.00, 0.00, -0.00, -0.00, -4.45, -3.45, -0.23, 0.00
3.6756646633148193, -3.14, 1.57, 0.96, 0.53, 1.42, -180.00, 90.00, 54.95, 30.31, 81.48, 0.00, -0.00, -0.00, 0.00, -0.00, -0.00, -4.45, -3.45, -0.23, 0.00
3.7336645126342773, -3.14, 1.57, 0.96, 0.53, 1.42, -180.00, 90.00, 54.95, 30.31, 81.48, 0.00, -0.00, -0.00, 0.00, -0.00, -0.00, -4.45, -3.45, -0.23, 0.00
3.783184051513672, -3.14, 1.57, 0.96, 0.53, 1.42, -180.00, 90.00, 54.95, 30.31, 81.48, 0.00, -0.00, -0.00, 0.00, -0.00, -0.00, -4.45, -3.45, -0.23, 0.00
3.843182325363159, -3.14, 1.57, 0.96, 0.53, 1.42, -180.00, 90.00, 54.95, 30.31, 81.48, 0.00, -0.00, -0.00, 0.00, -0.00, -0.00, -4.45, -3.45, -0.23, 0.00
3.90775465965271, -3.14, 1.57, 0.96, 0.53, 1.42, -180.00, 90.00, 54.95, 30.31, 81.48, 0.00, -0.00, -0.00, 0.00, -0.00, -0.00, -4.45, -3.45, -0.23, 0.00
3.968853235244751, -3.14, 1.57, 0.96, 0.53, 1.42, -180.00, 90.00, 54.95, 30.31, 81.48, 0.00, -0.00, -0.00, 0.00, -0.00, -0.00, -4.45, -3.45, -0.23, 0.00
4.019759654998779, -3.14, 1.57, 0.96, 0.53, 1.42, -180.00, 90.00, 54.95, 30.31, 81.48, 0.00, -0.00, -0.00, 0.00, -0.00, -0.00, -4.45, -3.45, -0.23, 0.00
4.06976056098938, -3.14, 1.57, 0.96, 0.53, 1.42, -180.00, 90.00, 54.95, 30.31, 81.48, 0.00, -0.00, -0.00, 0.00, -0.00, -0.00, -4.45, -3.45, -0.23, 0.00
4.124762058258057, -3.14, 1.57, 0.96, 0.53, 1.42, -180.00, 90.00, 54.95, 30.31, 81.48, 0.00, -0.00, -0.00, 0.00, -0.00, -0.00, -4.45, -3.45, -0.23, 0.00
4.1773388385772705, -3.14, 1.57, 0.96, 0.53, 1.42, -180.00, 90.00, 54.95, 30.31, 81.48, 0.00, -0.00, -0.00, 0.00, -0.00, -0.00, -4.45, -3.45, -0.23, 0.00
4.231351375579834, -3.14, 1.57, 0.96, 0.53, 1.42, -180.00, 90.00, 54.95, 30.31, 81.48, 0.00, -0.00, -0.00, 0.00, -0.00, -0.00, -4.45, -3.45, -0.23, 0.00
4.286347389221191, -3.14, 1.57, 0.96, 0.53, 1.42, -180.00, 90.00, 54.95, 30.31, 81.48, 0.00, -0.00, -0.00, 0.00, -0.00, -0.00, -4.45, -3.45, -0.23, 0.00
4.343348741531372, -3.14, 1.57, 0.96, 0.53, 1.42, -180.00, 90.00, 54.95, 30.31, 81.48, 0.00, -0.00, -0.00, 0.00, -0.00, -0.00, -4.45, -3.45, -0.23, 0.00
4.393915891647339, -3.14, 1.57, 0.96, 0.53, 1.42, -180.00, 90.00, 54.95, 30.31, 81.48, 0.00, -0.00, -0.00, 0.00, -0.00, -0.00, -4.45, -3.45, -0.23, 0.00
4.447916507720947, -3.14, 1.57, 0.96, 0.53, 1.42, -180.00, 90.00, 54.95, 30.31, 81.48, 0.00, -0.00, -0.00, 0.00, -0.00, -0.00, -4.45, -3.45, -0.23, 0.00
4.501049995422363, -3.14, 1.57, 0.96, 0.53, 1.42, -180.00, 90.00, 54.95, 30.31, 81.48, 0.00, -0.00, -0.00, 0.00, -0.00, -0.00, -4.45, -3.45, -0.23, 0.00
4.56004524230957, -3.14, 1.57, 0.96, 0.53, 1.42, -180.00, 90.00, 54.95, 30.31, 81.48, 0.00, -0.00, -0.00, 0.00, -0.00, -0.00, -4.45, -3.45, -0.23, 0.00
4.6120452880859375, -3.14, 1.57, 0.96, 0.53, 1.42, -180.00, 90.00, 54.95, 30.31, 81.48, 0.00, -0.00, -0.00, 0.00, -0.00, -0.00, -4.45, -3.45, -0.23, 0.00
4.670567512512207, -3.14, 1.57, 0.96, 0.53, 1.42, -180.00, 90.00, 54.95, 30.31, 81.48, 0.00, -0.00, -0.00, 0.00, -0.00, -0.00, -4.45, -3.45, -0.23, 0.00
4.721566677093506, -3.14, 1.57, 0.96, 0.53, 1.42, -180.00, 90.00, 54.95, 30.31, 81.48, 0.00, -0.00, -0.00, 0.00, -0.00, -0.00, -4.45, -3.45, -0.23, 0.00
4.776565790176392, -3.14, 1.57, 0.96, 0.53, 1.42, -180.00, 90.00, 54.95, 30.31, 81.48, 0.00, -0.00, -0.00, 0.00, -0.00, -0.00, -4.45, -3.45, -0.23, 0.00
4.833077907562256, -3.14, 1.57, 0.96, 0.53, 1.42, -180.00, 90.00, 54.95, 30.31, 81.48, 0.00, -0.00, -0.00, 0.00, -0.00, -0.00, -4.45, -3.45, -0.23, 0.00
4.895079135894775, -3.14, 1.57, 0.96, 0.53, 1.42, -180.00, 90.00, 54.95, 30.31, 81.48, 0.00, -0.00, -0.00, 0.00, -0.00, -0.00, -4.45, -3.45, -0.23, 0.00
4.955083131790161, -3.14, 1.57, 0.96, 0.53, 1.42, -180.00, 90.00, 54.95, 30.31, 81.48, 0.00, -0.00, -0.00, 0.00, -0.00, -0.00, -4.45, -3.45, -0.23, 0.00
5.013091564178467, -3.14, 1.57, 0.96, 0.53, 1.42, -180.00, 90.00, 54.95, 30.31, 81.48, 0.00, -0.00, -0.00, 0.00, -0.00, -0.00, -4.45, -3.45, -0.23, 0.00
5.06809139251709, -3.14, 1.57, 0.96, 0.53, 1.42, -180.00, 90.00, 54.95, 30.31, 81.48, 0.00, -0.00, -0.00, 0.00, -0.00, -0.00, -4.45, -3.45, -0.23, 0.00
5.129091501235962, -3.14, 1.57, 0.96, 0.53, 1.42, -180.00, 90.00, 54.95, 30.31, 81.48, 0.00, -0.00, -0.00, 0.00, -0.00, -0.00, -4.45, -3.45, -0.23, 0.00
5.1850905418396, -3.14, 1.57, 0.96, 0.53, 1.42, -180.00, 90.00, 54.95, 30.31, 81.48, 0.00, -0.00, -0.00, 0.00, -0.00, -0.00, -4.45, -3.45, -0.23, 0.00
5.239092111587524, -3.14, 1.57, 0.96, 0.53, 1.42, -180.00, 90.00, 54.95, 30.31, 81.48, 0.00, -0.00, -0.00, 0.00, -0.00, -0.00, -4.45, -3.45, -0.23, 0.00
5.29209041595459, -3.14, 1.57, 0.96, 0.53, 1.42, -180.00, 90.00, 54.95, 30.31, 81.48, 0.00, -0.00, -0.00, 0.00, -0.00, -0.00, -4.45, -3.45, -0.23, 0.00
5.345090866088867, -3.14, 1.57, 0.96, 0.53, 1.42, -180.00, 90.00, 54.95, 30.31, 81.48, 0.00, -0.00, -0.00, 0.00, -0.00, -0.00, -4.45, -3.45, -0.23, 0.00
5.4000914096832275, -3.14, 1.57, 0.96, 0.53, 1.42, -180.00, 90.00, 54.95, 30.31, 81.48, 0.00, -0.00, -0.00, 0.00, -0.00, -0.00, -4.45, -3.45, -0.23, 0.00
5.4630913734436035, -3.14, 1.57, 0.96, 0.53, 1.42, -180.00, 90.00, 54.95, 30.31, 81.48, 0.00, -0.00, -0.00, 0.00, -0.00, -0.00, -4.45, -3.45, -0.23, 0.00
5.515107154846191, -3.14, 1.57, 0.96, 0.53, 1.42, -180.00, 90.00, 54.95, 30.31, 81.48, 0.00, -0.00, -0.00, 0.00, -0.00, -0.00, -4.45, -3.45, -0.23, 0.00
5.567092180252075, -3.14, 1.57, 0.96, 0.53, 1.42, -180.00, 90.00, 54.95, 30.31, 81.48, 0.00, -0.00, -0.00, 0.00, -0.00, -0.00, -4.45, -3.45, -0.23, 0.00
5.6240904331207275, -3.14, 1.57, 0.96, 0.53, 1.42, -180.00, 90.00, 54.95, 30.31, 81.48, 0.00, -0.00, -0.00, 0.00, -0.00, -0.00, -4.45, -3.45, -0.23, 0.00
5.675070524215698, -3.14, 1.57, 0.96, 0.53, 1.42, -180.00, 90.00, 54.95, 30.31, 81.48, 0.00, -0.00, -0.00, 0.00, -0.00, -0.00, -4.45, -3.45, -0.23, 0.00
5.732070207595825, -3.14, 1.57, 0.96, 0.53, 1.42, -180.00, 90.00, 54.95, 30.31, 81.48, 0.00, -0.00, -0.00, 0.00, -0.00, -0.00, -4.45, -3.45, -0.23, 0.00
5.782585859298706, -3.14, 1.57, 0.96, 0.53, 1.42, -180.00, 90.00, 54.95, 30.31, 81.48, 0.00, -0.00, -0.00, 0.00, -0.00, -0.00, -4.45, -3.45, -0.23, 0.00
5.832828998565674, -3.14, 1.57, 0.96, 0.53, 1.42, -180.00, 90.00, 54.95, 30.31, 81.48, 0.00, -0.00, -0.00, 0.00, -0.00, -0.00, -4.45, -3.45, -0.23, 0.00
5.888827800750732, -3.14, 1.57, 0.96, 0.53, 1.42, -180.00, 90.00, 54.95, 30.31, 81.48, 0.00, -0.00, -0.00, 0.00, -0.00, -0.00, -4.45, -3.45, -0.23, 0.00
5.936826229095459, -3.14, 1.57, 0.96, 0.53, 1.42, -180.00, 90.00, 54.95, 30.31, 81.48, 0.00, -0.00, -0.00, 0.00, -0.00, -0.00, -4.45, -3.45, -0.23, 0.00
5.986828088760376, -3.14, 1.57, 0.96, 0.53, 1.42, -180.00, 90.00, 54.95, 30.31, 81.48, 0.00, -0.00, -0.00, 0.00, -0.00, -0.00, -4.45, -3.45, -0.23, 0.00
6.045831918716431, -3.14, 1.57, 0.96, 0.53, 1.42, -180.00, 90.00, 54.95, 30.31, 81.48, 0.00, -0.00, -0.00, 0.00, -0.00, -0.00, -4.45, -3.45, -0.23, 0.00
6.104806900024414, -3.14, 1.57, 0.96, 0.53, 1.42, -180.00, 90.00, 54.95, 30.31, 81.48, 0.00, -0.00, -0.00, 0.00, -0.00, -0.00, -4.45, -3.45, -0.23, 0.00
6.159987211227417, -3.14, 1.57, 0.96, 0.53, 1.42, -180.00, 90.00, 54.95, 30.31, 81.48, 0.00, -0.00, -0.00, 0.00, -0.00, -0.00, -4.45, -3.45, -0.23, 0.00
6.21835470199585, -3.14, 1.57, 0.96, 0.53, 1.42, -180.00, 90.00, 54.95, 30.31, 81.48, 0.00, -0.00, -0.00, 0.00, -0.00, -0.00, -4.45, -3.45, -0.23, 0.00
6.268353462219238, -3.14, 1.57, 0.96, 0.53, 1.42, -180.00, 90.00, 54.95, 30.31, 81.48, 0.00, -0.00, -0.00, 0.00, -0.00, -0.00, -4.45, -3.45, -0.23, 0.00
6.321449518203735, -3.14, 1.57, 0.96, 0.53, 1.42, -180.00, 90.00, 54.95, 30.31, 81.48, 0.00, -0.00, -0.00, 0.00, -0.00, -0.00, -4.45, -3.45, -0.23, 0.00
6.382452726364136, -3.14, 1.57, 0.96, 0.53, 1.42, -180.00, 90.00, 54.95, 30.31, 81.48, 0.00, -0.00, -0.00, 0.00, -0.00, -0.00, -4.45, -3.45, -0.23, 0.00
6.435448408126831, -3.14, 1.57, 0.96, 0.53, 1.42, -180.00, 90.00, 54.95, 30.31, 81.48, 0.00, -0.00, -0.00, 0.00, -0.00, -0.00, -4.45, -3.45, -0.23, 0.00
6.492487668991089, -3.14, 1.57, 0.96, 0.53, 1.42, -180.00, 90.00, 54.95, 30.31, 81.48, 0.00, -0.00, -0.00, 0.00, -0.00, -0.00, -4.45, -3.45, -0.23, 0.00
6.548483848571777, -3.14, 1.57, 0.96, 0.53, 1.42, -180.00, 90.00, 54.95, 30.31, 81.48, 0.00, -0.00, -0.00, 0.00, -0.00, -0.00, -4.45, -3.45, -0.23, 0.00
6.6092588901519775, -3.14, 1.57, 0.96, 0.53, 1.42, -180.00, 90.00, 54.95, 30.31, 81.48, 0.00, -0.00, -0.00, 0.00, -0.00, -0.00, -4.45, -3.45, -0.23, 0.00
6.674258470535278, -3.14, 1.57, 0.96, 0.53, 1.42, -180.00, 90.00, 54.95, 30.31, 81.48, 0.00, -0.00, -0.00, 0.00, -0.00, -0.00, -4.45, -3.45, -0.23, 0.00
6.726259708404541, -3.14, 1.57, 0.96, 0.53, 1.42, -180.00, 90.00, 54.95, 30.31, 81.48, 0.00, -0.00, -0.00, 0.00, -0.00, -0.00, -4.45, -3.45, -0.23, 0.00
6.7792580127716064, -3.14, 1.57, 0.96, 0.53, 1.42, -180.00, 90.00, 54.95, 30.31, 81.48, 0.00, -0.00, -0.00, 0.00, -0.00, -0.00, -4.45, -3.45, -0.23, 0.00
6.833366870880127, -3.14, 1.57, 0.96, 0.53, 1.42, -180.00, 90.00, 54.95, 30.31, 81.48, 0.00, -0.00, -0.00, 0.00, -0.00, -0.00, -4.45, -3.45, -0.23, 0.00
6.8904547691345215, -3.14, 1.57, 0.96, 0.53, 1.42, -180.00, 90.00, 54.95, 30.31, 81.48, 0.00, -0.00, -0.00, 0.00, -0.00, -0.00, -4.45, -3.45, -0.23, 0.00
6.946655988693237, -3.14, 1.57, 0.96, 0.53, 1.42, -180.00, 90.00, 54.95, 30.31, 81.48, 0.00, -0.00, -0.00, 0.00, -0.00, -0.00, -4.45, -3.45, -0.23, 0.00
6.999657392501831, -3.14, 1.57, 0.96, 0.53, 1.42, -180.00, 90.00, 54.95, 30.31, 81.48, 0.00, -0.00, -0.00, 0.00, -0.00, -0.00, -4.45, -3.45, -0.23, 0.00
7.053656339645386, -3.14, 1.57, 0.96, 0.53, 1.42, -180.00, 90.00, 54.95, 30.31, 81.48, 0.00, -0.00, -0.00, 0.00, -0.00, -0.00, -4.45, -3.45, -0.23, 0.00
7.103187322616577, -3.14, 1.57, 0.96, 0.53, 1.42, -180.00, 90.00, 54.95, 30.31, 81.48, 0.00, -0.00, -0.00, 0.00, -0.00, -0.00, -4.45, -3.45, -0.23, 0.00
7.160187721252441, -3.14, 1.57, 0.96, 0.53, 1.42, -180.00, 90.00, 54.95, 30.31, 81.48, 0.00, -0.00, -0.00, 0.00, -0.00, -0.00, -4.45, -3.45, -0.23, 0.00
7.211188793182373, -3.14, 1.57, 0.96, 0.53, 1.42, -180.00, 90.00, 54.95, 30.31, 81.48, 0.00, -0.00, -0.00, 0.00, -0.00, -0.00, -4.45, -3.45, -0.23, 0.00
7.264187335968018, -3.14, 1.57, 0.96, 0.53, 1.42, -180.00, 90.00, 54.95, 30.31, 81.48, 0.00, -0.00, -0.00, 0.00, -0.00, -0.00, -4.45, -3.45, -0.23, 0.00
7.319189071655273, -3.14, 1.57, 0.96, 0.53, 1.42, -180.00, 90.00, 54.95, 30.31, 81.48, 0.00, -0.00, -0.00, 0.00, -0.00, -0.00, -4.45, -3.45, -0.23, 0.00
7.372188329696655, -3.14, 1.57, 0.96, 0.53, 1.42, -180.00, 90.00, 54.95, 30.31, 81.48, 0.00, -0.00, -0.00, 0.00, -0.00, -0.00, -4.45, -3.45, -0.23, 0.00
7.422187805175781, -3.14, 1.57, 0.96, 0.53, 1.42, -180.00, 90.00, 54.95, 30.31, 81.48, 0.00, -0.00, -0.00, 0.00, -0.00, -0.00, -4.45, -3.45, -0.23, 0.00
7.483188152313232, -3.14, 1.57, 0.96, 0.53, 1.42, -180.00, 90.00, 54.95, 30.31, 81.48, 0.00, -0.00, -0.00, 0.00, -0.00, -0.00, -4.45, -3.45, -0.23, 0.00
7.533188581466675, -3.14, 1.57, 0.96, 0.53, 1.42, -180.00, 90.00, 54.95, 30.31, 81.48, 0.00, -0.00, -0.00, 0.00, -0.00, -0.00, -4.45, -3.45, -0.23, 0.00
7.59470272064209, -3.14, 1.57, 0.96, 0.53, 1.42, -180.00, 90.00, 54.95, 30.31, 81.48, 0.00, -0.00, -0.00, 0.00, -0.00, -0.00, -4.45, -3.45, -0.23, 0.00
7.653488874435425, -3.14, 1.57, 0.96, 0.53, 1.42, -180.00, 90.00, 54.95, 30.31, 81.48, 0.00, -0.00, -0.00, 0.00, -0.00, -0.00, -4.45, -3.45, -0.23, 0.00
7.7111217975616455, -3.14, 1.57, 0.96, 0.53, 1.42, -180.00, 90.00, 54.95, 30.31, 81.48, 0.00, -0.00, -0.00, 0.00, -0.00, -0.00, -4.45, -3.45, -0.23, 0.00
7.767121076583862, -3.14, 1.57, 0.96, 0.53, 1.42, -180.00, 90.00, 54.95, 30.31, 81.48, 0.00, -0.00, -0.00, 0.00, -0.00, -0.00, -4.45, -3.45, -0.23, 0.00
7.818119764328003, -3.14, 1.57, 0.96, 0.53, 1.42, -180.00, 90.00, 54.95, 30.31, 81.48, 0.00, -0.00, -0.00, 0.00, -0.00, -0.00, -4.45, -3.45, -0.23, 0.00
7.868120908737183, -3.14, 1.57, 0.96, 0.53, 1.42, -180.00, 90.00, 54.95, 30.31, 81.48, 0.00, -0.00, -0.00, 0.00, -0.00, -0.00, -4.45, -3.45, -0.23, 0.00
7.923763275146484, -3.14, 1.57, 0.96, 0.53, 1.42, -180.00, 90.00, 54.95, 30.31, 81.48, 0.00, -0.00, -0.00, 0.00, -0.00, -0.00, -4.45, -3.45, -0.23, 0.00
7.977602243423462, -3.14, 1.57, 0.96, 0.53, 1.42, -180.00, 90.00, 54.95, 30.31, 81.48, 0.00, -0.00, -0.00, 0.00, -0.00, -0.00, -4.45, -3.45, -0.23, 0.00
8.027430534362793, -3.14, 1.57, 0.96, 0.53, 1.42, -180.00, 90.00, 54.95, 30.31, 81.48, 0.00, -0.00, -0.00, 0.00, -0.00, -0.00, -4.45, -3.45, -0.23, 0.00
8.086432695388794, -3.14, 1.57, 0.96, 0.53, 1.42, -180.00, 90.00, 54.95, 30.31, 81.48, 0.00, -0.00, -0.00, 0.00, -0.00, -0.00, -4.45, -3.45, -0.23, 0.00
8.142431020736694, -3.14, 1.57, 0.96, 0.53, 1.42, -180.00, 90.00, 54.95, 30.31, 81.48, 0.00, -0.00, -0.00, 0.00, -0.00, -0.00, -4.45, -3.45, -0.23, 0.00
8.193431377410889, -3.14, 1.57, 0.96, 0.53, 1.42, -180.00, 90.00, 54.95, 30.31, 81.48, 0.00, -0.00, -0.00, 0.00, -0.00, -0.00, -4.45, -3.45, -0.23, 0.00
8.25343132019043, -3.14, 1.57, 0.96, 0.53, 1.42, -180.00, 90.00, 54.95, 30.31, 81.48, 0.00, -0.00, -0.00, 0.00, -0.00, -0.00, -4.45, -3.45, -0.23, 0.00
8.312192916870117, -3.14, 1.57, 0.96, 0.53, 1.42, -180.00, 90.00, 54.95, 30.31, 81.48, 0.00, -0.00, -0.00, 0.00, -0.00, -0.00, -4.45, -3.45, -0.23, 0.00
8.369071960449219, -3.14, 1.57, 0.96, 0.53, 1.42, -180.00, 90.00, 54.95, 30.31, 81.48, 0.00, -0.00, -0.00, 0.00, -0.00, -0.00, -4.45, -3.45, -0.23, 0.00
8.437230587005615, -3.14, 1.57, 0.96, 0.53, 1.42, -180.00, 90.00, 54.95, 30.31, 81.48, 0.00, -0.00, -0.00, 0.00, -0.00, -0.00, -4.45, -3.45, -0.23, 0.00
8.487730264663696, -3.14, 1.57, 0.96, 0.53, 1.42, -180.00, 90.00, 54.95, 30.31, 81.48, 0.00, -0.00, -0.00, 0.00, -0.00, -0.00, -4.45, -3.45, -0.23, 0.00
8.536731243133545, -3.14, 1.57, 0.96, 0.53, 1.42, -180.00, 90.00, 54.95, 30.31, 81.48, 0.00, -0.00, -0.00, 0.00, -0.00, -0.00, -4.45, -3.45, -0.23, 0.00
8.586731433868408, -3.14, 1.57, 0.96, 0.53, 1.42, -180.00, 90.00, 54.95, 30.31, 81.48, 0.00, -0.00, -0.00, 0.00, -0.00, -0.00, -4.45, -3.45, -0.23, 0.00
8.636029481887817, -3.14, 1.57, 0.96, 0.53, 1.42, -180.00, 90.00, 54.95, 30.31, 81.48, 0.00, -0.00, -0.00, 0.00, -0.00, -0.00, -4.45, -3.45, -0.23, 0.00
8.689028024673462, -3.14, 1.57, 0.96, 0.53, 1.42, -180.00, 90.00, 54.95, 30.31, 81.48, 0.00, -0.00, -0.00, 0.00, -0.00, -0.00, -4.45, -3.45, -0.23, 0.00
8.742028713226318, -3.14, 1.57, 0.96, 0.53, 1.42, -180.00, 90.00, 54.95, 30.31, 81.48, 0.00, -0.00, -0.00, 0.00, -0.00, -0.00, -4.45, -3.45, -0.23, 0.00
8.799026727676392, -3.14, 1.57, 0.96, 0.53, 1.42, -180.00, 90.00, 54.95, 30.31, 81.48, 0.00, -0.00, -0.00, 0.00, -0.00, -0.00, -4.45, -3.45, -0.23, 0.00
8.851031064987183, -3.14, 1.57, 0.96, 0.53, 1.42, -180.00, 90.00, 54.95, 30.31, 81.48, 0.00, -0.00, -0.00, 0.00, -0.00, -0.00, -4.45, -3.45, -0.23, 0.00
8.90547490119934, -3.14, 1.57, 0.96, 0.53, 1.42, -180.00, 90.00, 54.95, 30.31, 81.48, 0.00, -0.00, -0.00, 0.00, -0.00, -0.00, -4.45, -3.45, -0.23, 0.00
8.960473537445068, -3.14, 1.57, 0.96, 0.53, 1.42, -180.00, 90.00, 54.95, 30.31, 81.48, 0.00, -0.00, -0.00, 0.00, -0.00, -0.00, -4.45, -3.45, -0.23, 0.00
9.020029783248901, -3.14, 1.57, 0.96, 0.53, 1.42, -180.00, 90.00, 54.95, 30.31, 81.48, 0.00, -0.00, -0.00, 0.00, -0.00, -0.00, -4.45, -3.45, -0.23, 0.00
9.080828189849854, -3.14, 1.57, 0.96, 0.53, 1.42, -180.00, 90.00, 54.95, 30.31, 81.48, 0.00, -0.00, -0.00, 0.00, -0.00, -0.00, -4.45, -3.45, -0.23, 0.00
9.133826732635498, -3.14, 1.57, 0.96, 0.53, 1.42, -180.00, 90.00, 54.95, 30.31, 81.48, 0.00, -0.00, -0.00, 0.00, -0.00, -0.00, -4.45, -3.45, -0.23, 0.00
9.18282675743103, -3.14, 1.57, 0.96, 0.53, 1.42, -180.00, 90.00, 54.95, 30.31, 81.48, 0.00, -0.00, -0.00, 0.00, -0.00, -0.00, -4.45, -3.45, -0.23, 0.00
9.232146501541138, -3.14, 1.57, 0.96, 0.53, 1.42, -180.00, 90.00, 54.95, 30.31, 81.48, 0.00, -0.00, -0.00, 0.00, -0.00, -0.00, -4.45, -3.45, -0.23, 0.00
9.282135248184204, -3.14, 1.57, 0.96, 0.53, 1.42, -180.00, 90.00, 54.95, 30.31, 81.48, 0.00, -0.00, -0.00, 0.00, -0.00, -0.00, -4.45, -3.45, -0.23, 0.00
9.332135200500488, -3.14, 1.57, 0.96, 0.53, 1.42, -180.00, 90.00, 54.95, 30.31, 81.48, 0.00, -0.00, -0.00, 0.00, -0.00, -0.00, -4.45, -3.45, -0.23, 0.00
9.381089687347412, -3.14, 1.57, 0.96, 0.53, 1.42, -180.00, 90.00, 54.95, 30.31, 81.48, 0.00, -0.00, -0.00, 0.00, -0.00, -0.00, -4.45, -3.45, -0.23, 0.00
9.430947542190552, -3.14, 1.57, 0.96, 0.53, 1.42, -180.00, 90.00, 54.95, 30.31, 81.48, 0.00, -0.00, -0.00, 0.00, -0.00, -0.00, -4.45, -3.45, -0.23, 0.00
9.485947608947754, -3.14, 1.57, 0.96, 0.53, 1.42, -180.00, 90.00, 54.95, 30.31, 81.48, 0.00, -0.00, -0.00, 0.00, -0.00, -0.00, -4.45, -3.45, -0.23, 0.00
9.538948059082031, -3.14, 1.57, 0.96, 0.53, 1.42, -180.00, 90.00, 54.95, 30.31, 81.48, 0.00, -0.00, -0.00, 0.00, -0.00, -0.00, -4.45, -3.45, -0.23, 0.00
9.592950582504272, -3.14, 1.57, 0.96, 0.53, 1.42, -180.00, 90.00, 54.95, 30.31, 81.48, 0.00, -0.00, -0.00, 0.00, -0.00, -0.00, -4.45, -3.45, -0.23, 0.00
9.644947528839111, -3.14, 1.57, 0.96, 0.53, 1.42, -180.00, 90.00, 54.95, 30.31, 81.48, 0.00, -0.00, -0.00, 0.00, -0.00, -0.00, -4.45, -3.45, -0.23, 0.00
9.701947450637817, -3.14, 1.57, 0.96, 0.53, 1.42, -180.00, 90.00, 54.95, 30.31, 81.48, 0.00, -0.00, -0.00, 0.00, -0.00, -0.00, -4.45, -3.45, -0.23, 0.00
9.753947734832764, -3.14, 1.57, 0.96, 0.53, 1.42, -180.00, 90.00, 54.95, 30.31, 81.48, 0.00, -0.00, -0.00, 0.00, -0.00, -0.00, -4.45, -3.45, -0.23, 0.00
9.803947448730469, -3.14, 1.57, 0.96, 0.53, 1.42, -180.00, 90.00, 54.95, 30.31, 81.48, 0.00, -0.00, -0.00, 0.00, -0.00, -0.00, -4.45, -3.45, -0.23, 0.00
9.872950315475464, -3.14, 1.57, 0.96, 0.53, 1.42, -180.00, 90.00, 54.95, 30.31, 81.48, 0.00, -0.00, -0.00, 0.00, -0.00, -0.00, -4.45, -3.45, -0.23, 0.00
9.925947666168213, -3.14, 1.57, 0.96, 0.53, 1.42, -180.00, 90.00, 54.95, 30.31, 81.48, 0.00, -0.00, -0.00, 0.00, -0.00, -0.00, -4.45, -3.45, -0.23, 0.00
9.978948593139648, -3.14, 1.57, 0.96, 0.53, 1.42, -180.00, 90.00, 54.95, 30.31, 81.48, 0.00, -0.00, -0.00, 0.00, -0.00, -0.00, -4.45, -3.45, -0.23, 0.00
10.032947778701782, -3.14, 1.57, 0.96, 0.53, 1.42, -180.00, 90.00, 54.95, 30.31, 81.48, 0.00, -0.00, -0.00, 0.00, -0.00, -0.00, -4.45, -3.45, -0.23, 0.00
10.081946849822998, -3.14, 1.57, 0.96, 0.53, 1.42, -180.00, 90.00, 54.95, 30.31, 81.48, 0.00, -0.00, -0.00, 0.00, -0.00, -0.00, -4.45, -3.45, -0.23, 0.00
10.131948471069336, -3.14, 1.57, 0.96, 0.53, 1.42, -180.00, 90.00, 54.95, 30.31, 81.48, 0.00, -0.00, -0.00, 0.00, -0.00, -0.00, -4.45, -3.45, -0.23, 0.00
10.18494725227356, -3.14, 1.57, 0.96, 0.53, 1.42, -180.00, 90.00, 54.95, 30.31, 81.48, 0.00, -0.00, -0.00, 0.00, -0.00, -0.00, -4.45, -3.45, -0.23, 0.00
10.243652105331421, -3.14, 1.57, 0.96, 0.53, 1.42, -180.00, 90.00, 54.95, 30.31, 81.48, 0.00, -0.00, -0.00, 0.00, -0.00, -0.00, -4.45, -3.45, -0.23, 0.00
10.296937704086304, -3.14, 1.57, 0.96, 0.53, 1.42, -180.00, 90.00, 54.95, 30.31, 81.48, 0.00, -0.00, -0.00, 0.00, -0.00, -0.00, -4.45, -3.45, -0.23, 0.00
10.354937553405762, -3.14, 1.57, 0.96, 0.53, 1.42, -180.00, 90.00, 54.95, 30.31, 81.48, 0.00, -0.00, -0.00, 0.00, -0.00, -0.00, -4.45, -3.45, -0.23, 0.00
10.408517360687256, -3.14, 1.57, 0.96, 0.53, 1.42, -180.00, 90.00, 54.95, 30.31, 81.48, 0.00, -0.00, -0.00, 0.00, -0.00, -0.00, -4.45, -3.45, -0.23, 0.00
10.465516567230225, -3.14, 1.57, 0.96, 0.53, 1.42, -180.00, 90.00, 54.95, 30.31, 81.48, 0.00, -0.00, -0.00, 0.00, -0.00, -0.00, -4.45, -3.45, -0.23, 0.00
10.525045156478882, -3.14, 1.57, 0.96, 0.53, 1.42, -180.00, 90.00, 54.95, 30.31, 81.48, 0.00, -0.00, -0.00, 0.00, -0.00, -0.00, -4.45, -3.45, -0.23, 0.00
10.586840152740479, -3.14, 1.57, 0.96, 0.53, 1.42, -180.00, 90.00, 54.95, 30.31, 81.48, 0.00, -0.00, -0.00, 0.00, -0.00, -0.00, -4.45, -3.45, -0.23, 0.00
10.645353078842163, -3.14, 1.57, 0.96, 0.53, 1.42, -180.00, 90.00, 54.95, 30.31, 81.48, 0.00, -0.00, -0.00, 0.00, -0.00, -0.00, -4.45, -3.45, -0.23, 0.00
10.704436779022217, -3.14, 1.57, 0.96, 0.53, 1.42, -180.00, 90.00, 54.95, 30.31, 81.48, 0.00, -0.00, -0.00, 0.00, -0.00, -0.00, -4.45, -3.45, -0.23, 0.00
10.75795602798462, -3.14, 1.57, 0.96, 0.53, 1.42, -180.00, 90.00, 54.95, 30.31, 81.48, 0.00, -0.00, -0.00, 0.00, -0.00, -0.00, -4.45, -3.45, -0.23, 0.00
10.806956052780151, -3.14, 1.57, 0.96, 0.53, 1.42, -180.00, 90.00, 54.95, 30.31, 81.48, 0.00, -0.00, -0.00, 0.00, -0.00, -0.00, -4.45, -3.45, -0.23, 0.00
10.867956399917603, -3.14, 1.57, 0.96, 0.53, 1.42, -180.00, 90.00, 54.95, 30.31, 81.48, 0.00, -0.00, -0.00, 0.00, -0.00, -0.00, -4.45, -3.45, -0.23, 0.00
10.926957845687866, -3.14, 1.57, 0.96, 0.53, 1.42, -180.00, 90.00, 54.95, 30.31, 81.48, 0.00, -0.00, -0.00, 0.00, -0.00, -0.00, -4.45, -3.45, -0.23, 0.00
10.977473735809326, -3.14, 1.57, 0.96, 0.53, 1.42, -180.00, 90.00, 54.95, 30.31, 81.48, 0.00, -0.00, -0.00, 0.00, -0.00, -0.00, -4.45, -3.45, -0.23, 0.00
11.033474445343018, -3.14, 1.57, 0.96, 0.53, 1.42, -180.00, 90.00, 54.95, 30.31, 81.48, 0.00, -0.00, -0.00, 0.00, -0.00, -0.00, -4.45, -3.45, -0.23, 0.00
11.08699345588684, -3.14, 1.57, 0.96, 0.53, 1.42, -180.00, 90.00, 54.95, 30.31, 81.48, 0.00, -0.00, -0.00, 0.00, -0.00, -0.00, -4.45, -3.45, -0.23, 0.00
11.142510652542114, -3.14, 1.57, 0.96, 0.53, 1.42, -180.00, 90.00, 54.95, 30.31, 81.48, 0.00, -0.00, -0.00, 0.00, -0.00, -0.00, -4.45, -3.45, -0.23, 0.00
11.198509693145752, -3.14, 1.57, 0.96, 0.53, 1.42, -180.00, 90.00, 54.95, 30.31, 81.48, 0.00, -0.00, -0.00, 0.00, -0.00, -0.00, -4.45, -3.45, -0.23, 0.00
11.252509117126465, -3.14, 1.57, 0.96, 0.53, 1.42, -180.00, 90.00, 54.95, 30.31, 81.48, 0.00, -0.00, -0.00, 0.00, -0.00, -0.00, -4.45, -3.45, -0.23, 0.00
11.300509929656982, -3.14, 1.57, 0.96, 0.53, 1.42, -180.00, 90.00, 54.95, 30.31, 81.48, 0.00, -0.00, -0.00, 0.00, -0.00, -0.00, -4.45, -3.45, -0.23, 0.00
11.355270624160767, -3.14, 1.57, 0.96, 0.53, 1.42, -180.00, 90.00, 54.95, 30.31, 81.48, 0.00, -0.00, -0.00, 0.00, -0.00, -0.00, -4.45, -3.45, -0.23, 0.00
11.411268472671509, -3.14, 1.57, 0.96, 0.53, 1.42, -180.00, 90.00, 54.95, 30.31, 81.48, 0.00, -0.00, -0.00, 0.00, -0.00, -0.00, -4.45, -3.45, -0.23, 0.00
11.471269369125366, -3.14, 1.57, 0.96, 0.53, 1.42, -180.00, 90.00, 54.95, 30.31, 81.48, 0.00, -0.00, -0.00, 0.00, -0.00, -0.00, -4.45, -3.45, -0.23, 0.00
11.522268295288086, -3.14, 1.57, 0.96, 0.53, 1.42, -180.00, 90.00, 54.95, 30.31, 81.48, 0.00, -0.00, -0.00, 0.00, -0.00, -0.00, -4.45, -3.45, -0.23, 0.00
11.58011770248413, -3.14, 1.57, 0.96, 0.53, 1.42, -180.00, 90.00, 54.95, 30.31, 81.48, 0.00, -0.00, -0.00, 0.00, -0.00, -0.00, -4.45, -3.45, -0.23, 0.00
11.635116338729858, -3.14, 1.57, 0.96, 0.53, 1.42, -180.00, 90.00, 54.95, 30.31, 81.48, 0.00, -0.00, -0.00, 0.00, -0.00, -0.00, -4.45, -3.45, -0.23, 0.00
11.690115451812744, -3.14, 1.57, 0.96, 0.53, 1.42, -180.00, 90.00, 54.95, 30.31, 81.48, 0.00, -0.00, -0.00, 0.00, -0.00, -0.00, -4.45, -3.45, -0.23, 0.00
11.742908477783203, -3.14, 1.57, 0.96, 0.53, 1.42, -180.00, 90.00, 54.95, 30.31, 81.48, 0.00, -0.00, -0.00, 0.00, -0.00, -0.00, -4.45, -3.45, -0.23, 0.00
11.804425954818726, -3.14, 1.57, 0.96, 0.53, 1.42, -180.00, 90.00, 54.95, 30.31, 81.48, 0.00, -0.00, -0.00, 0.00, -0.00, -0.00, -4.45, -3.45, -0.23, 0.00
11.853422403335571, -3.14, 1.57, 0.96, 0.53, 1.42, -180.00, 90.00, 54.95, 30.31, 81.48, 0.00, -0.00, -0.00, 0.00, -0.00, -0.00, -4.45, -3.45, -0.23, 0.00
11.909509420394897, -3.14, 1.57, 0.96, 0.53, 1.42, -180.00, 90.00, 54.95, 30.31, 81.48, 0.00, -0.00, -0.00, 0.00, -0.00, -0.00, -4.45, -3.45, -0.23, 0.00
11.966500282287598, -3.14, 1.57, 0.96, 0.53, 1.42, -180.00, 90.00, 54.95, 30.31, 81.48, 0.00, -0.00, -0.00, 0.00, -0.00, -0.00, -4.45, -3.45, -0.23, 0.00
12.0162935256958, -3.14, 1.57, 0.96, 0.53, 1.42, -180.00, 90.00, 54.95, 30.31, 81.48, 0.00, -0.00, -0.00, 0.00, -0.00, -0.00, -4.45, -3.45, -0.23, 0.00
12.068276643753052, -3.14, 1.57, 0.96, 0.53, 1.42, -180.00, 90.00, 54.95, 30.31, 81.48, 0.00, -0.00, -0.00, 0.00, -0.00, -0.00, -4.45, -3.45, -0.23, 0.00
12.129319429397583, -3.14, 1.57, 0.96, 0.53, 1.42, -180.00, 90.00, 54.95, 30.31, 81.48, 0.00, -0.00, -0.00, 0.00, -0.00, -0.00, -4.45, -3.45, -0.23, 0.00
12.18432092666626, -3.14, 1.57, 0.96, 0.53, 1.42, -180.00, 90.00, 54.95, 30.31, 81.48, 0.00, -0.00, -0.00, 0.00, -0.00, -0.00, -4.45, -3.45, -0.23, 0.00
12.233319759368896, -3.14, 1.57, 0.96, 0.53, 1.42, -180.00, 90.00, 54.95, 30.31, 81.48, 0.00, -0.00, -0.00, 0.00, -0.00, -0.00, -4.45, -3.45, -0.23, 0.00
12.284320592880249, -3.14, 1.57, 0.96, 0.53, 1.42, -180.00, 90.00, 54.95, 30.31, 81.48, 0.00, -0.00, -0.00, 0.00, -0.00, -0.00, -4.45, -3.45, -0.23, 0.00
12.337319374084473, -3.14, 1.57, 0.96, 0.53, 1.42, -180.00, 90.00, 54.95, 30.31, 81.48, 0.00, -0.00, -0.00, 0.00, -0.00, -0.00, -4.45, -3.45, -0.23, 0.00
12.390318632125854, -3.14, 1.57, 0.96, 0.53, 1.42, -180.00, 90.00, 54.95, 30.31, 81.48, 0.00, -0.00, -0.00, 0.00, -0.00, -0.00, -4.45, -3.45, -0.23, 0.00
12.445318937301636, -3.14, 1.57, 0.96, 0.53, 1.42, -180.00, 90.00, 54.95, 30.31, 81.48, 0.00, -0.00, -0.00, 0.00, -0.00, -0.00, -4.45, -3.45, -0.23, 0.00
12.504318952560425, -3.14, 1.57, 0.96, 0.53, 1.42, -180.00, 90.00, 54.95, 30.31, 81.48, 0.00, -0.00, -0.00, 0.00, -0.00, -0.00, -4.45, -3.45, -0.23, 0.00
12.562387228012085, -3.14, 1.57, 0.96, 0.53, 1.42, -180.00, 90.00, 54.95, 30.31, 81.48, 0.00, -0.00, -0.00, 0.00, -0.00, -0.00, -4.45, -3.45, -0.23, 0.00
12.621391534805298, -3.14, 1.57, 0.96, 0.53, 1.42, -180.00, 90.00, 54.95, 30.31, 81.48, 0.00, -0.00, -0.00, 0.00, -0.00, -0.00, -4.45, -3.45, -0.23, 0.00
12.673386812210083, -3.14, 1.57, 0.96, 0.53, 1.42, -180.00, 90.00, 54.95, 30.31, 81.48, 0.00, -0.00, -0.00, 0.00, -0.00, -0.00, -4.45, -3.45, -0.23, 0.00
12.728909254074097, -3.14, 1.57, 0.96, 0.53, 1.42, -180.00, 90.00, 54.95, 30.31, 81.48, 0.00, -0.00, -0.00, 0.00, -0.00, -0.00, -4.45, -3.45, -0.23, 0.00
12.785923957824707, -3.14, 1.57, 0.96, 0.53, 1.42, -180.00, 90.00, 54.95, 30.31, 81.48, 0.00, -0.00, -0.00, 0.00, -0.00, -0.00, -4.45, -3.45, -0.23, 0.00
12.84572720527649, -3.14, 1.57, 0.96, 0.53, 1.42, -180.00, 90.00, 54.95, 30.31, 81.48, 0.00, -0.00, -0.00, 0.00, -0.00, -0.00, -4.45, -3.45, -0.23, 0.00
12.902025938034058, -3.14, 1.57, 0.96, 0.53, 1.42, -180.00, 90.00, 54.95, 30.31, 81.48, 0.00, -0.00, -0.00, 0.00, -0.00, -0.00, -4.45, -3.45, -0.23, 0.00
12.95838975906372, -3.14, 1.57, 0.96, 0.53, 1.42, -180.00, 90.00, 54.95, 30.31, 81.48, 0.00, -0.00, -0.00, 0.00, -0.00, -0.00, -4.45, -3.45, -0.23, 0.00
13.021391868591309, -3.14, 1.57, 0.96, 0.53, 1.42, -180.00, 90.00, 54.95, 30.31, 81.48, 0.00, -0.00, -0.00, 0.00, -0.00, -0.00, -4.45, -3.45, -0.23, 0.00
13.074389934539795, -3.14, 1.57, 0.96, 0.53, 1.42, -180.00, 90.00, 54.95, 30.31, 81.48, 0.00, -0.00, -0.00, 0.00, -0.00, -0.00, -4.45, -3.45, -0.23, 0.00
13.124390602111816, -3.14, 1.57, 0.96, 0.53, 1.42, -180.00, 90.00, 54.95, 30.31, 81.48, 0.00, -0.00, -0.00, 0.00, -0.00, -0.00, -4.45, -3.45, -0.23, 0.00
13.174392461776733, -3.14, 1.57, 0.96, 0.53, 1.42, -180.00, 90.00, 54.95, 30.31, 81.48, 0.00, -0.00, -0.00, 0.00, -0.00, -0.00, -4.45, -3.45, -0.23, 0.00
13.227391958236694, -3.14, 1.57, 0.96, 0.53, 1.42, -180.00, 90.00, 54.95, 30.31, 81.48, 0.00, -0.00, -0.00, 0.00, -0.00, -0.00, -4.45, -3.45, -0.23, 0.00
13.280390977859497, -3.14, 1.57, 0.96, 0.53, 1.42, -180.00, 90.00, 54.95, 30.31, 81.48, 0.00, -0.00, -0.00, 0.00, -0.00, -0.00, -4.45, -3.45, -0.23, 0.00
13.333390235900879, -3.14, 1.57, 0.96, 0.53, 1.42, -180.00, 90.00, 54.95, 30.31, 81.48, 0.00, -0.00, -0.00, 0.00, -0.00, -0.00, -4.45, -3.45, -0.23, 0.00
13.386390686035156, -3.14, 1.57, 0.96, 0.53, 1.42, -180.00, 90.00, 54.95, 30.31, 81.48, 0.00, -0.00, -0.00, 0.00, -0.00, -0.00, -4.45, -3.45, -0.23, 0.00
13.437390327453613, -3.14, 1.57, 0.96, 0.53, 1.42, -180.00, 90.00, 54.95, 30.31, 81.48, 0.00, -0.00, -0.00, 0.00, -0.00, -0.00, -4.45, -3.45, -0.23, 0.00
13.49039101600647, -3.14, 1.57, 0.96, 0.53, 1.42, -180.00, 90.00, 54.95, 30.31, 81.48, 0.00, -0.00, -0.00, 0.00, -0.00, -0.00, -4.45, -3.45, -0.23, 0.00
13.548492670059204, -3.14, 1.57, 0.96, 0.53, 1.42, -180.00, 90.00, 54.95, 30.31, 81.48, 0.00, -0.00, -0.00, 0.00, -0.00, -0.00, -4.45, -3.45, -0.23, 0.00
13.600495338439941, -3.14, 1.57, 0.96, 0.53, 1.42, -180.00, 90.00, 54.95, 30.31, 81.48, 0.00, -0.00, -0.00, 0.00, -0.00, -0.00, -4.45, -3.45, -0.23, 0.00
13.65649127960205, -3.14, 1.57, 0.96, 0.53, 1.42, -180.00, 90.00, 54.95, 30.31, 81.48, 0.00, -0.00, -0.00, 0.00, -0.00, -0.00, -4.45, -3.45, -0.23, 0.00
13.708491563796997, -3.14, 1.57, 0.96, 0.53, 1.42, -180.00, 90.00, 54.95, 30.31, 81.48, 0.00, -0.00, -0.00, 0.00, -0.00, -0.00, -4.45, -3.45, -0.23, -0.00
13.762262344360352, -3.14, 1.57, 0.96, 0.53, 1.42, -180.00, 90.00, 54.95, 30.31, 81.48, 0.00, -0.00, -0.00, 0.00, -0.00, -0.00, -4.45, -3.45, -0.23, -0.00
13.813262462615967, -3.14, 1.57, 0.96, 0.53, 1.42, -180.00, 90.00, 54.95, 30.31, 81.48, 0.00, -0.00, -0.00, 0.00, -0.00, -0.00, -4.45, -3.45, -0.23, 0.00
13.86726689338684, -3.14, 1.57, 0.96, 0.53, 1.42, -180.00, 90.00, 54.95, 30.31, 81.48, 0.00, -0.00, -0.00, 0.00, -0.00, -0.00, -4.45, -3.45, -0.23, 0.00
13.920262813568115, -3.14, 1.57, 0.96, 0.53, 1.42, -180.00, 90.00, 54.95, 30.31, 81.48, 0.00, -0.00, -0.00, 0.00, -0.00, -0.00, -4.45, -3.45, -0.23, 0.00
13.97626256942749, -3.14, 1.57, 0.96, 0.53, 1.42, -180.00, 90.00, 54.95, 30.31, 81.48, 0.00, -0.00, -0.00, 0.00, -0.00, -0.00, -4.45, -3.45, -0.23, 0.00
14.032262563705444, -3.14, 1.57, 0.96, 0.53, 1.42, -180.00, 90.00, 54.95, 30.31, 81.48, 0.00, -0.00, -0.00, 0.00, -0.00, -0.00, -4.45, -3.45, -0.23, -0.00
14.086263179779053, -3.14, 1.57, 0.96, 0.53, 1.42, -180.00, 90.00, 54.95, 30.31, 81.48, 0.00, -0.00, -0.00, 0.00, -0.00, -0.00, -4.45, -3.45, -0.23, -0.00
14.13626217842102, -3.14, 1.57, 0.96, 0.53, 1.42, -180.00, 90.00, 54.95, 30.31, 81.48, 0.00, -0.00, -0.00, 0.00, -0.00, -0.00, -4.45, -3.45, -0.23, -0.00
14.186262130737305, -3.14, 1.57, 0.96, 0.53, 1.42, -180.00, 90.00, 54.95, 30.31, 81.48, 0.00, -0.00, -0.00, 0.00, -0.00, -0.00, -4.45, -3.45, -0.23, -0.00
14.244260549545288, -3.14, 1.57, 0.96, 0.53, 1.42, -180.00, 90.00, 54.95, 30.31, 81.48, 0.00, -0.00, -0.00, 0.00, -0.00, -0.00, -4.45, -3.45, -0.23, -0.00
14.303262948989868, -3.14, 1.57, 0.96, 0.53, 1.42, -180.00, 90.00, 54.95, 30.31, 81.48, 0.00, -0.00, -0.00, 0.00, -0.00, -0.00, -4.45, -3.45, -0.23, -0.00
14.355262517929077, -3.14, 1.57, 0.96, 0.53, 1.42, -180.00, 90.00, 54.95, 30.31, 81.48, 0.00, -0.00, -0.00, 0.00, -0.00, -0.00, -4.45, -3.45, -0.23, -0.00
14.414262294769287, -3.14, 1.57, 0.96, 0.53, 1.42, -180.00, 90.00, 54.95, 30.31, 81.48, 0.00, -0.00, -0.00, 0.00, -0.00, -0.00, -4.45, -3.45, -0.23, -0.00
14.467264175415039, -3.14, 1.57, 0.96, 0.53, 1.42, -180.00, 90.00, 54.95, 30.31, 81.48, 0.00, -0.00, -0.00, 0.00, -0.00, -0.00, -4.45, -3.45, -0.23, -0.00
14.522964715957642, -3.14, 1.57, 0.96, 0.53, 1.42, -180.00, 90.00, 54.95, 30.31, 81.48, 0.00, -0.00, -0.00, 0.00, -0.00, -0.00, -4.45, -3.45, -0.23, -0.00
14.579896450042725, -3.14, 1.57, 0.96, 0.53, 1.42, -180.00, 90.00, 54.95, 30.31, 81.48, 0.00, -0.00, -0.00, 0.00, -0.00, -0.00, -4.45, -3.45, -0.23, -0.00
14.63123607635498, -3.14, 1.57, 0.96, 0.53, 1.42, -180.00, 90.00, 54.95, 30.31, 81.48, 0.00, -0.00, -0.00, 0.00, -0.00, -0.00, -4.45, -3.45, -0.23, -0.00
14.68923568725586, -3.14, 1.57, 0.96, 0.53, 1.42, -180.00, 90.00, 54.95, 30.31, 81.48, 0.00, -0.00, -0.00, 0.00, -0.00, -0.00, -4.45, -3.45, -0.23, -0.00
14.743231058120728, -3.14, 1.57, 0.96, 0.53, 1.42, -180.00, 90.00, 54.95, 30.31, 81.48, 0.00, -0.00, -0.00, 0.00, -0.00, -0.00, -4.45, -3.45, -0.23, -0.00
14.800231456756592, -3.14, 1.57, 0.96, 0.53, 1.42, -180.00, 90.00, 54.95, 30.31, 81.48, 0.00, -0.00, -0.00, 0.00, -0.00, -0.00, -4.45, -3.45, -0.23, -0.00
14.852232217788696, -3.14, 1.57, 0.96, 0.53, 1.42, -180.00, 90.00, 54.95, 30.31, 81.48, 0.00, -0.00, -0.00, 0.00, -0.00, -0.00, -4.45, -3.45, -0.23, -0.00
14.91275143623352, -3.14, 1.57, 0.96, 0.53, 1.42, -180.00, 90.00, 54.95, 30.31, 81.48, 0.00, -0.00, -0.00, 0.00, -0.00, -0.00, -4.45, -3.45, -0.23, -0.00
14.962751388549805, -3.14, 1.57, 0.96, 0.53, 1.42, -180.00, 90.00, 54.95, 30.31, 81.48, 0.00, -0.00, -0.00, 0.00, -0.00, -0.00, -4.45, -3.45, -0.23, -0.00
15.017752647399902, -3.14, 1.57, 0.96, 0.53, 1.42, -180.00, 90.00, 54.95, 30.31, 81.48, 0.00, -0.00, -0.00, 0.00, -0.00, -0.00, -4.45, -3.45, -0.23, -0.00
15.072038412094116, -3.14, 1.57, 0.96, 0.53, 1.42, -180.00, 90.00, 54.95, 30.31, 81.48, 0.00, -0.00, -0.00, 0.00, -0.00, -0.00, -4.45, -3.45, -0.23, -0.00
15.125428199768066, -3.14, 1.57, 0.96, 0.53, 1.42, -180.00, 90.00, 54.95, 30.31, 81.48, 0.00, -0.00, -0.00, 0.00, -0.00, -0.00, -4.45, -3.45, -0.23, -0.00
15.182782888412476, -3.14, 1.57, 0.96, 0.53, 1.42, -180.00, 90.00, 54.95, 30.31, 81.48, 0.00, -0.00, -0.00, 0.00, -0.00, -0.00, -4.45, -3.45, -0.23, -0.00
15.23130750656128, -3.14, 1.57, 0.96, 0.53, 1.42, -180.00, 90.00, 54.95, 30.31, 81.48, 0.00, -0.00, -0.00, 0.00, -0.00, -0.00, -4.45, -3.45, -0.23, -0.00
15.280904531478882, -3.14, 1.57, 0.96, 0.53, 1.42, -180.00, 90.00, 54.95, 30.31, 81.48, 0.00, -0.00, -0.00, 0.00, -0.00, -0.00, -4.45, -3.45, -0.23, -0.00
15.333913087844849, -3.14, 1.57, 0.96, 0.53, 1.42, -180.00, 90.00, 54.95, 30.31, 81.48, 0.00, -0.00, -0.00, 0.00, -0.00, -0.00, -4.45, -3.45, -0.23, -0.00
15.394896507263184, -3.14, 1.57, 0.96, 0.53, 1.42, -180.00, 90.00, 54.95, 30.31, 81.48, 0.00, -0.00, -0.00, 0.00, -0.00, -0.00, -4.45, -3.45, -0.23, -0.00
15.455892562866211, -3.14, 1.57, 0.96, 0.53, 1.42, -180.00, 90.00, 54.95, 30.31, 81.48, 0.00, -0.00, -0.00, 0.00, -0.00, -0.00, -4.45, -3.45, -0.23, -0.00
15.506417036056519, -3.14, 1.57, 0.96, 0.53, 1.42, -180.00, 90.00, 54.95, 30.31, 81.48, 0.00, -0.00, -0.00, 0.00, -0.00, -0.00, -4.45, -3.45, -0.23, -0.00
15.556411266326904, -3.14, 1.57, 0.96, 0.53, 1.42, -180.00, 90.00, 54.95, 30.31, 81.48, 0.00, -0.00, -0.00, 0.00, -0.00, -0.00, -4.45, -3.45, -0.23, -0.00
15.605411052703857, -3.14, 1.57, 0.96, 0.53, 1.42, -180.00, 90.00, 54.95, 30.31, 81.48, 0.00, -0.00, -0.00, 0.00, -0.00, -0.00, -4.45, -3.45, -0.23, -0.00
15.654805898666382, -3.14, 1.57, 0.96, 0.53, 1.42, -180.00, 90.00, 54.95, 30.31, 81.48, 0.00, -0.00, -0.00, 0.00, -0.00, -0.00, -4.45, -3.45, -0.23, -0.00
15.705801248550415, -3.14, 1.57, 0.96, 0.53, 1.42, -180.00, 90.00, 54.95, 30.31, 81.48, 0.00, -0.00, -0.00, 0.00, -0.00, -0.00, -4.45, -3.45, -0.23, -0.00
15.755800485610962, -3.14, 1.57, 0.96, 0.53, 1.42, -180.00, 90.00, 54.95, 30.31, 81.48, 0.00, -0.00, -0.00, 0.00, -0.00, -0.00, -4.45, -3.45, -0.23, -0.00
15.804801940917969, -3.14, 1.57, 0.96, 0.53, 1.42, -180.00, 90.00, 54.95, 30.31, 81.48, 0.00, -0.00, -0.00, 0.00, -0.00, -0.00, -4.45, -3.45, -0.23, -0.00
15.864663362503052, -3.14, 1.57, 0.96, 0.53, 1.42, -180.00, 90.00, 54.95, 30.31, 81.48, 0.00, -0.00, -0.00, 0.00, -0.00, -0.00, -4.45, -3.45, -0.23, -0.00
15.926662683486938, -3.14, 1.57, 0.96, 0.53, 1.42, -180.00, 90.00, 54.95, 30.31, 81.48, 0.00, -0.00, -0.00, 0.00, -0.00, -0.00, -4.45, -3.45, -0.23, -0.00
15.979661226272583, -3.14, 1.57, 0.96, 0.53, 1.42, -180.00, 90.00, 54.95, 30.31, 81.48, 0.00, -0.00, -0.00, 0.00, -0.00, -0.00, -4.45, -3.45, -0.23, -0.00
16.029178857803345, -3.14, 1.57, 0.96, 0.53, 1.42, -180.00, 90.00, 54.95, 30.31, 81.48, 0.00, -0.00, -0.00, 0.00, -0.00, -0.00, -4.45, -3.45, -0.23, -0.00
16.083179473876953, -3.14, 1.57, 0.96, 0.53, 1.42, -180.00, 90.00, 54.95, 30.31, 81.48, 0.00, -0.00, -0.00, 0.00, -0.00, -0.00, -4.45, -3.45, -0.23, -0.00
16.13618016242981, -3.14, 1.57, 0.96, 0.53, 1.42, -180.00, 90.00, 54.95, 30.31, 81.48, 0.00, -0.00, -0.00, 0.00, -0.00, -0.00, -4.45, -3.45, -0.23, -0.00
16.189178943634033, -3.14, 1.57, 0.96, 0.53, 1.42, -180.00, 90.00, 54.95, 30.31, 81.48, 0.00, -0.00, -0.00, 0.00, -0.00, -0.00, -4.45, -3.45, -0.23, -0.00
16.23918080329895, -3.14, 1.57, 0.96, 0.53, 1.42, -180.00, 90.00, 54.95, 30.31, 81.48, 0.00, -0.00, -0.00, 0.00, -0.00, -0.00, -4.45, -3.45, -0.23, -0.00
16.291178941726685, -3.14, 1.57, 0.96, 0.53, 1.42, -180.00, 90.00, 54.95, 30.31, 81.48, 0.00, -0.00, -0.00, 0.00, -0.00, -0.00, -4.45, -3.45, -0.23, -0.00
16.34117889404297, -3.14, 1.57, 0.96, 0.53, 1.42, -180.00, 90.00, 54.95, 30.31, 81.48, 0.00, -0.00, -0.00, 0.00, -0.00, -0.00, -4.45, -3.45, -0.23, -0.00
16.390180110931396, -3.14, 1.57, 0.96, 0.53, 1.42, -180.00, 90.00, 54.95, 30.31, 81.48, 0.00, -0.00, -0.00, 0.00, -0.00, -0.00, -4.45, -3.45, -0.23, -0.00
16.44417905807495, -3.14, 1.57, 0.96, 0.53, 1.42, -180.00, 90.00, 54.95, 30.31, 81.48, 0.00, -0.00, -0.00, 0.00, -0.00, -0.00, -4.45, -3.45, -0.23, -0.00
16.503182649612427, -3.14, 1.57, 0.96, 0.53, 1.42, -180.00, 90.00, 54.95, 30.31, 81.48, 0.00, -0.00, -0.00, 0.00, -0.00, -0.00, -4.45, -3.45, -0.23, -0.00
16.55717968940735, -3.14, 1.57, 0.96, 0.53, 1.42, -180.00, 90.00, 54.95, 30.31, 81.48, 0.00, -0.00, -0.00, 0.00, -0.00, -0.00, -4.45, -3.45, -0.23, -0.00
16.612178802490234, -3.14, 1.57, 0.96, 0.53, 1.42, -180.00, 90.00, 54.95, 30.31, 81.48, 0.00, -0.00, -0.00, 0.00, -0.00, -0.00, -4.45, -3.45, -0.23, -0.00
16.66369652748108, -3.14, 1.57, 0.96, 0.53, 1.42, -180.00, 90.00, 54.95, 30.31, 81.48, 0.00, -0.00, -0.00, 0.00, -0.00, -0.00, -4.45, -3.45, -0.23, -0.00
16.71769666671753, -3.14, 1.57, 0.96, 0.53, 1.42, -180.00, 90.00, 54.95, 30.31, 81.48, 0.00, -0.00, -0.00, 0.00, -0.00, -0.00, -4.45, -3.45, -0.23, -0.00
16.77769899368286, -3.14, 1.57, 0.96, 0.53, 1.42, -180.00, 90.00, 54.95, 30.31, 81.48, 0.00, -0.00, -0.00, 0.00, -0.00, -0.00, -4.45, -3.45, -0.23, -0.00
16.83006238937378, -3.14, 1.57, 0.96, 0.53, 1.42, -180.00, 90.00, 54.95, 30.31, 81.48, 0.00, -0.00, -0.00, 0.00, -0.00, -0.00, -4.45, -3.45, -0.23, -0.00
16.882060766220093, -3.14, 1.57, 0.96, 0.53, 1.42, -180.00, 90.00, 54.95, 30.31, 81.48, 0.00, -0.00, -0.00, 0.00, -0.00, -0.00, -4.45, -3.45, -0.23, -0.00
16.933717966079712, -3.14, 1.57, 0.96, 0.53, 1.42, -180.00, 90.00, 54.95, 30.31, 81.48, 0.00, -0.00, -0.00, 0.00, -0.00, -0.00, -4.45, -3.45, -0.23, -0.00
16.984713077545166, -3.14, 1.57, 0.96, 0.53, 1.42, -180.00, 90.00, 54.95, 30.31, 81.48, 0.00, -0.00, -0.00, 0.00, -0.00, -0.00, -4.45, -3.45, -0.23, -0.00
17.03871512413025, -3.14, 1.57, 0.96, 0.53, 1.42, -180.00, 90.00, 54.95, 30.31, 81.48, 0.00, -0.00, -0.00, 0.00, -0.00, -0.00, -4.45, -3.45, -0.23, -0.00
17.088713884353638, -3.14, 1.57, 0.96, 0.53, 1.42, -180.00, 90.00, 54.95, 30.31, 81.48, 0.00, -0.00, -0.00, 0.00, -0.00, -0.00, -4.45, -3.45, -0.23, -0.00
17.143713235855103, -3.14, 1.57, 0.96, 0.53, 1.42, -180.00, 90.00, 54.95, 30.31, 81.48, 0.00, -0.00, -0.00, 0.00, -0.00, -0.00, -4.45, -3.45, -0.23, -0.00
17.20084500312805, -3.14, 1.57, 0.96, 0.53, 1.42, -180.00, 90.00, 54.95, 30.31, 81.48, 0.00, -0.00, -0.00, 0.00, -0.00, -0.00, -4.45, -3.45, -0.23, -0.00
17.261157274246216, -3.14, 1.57, 0.96, 0.53, 1.42, -180.00, 90.00, 54.95, 30.31, 81.48, 0.00, -0.00, -0.00, 0.00, -0.00, -0.00, -4.45, -3.45, -0.23, -0.00
17.318156003952026, -3.14, 1.57, 0.96, 0.53, 1.42, -180.00, 90.00, 54.95, 30.31, 81.48, 0.00, -0.00, -0.00, 0.00, -0.00, -0.00, -4.45, -3.45, -0.23, -0.00
17.378770112991333, -3.14, 1.57, 0.96, 0.53, 1.42, -180.00, 90.00, 54.95, 30.31, 81.48, 0.00, -0.00, -0.00, 0.00, -0.00, -0.00, -4.45, -3.45, -0.23, -0.00
17.429182767868042, -3.14, 1.57, 0.96, 0.53, 1.42, -180.00, 90.00, 54.95, 30.31, 81.48, 0.00, -0.00, -0.00, 0.00, -0.00, -0.00, -4.45, -3.45, -0.23, -0.00
17.477182149887085, -3.14, 1.57, 0.96, 0.53, 1.42, -180.00, 90.00, 54.95, 30.31, 81.48, 0.00, -0.00, -0.00, 0.00, -0.00, -0.00, -4.45, -3.45, -0.23, -0.00
17.52802038192749, -3.14, 1.57, 0.96, 0.53, 1.42, -180.00, 90.00, 54.95, 30.31, 81.48, 0.00, -0.00, -0.00, 0.00, -0.00, -0.00, -4.45, -3.45, -0.23, -0.00
17.577128887176514, -3.14, 1.57, 0.96, 0.53, 1.42, -180.00, 90.00, 54.95, 30.31, 81.48, 0.00, -0.00, -0.00, 0.00, -0.00, -0.00, -4.45, -3.45, -0.23, -0.00
17.634130001068115, -3.14, 1.57, 0.96, 0.53, 1.42, -180.00, 90.00, 54.95, 30.31, 81.48, 0.00, -0.00, -0.00, 0.00, -0.00, -0.00, -4.45, -3.45, -0.23, -0.00
17.683130502700806, -3.14, 1.57, 0.96, 0.53, 1.42, -180.00, 90.00, 54.95, 30.31, 81.48, 0.00, -0.00, -0.00, 0.00, -0.00, -0.00, -4.45, -3.45, -0.23, -0.00
17.73312783241272, -3.14, 1.57, 0.96, 0.53, 1.42, -180.00, 90.00, 54.95, 30.31, 81.48, 0.00, -0.00, -0.00, 0.00, -0.00, -0.00, -4.45, -3.45, -0.23, -0.00
17.787168502807617, -3.14, 1.57, 0.96, 0.53, 1.42, -180.00, 90.00, 54.95, 30.31, 81.48, 0.00, -0.00, -0.00, 0.00, -0.00, -0.00, -4.45, -3.45, -0.23, -0.00
17.838170051574707, -3.14, 1.57, 0.96, 0.53, 1.42, -180.00, 90.00, 54.95, 30.31, 81.48, 0.00, -0.00, -0.00, 0.00, -0.00, -0.00, -4.45, -3.45, -0.23, -0.00
17.89516854286194, -3.14, 1.57, 0.96, 0.53, 1.42, -180.00, 90.00, 54.95, 30.31, 81.48, 0.00, -0.00, -0.00, 0.00, -0.00, -0.00, -4.45, -3.45, -0.23, -0.00
17.952168464660645, -3.14, 1.57, 0.96, 0.53, 1.42, -180.00, 90.00, 54.95, 30.31, 81.48, 0.00, -0.00, -0.00, 0.00, -0.00, -0.00, -4.45, -3.45, -0.23, -0.00
18.004169702529907, -3.14, 1.57, 0.96, 0.53, 1.42, -180.00, 90.00, 54.95, 30.31, 81.48, 0.00, -0.00, -0.00, 0.00, -0.00, -0.00, -4.45, -3.45, -0.23, -0.00
18.061168909072876, -3.14, 1.57, 0.96, 0.53, 1.42, -180.00, 90.00, 54.95, 30.31, 81.48, 0.00, -0.00, -0.00, 0.00, -0.00, -0.00, -4.45, -3.45, -0.23, -0.00
18.112168788909912, -3.14, 1.57, 0.96, 0.53, 1.42, -180.00, 90.00, 54.95, 30.31, 81.48, 0.00, -0.00, -0.00, 0.00, -0.00, -0.00, -4.45, -3.45, -0.23, -0.00
18.16867971420288, -3.14, 1.57, 0.96, 0.53, 1.42, -180.00, 90.00, 54.95, 30.31, 81.48, 0.00, -0.00, -0.00, 0.00, -0.00, -0.00, -4.45, -3.45, -0.23, -0.00
18.225682258605957, -3.14, 1.57, 0.96, 0.53, 1.42, -180.00, 90.00, 54.95, 30.31, 81.48, 0.00, -0.00, -0.00, 0.00, -0.00, -0.00, -4.45, -3.45, -0.23, -0.00
18.280681610107422, -3.14, 1.57, 0.96, 0.53, 1.42, -180.00, 90.00, 54.95, 30.31, 81.48, 0.00, -0.00, -0.00, 0.00, -0.00, -0.00, -4.45, -3.45, -0.23, -0.00
18.334680557250977, -3.14, 1.57, 0.96, 0.53, 1.42, -180.00, 90.00, 54.95, 30.31, 81.48, 0.00, -0.00, -0.00, 0.00, -0.00, -0.00, -4.45, -3.45, -0.23, -0.00
18.386680364608765, -3.14, 1.57, 0.96, 0.53, 1.42, -180.00, 90.00, 54.95, 30.31, 81.48, 0.00, -0.00, -0.00, 0.00, -0.00, -0.00, -4.45, -3.45, -0.23, -0.00
18.44868230819702, -3.14, 1.57, 0.96, 0.53, 1.42, -180.00, 90.00, 54.95, 30.31, 81.48, 0.00, -0.00, -0.00, 0.00, -0.00, -0.00, -4.45, -3.45, -0.23, -0.00
18.50767970085144, -3.14, 1.57, 0.96, 0.53, 1.42, -180.00, 90.00, 54.95, 30.31, 81.48, 0.00, -0.00, -0.00, 0.00, -0.00, -0.00, -4.45, -3.45, -0.23, -0.00
18.5626802444458, -3.14, 1.57, 0.96, 0.53, 1.42, -180.00, 90.00, 54.95, 30.31, 81.48, 0.00, -0.00, -0.00, 0.00, -0.00, -0.00, -4.45, -3.45, -0.23, -0.00
18.611680030822754, -3.14, 1.57, 0.96, 0.53, 1.42, -180.00, 90.00, 54.95, 30.31, 81.48, 0.00, -0.00, -0.00, 0.00, -0.00, -0.00, -4.45, -3.45, -0.23, -0.00
18.664679765701294, -3.14, 1.57, 0.96, 0.53, 1.42, -180.00, 90.00, 54.95, 30.31, 81.48, 0.00, -0.00, -0.00, 0.00, -0.00, -0.00, -4.45, -3.45, -0.23, -0.00
18.713680028915405, -3.14, 1.57, 0.96, 0.53, 1.42, -180.00, 90.00, 54.95, 30.31, 81.48, 0.00, -0.00, -0.00, 0.00, -0.00, -0.00, -4.45, -3.45, -0.23, -0.00
18.764683961868286, -3.14, 1.57, 0.96, 0.53, 1.42, -180.00, 90.00, 54.95, 30.31, 81.48, 0.00, -0.00, -0.00, 0.00, -0.00, -0.00, -4.45, -3.45, -0.23, -0.00
18.818212509155273, -3.14, 1.57, 0.96, 0.53, 1.42, -180.00, 90.00, 54.95, 30.31, 81.48, 0.00, -0.00, -0.00, 0.00, -0.00, -0.00, -4.45, -3.45, -0.23, -0.00
18.876208305358887, -3.13, 1.57, 0.96, 0.53, 1.42, -179.62, 90.00, 54.95, 30.31, 81.48, 1.59, -0.00, -0.00, 0.00, -0.00, 159.84, -4.45, -3.45, -0.23, -0.00
18.928972721099854, -3.13, 1.57, 0.96, 0.53, 1.42, -179.09, 90.00, 54.95, 30.31, 81.48, 2.22, -0.00, -0.00, 0.00, -0.00, 63.98, -3.62, -2.68, 0.07, -0.00
18.98297429084778, -3.12, 1.57, 0.96, 0.53, 1.42, -178.61, 90.00, 54.95, 30.31, 81.48, 2.00, -0.00, -0.00, 0.00, -0.00, -22.31, -2.81, -1.91, 0.36, -0.00
19.031973600387573, -3.11, 1.57, 0.96, 0.53, 1.42, -178.18, 90.00, 54.95, 30.31, 81.48, 1.80, -0.00, -0.00, 0.00, -0.00, -20.08, -3.09, -2.18, 0.26, 0.00
19.085973739624023, -3.10, 1.57, 0.96, 0.53, 1.42, -177.61, 90.00, 54.95, 30.31, 81.48, 2.41, -0.00, -0.00, 0.00, -0.00, 61.85, -3.35, -2.42, 0.16, 0.00
19.14004945755005, -3.09, 1.57, 0.96, 0.53, 1.42, -176.90, 90.00, 54.95, 30.31, 81.48, 2.97, -0.00, -0.00, 0.00, -0.00, 55.69, -2.51, -1.63, 0.47, -0.00
19.194560766220093, -3.07, 1.57, 0.96, 0.53, 1.42, -175.88, 90.00, 54.95, 30.31, 81.48, 4.26, -0.00, -0.00, 0.00, -0.00, 130.08, -1.52, -0.70, 0.83, -0.00
19.250561952590942, -3.05, 1.57, 0.96, 0.53, 1.42, -174.78, 90.00, 54.95, 30.31, 81.48, 4.62, -0.00, -0.00, -0.00, -0.00, 37.25, -5.31, 2.20, 1.94, -0.00
19.300561666488647, -3.02, 1.57, 0.96, 0.53, 1.42, -173.22, 90.00, 54.95, 30.31, 81.48, 6.54, -0.00, -0.00, 0.00, -0.00, 193.42, -4.24, 3.27, 2.35, -0.00
19.353565216064453, -3.00, 1.57, 0.96, 0.53, 1.42, -171.81, 90.00, 54.95, 30.31, 81.48, 5.89, -0.00, -0.00, 0.00, -0.00, -65.49, 2.28, 9.84, 4.88, -0.00
19.405998468399048, -2.98, 1.57, 0.96, 0.53, 1.42, -170.55, 90.00, 54.95, 30.31, 81.47, 5.30, -0.00, -0.00, 0.00, -0.00, -58.96, 0.10, 7.57, 4.01, 0.00
19.466997623443604, -2.95, 1.57, 0.96, 0.53, 1.42, -169.22, 90.00, 54.95, 30.31, 81.47, 5.56, -0.00, -0.00, 0.00, -0.00, 26.84, -2.00, 5.48, 3.20, 0.00
19.51997971534729, -2.93, 1.57, 0.96, 0.53, 1.42, -167.83, 90.00, 54.95, 30.31, 81.47, 5.80, -0.00, -0.00, 0.00, -0.00, 24.20, -1.22, 6.28, 3.51, -0.00
19.579704761505127, -2.90, 1.57, 0.96, 0.53, 1.42, -166.40, 90.00, 54.95, 30.31, 81.47, 6.01, -0.00, -0.00, 0.00, -0.00, 21.83, -0.37, 7.13, 3.84, -0.00
19.636362552642822, -2.88, 1.57, 0.96, 0.53, 1.42, -165.10, 90.00, 54.95, 30.31, 81.47, 5.41, -0.00, -0.00, 0.00, -0.00, -60.22, 0.43, 7.93, 4.15, -0.00
19.688690900802612, -2.86, 1.57, 0.96, 0.53, 1.42, -163.75, 90.00, 54.95, 30.31, 81.47, 5.67, -0.00, -0.00, 0.00, -0.00, 25.71, -1.62, 5.85, 3.35, 0.00
19.742689609527588, -2.84, 1.57, 0.96, 0.53, 1.42, -162.53, 90.00, 54.95, 30.31, 81.47, 5.10, -0.00, -0.00, 0.00, -0.00, -56.74, -0.87, 6.64, 3.65, -0.00
19.800689220428467, -2.81, 1.57, 0.96, 0.53, 1.42, -161.25, 90.00, 54.95, 30.31, 81.47, 5.38, -0.00, -0.00, 0.00, -0.00, 28.84, -2.68, 4.80, 2.94, 0.00
19.857691526412964, -2.79, 1.57, 0.96, 0.53, 1.42, -159.90, 90.00, 54.95, 30.31, 81.47, 5.64, -0.00, -0.00, 0.00, -0.00, 26.01, -1.86, 5.65, 3.27, -0.00
19.914689540863037, -2.76, 1.57, 0.96, 0.53, 1.42, -158.12, 90.00, 54.94, 30.31, 81.47, 7.46, -0.00, -0.00, 0.00, -0.00, 183.32, -0.97, 6.54, 3.61, -0.00
19.964447498321533, -2.73, 1.57, 0.96, 0.53, 1.42, -156.52, 90.00, 54.94, 30.31, 81.47, 6.71, -0.00, -0.00, 0.00, -0.00, -74.58, 6.26, 13.83, 6.42, -0.00
20.014440059661865, -2.71, 1.57, 0.96, 0.53, 1.42, -155.08, 90.00, 54.94, 30.31, 81.47, 6.04, -0.00, -0.00, 0.00, -0.00, -67.15, 3.38, 10.84, 5.27, 0.00
20.06864094734192, -2.68, 1.57, 0.96, 0.53, 1.42, -153.78, 90.00, 54.94, 30.31, 81.47, 5.43, -0.00, -0.00, 0.00, -0.00, -60.47, 0.66, 8.13, 4.22, 0.00
20.118480920791626, -2.66, 1.57, 0.96, 0.53, 1.42, -152.24, 90.00, 54.94, 30.31, 81.47, 6.48, 0.00, -0.00, 0.00, 0.00, 105.42, -1.55, 5.92, 3.37, 0.00
20.170478105545044, -2.63, 1.57, 0.96, 0.53, 1.42, -150.84, 90.00, 54.94, 30.31, 81.47, 5.83, -0.00, -0.00, 0.00, -0.00, -64.86, 2.11, 9.65, 4.81, -0.00
20.231477737426758, -2.61, 1.57, 0.96, 0.53, 1.42, -149.59, 90.00, 54.94, 30.31, 81.47, 5.25, -0.00, -0.00, 0.00, -0.00, -58.40, -0.14, 7.33, 3.92, 0.00
20.290282726287842, -2.58, 1.57, 0.96, 0.53, 1.42, -148.08, 90.00, 54.94, 30.31, 81.47, 6.31, 0.00, 0.00, 0.00, 0.00, 107.29, -2.19, 5.28, 3.13, 0.00
20.343283653259277, -2.55, 1.57, 0.96, 0.53, 1.42, -146.16, 90.00, 54.94, 30.31, 81.47, 8.06, -0.00, -0.00, 0.00, -0.00, 176.62, 1.43, 8.97, 4.55, -0.00
20.400282621383667, -2.52, 1.57, 0.96, 0.53, 1.42, -144.43, 90.00, 54.94, 30.31, 81.47, 7.25, -0.00, -0.00, 0.00, -0.00, -80.61, 9.20, 16.77, 7.55, -0.00
20.45128321647644, -2.49, 1.57, 0.96, 0.53, 1.42, -142.87, 90.00, 54.94, 30.31, 81.47, 6.53, -0.00, -0.00, 0.00, -0.00, -72.57, 5.79, 13.25, 6.19, 0.00
20.501283407211304, -2.47, 1.57, 0.96, 0.53, 1.42, -141.47, 90.00, 54.94, 30.31, 81.47, 5.88, -0.00, -0.00, 0.00, -0.00, -65.36, 2.62, 10.08, 4.97, 0.00
20.555282592773438, -2.45, 1.57, 0.96, 0.53, 1.42, -140.20, 90.00, 54.94, 30.31, 81.47, 5.29, 0.00, 0.00, 0.00, 0.00, -58.85, 0.03, 7.50, 3.98, 0.00
20.61128258705139, -2.43, 1.57, 0.96, 0.53, 1.42, -139.07, 90.00, 54.94, 30.31, 81.47, 4.76, 0.00, 0.00, 0.00, 0.00, -52.99, -2.07, 5.42, 3.18, 0.00
20.67128276824951, -2.41, 1.57, 0.96, 0.53, 1.42, -138.05, 90.00, 54.94, 30.31, 81.47, 4.28, 0.00, 0.00, 0.00, 0.00, -47.71, -3.76, 3.72, 2.53, 0.00
20.728283882141113, -2.39, 1.57, 0.96, 0.53, 1.42, -137.13, 90.00, 54.94, 30.31, 81.47, 3.86, 0.00, 0.00, -0.00, 0.00, -42.95, -5.14, 2.35, 2.00, 0.00
20.78136968612671, -2.38, 1.57, 0.96, 0.53, 1.42, -136.30, 90.00, 54.94, 30.31, 81.47, 3.47, 0.00, 0.00, -0.00, 0.00, -38.67, -6.22, 1.27, 1.58, 0.00
20.833357572555542, -2.37, 1.57, 0.96, 0.53, 1.42, -135.55, 90.00, 54.94, 30.31, 81.47, 3.12, 0.00, 0.00, 0.00, 0.00, -34.81, -7.18, 0.33, 1.22, 0.00
20.89035677909851, -2.35, 1.57, 0.96, 0.53, 1.42, -134.88, 90.00, 54.94, 30.31, 81.47, 2.81, 0.00, 0.00, 0.00, 0.00, -31.34, -7.88, -0.38, 0.95, 0.00
20.94335699081421, -2.34, 1.57, 0.96, 0.53, 1.42, -134.28, 90.00, 54.94, 30.31, 81.47, 2.53, 0.00, 0.00, 0.00, 0.00, -28.21, -8.46, -0.96, 0.72, -0.00
21.00341510772705, -2.33, 1.57, 0.96, 0.53, 1.42, -133.73, 90.00, 54.95, 30.31, 81.47, 2.28, 0.00, 0.00, 0.00, 0.00, -25.39, -8.94, -1.44, 0.54, -0.00
21.062225341796875, -2.33, 1.57, 0.96, 0.53, 1.42, -133.24, 90.00, 54.95, 30.31, 81.47, 2.05, 0.00, 0.00, 0.00, 0.00, -22.86, -9.33, -1.82, 0.39, -0.00
21.116225242614746, -2.32, 1.57, 0.96, 0.53, 1.42, -132.80, 90.00, 54.95, 30.31, 81.47, 1.84, 0.00, 0.00, 0.00, 0.00, -20.57, -9.64, -2.14, 0.27, -0.00
21.170228958129883, -2.31, 1.57, 0.96, 0.53, 1.42, -132.60, 90.00, 54.95, 30.31, 81.47, 0.87, 0.00, 0.00, 0.00, 0.00, -98.45, -9.89, -2.39, 0.18, -0.00
21.227744579315186, -2.31, 1.57, 0.96, 0.53, 1.42, -132.41, 90.00, 54.95, 30.31, 81.47, 0.78, 0.00, 0.00, 0.00, 0.00, -8.70, -10.70, -3.20, -0.14, 0.00
21.282747507095337, -2.31, 1.57, 0.96, 0.53, 1.42, -132.24, 90.00, 54.95, 30.31, 81.47, 0.70, 0.00, 0.00, 0.00, 0.00, -7.83, -10.78, -3.27, -0.16, -0.00
21.338742971420288, -2.31, 1.57, 0.96, 0.53, 1.42, -132.09, 90.00, 54.95, 30.31, 81.47, 0.63, -0.00, 0.00, -0.00, 0.00, -7.05, -4.34, -3.35, -0.19, -0.00
21.40074372291565, -2.31, 1.57, 0.96, 0.53, 1.42, -132.15, 90.00, 54.95, 30.31, 81.48, -0.23, -0.00, 0.00, -0.00, 0.00, -86.27, -4.32, -3.33, -0.19, -0.00
21.454748392105103, -2.31, 1.57, 0.96, 0.53, 1.42, -132.57, 90.00, 54.95, 30.31, 81.48, -1.79, -0.00, 0.00, -0.00, 0.00, -157.58, -4.43, -3.44, -0.23, -0.00
21.511743307113647, -2.32, 1.57, 0.96, 0.53, 1.42, -132.96, 90.00, 54.95, 30.31, 81.48, -1.61, -0.00, 0.00, -0.00, 0.00, 17.98, -3.41, -2.47, 0.14, -0.00
21.569742679595947, -2.33, 1.57, 0.96, 0.53, 1.42, -133.31, 90.00, 54.95, 30.31, 81.48, -1.45, -0.00, 0.00, -0.00, 0.00, 16.18, -3.57, -2.63, 0.08, -0.00
21.629742860794067, -2.33, 1.57, 0.96, 0.53, 1.42, -133.62, 90.00, 54.95, 30.31, 81.48, -1.31, -0.00, 0.00, -0.00, 0.00, 14.57, -3.74, -2.79, 0.02, -0.00
21.716745853424072, -2.34, 1.57, 0.96, 0.53, 1.42, -133.90, 90.00, 54.95, 30.31, 81.48, -1.17, -0.00, 0.00, -0.00, 0.00, 13.11, -3.87, -2.91, -0.03, -0.00
21.79074454307556, -2.34, 1.57, 0.96, 0.53, 1.42, -134.15, 90.00, 54.95, 30.31, 81.48, -1.06, -0.00, 0.00, -0.00, 0.00, 11.80, -3.98, -3.01, -0.06, -0.00
21.851744413375854, -2.35, 1.57, 0.96, 0.53, 1.42, -134.38, 90.00, 54.95, 30.31, 81.48, -0.95, -0.00, 0.00, -0.00, 0.00, 10.62, -4.07, -3.10, -0.10, -0.00
21.91656494140625, -2.35, 1.57, 0.96, 0.53, 1.42, -134.58, 90.00, 54.95, 30.31, 81.48, -0.86, -0.00, 0.00, -0.00, 0.00, 9.56, -4.14, -3.16, -0.12, -0.00
21.96933650970459, -2.35, 1.57, 0.96, 0.53, 1.42, -134.77, 90.00, 54.95, 30.31, 81.48, -0.77, -0.00, 0.00, -0.00, 0.00, 8.60, -4.20, -3.22, -0.14, -0.00
22.019335746765137, -2.35, 1.57, 0.96, 0.53, 1.42, -134.93, 90.00, 54.95, 30.31, 81.48, -0.69, -0.00, 0.00, -0.00, 0.00, 7.74, -4.25, -3.26, -0.16, -0.00
22.076369047164917, -2.36, 1.57, 0.96, 0.53, 1.42, -135.08, 90.00, 54.95, 30.31, 81.48, -0.62, -0.00, 0.00, -0.00, 0.00, 6.97, -4.29, -3.30, -0.17, -0.00
22.127367734909058, -2.36, 1.57, 0.96, 0.53, 1.42, -135.21, 90.00, 54.95, 30.31, 81.48, -0.56, -0.00, 0.00, -0.00, 0.00, 6.27, -4.32, -3.33, -0.19, -0.00
22.178444147109985, -2.36, 1.57, 0.96, 0.53, 1.42, -135.33, 90.00, 54.95, 30.31, 81.48, -0.51, -0.00, 0.00, -0.00, 0.00, 5.65, -4.34, -3.35, -0.19, -0.00
22.232444047927856, -2.36, 1.57, 0.96, 0.53, 1.42, -135.44, 90.00, 54.95, 30.31, 81.48, -0.46, -0.00, 0.00, -0.00, 0.00, 5.08, -4.36, -3.37, -0.20, -0.00
22.290443658828735, -2.37, 1.57, 0.96, 0.53, 1.42, -135.54, 90.00, 54.95, 30.31, 81.48, -0.41, -0.00, 0.00, -0.00, 0.00, 4.57, -4.38, -3.38, -0.21, -0.00
22.348443508148193, -2.37, 1.57, 0.96, 0.53, 1.42, -135.63, 90.00, 54.95, 30.31, 81.48, -0.37, -0.00, 0.00, -0.00, 0.00, 4.12, -4.39, -3.40, -0.21, -0.00
22.404446601867676, -2.37, 1.57, 0.96, 0.53, 1.42, -135.71, 90.00, 54.95, 30.31, 81.48, -0.33, -0.00, 0.00, -0.00, 0.00, 3.70, -4.40, -3.41, -0.22, -0.00
22.47167134284973, -2.37, 1.57, 0.96, 0.53, 1.42, -135.78, 90.00, 54.95, 30.31, 81.48, -0.30, -0.00, 0.00, -0.00, 0.00, 3.33, -4.41, -3.41, -0.22, -0.00
22.540183544158936, -2.37, 1.57, 0.96, 0.53, 1.42, -135.84, 90.00, 54.95, 30.31, 81.48, -0.27, -0.00, 0.00, -0.00, 0.00, 3.00, -4.42, -3.42, -0.22, -0.00
22.592183351516724, -2.37, 1.57, 0.96, 0.53, 1.42, -135.90, 90.00, 54.95, 30.31, 81.48, -0.24, -0.00, 0.00, -0.00, 0.00, 2.70, -4.42, -3.43, -0.22, -0.00
22.64518427848816, -2.37, 1.57, 0.96, 0.53, 1.42, -135.95, 90.00, 54.95, 30.31, 81.48, -0.22, -0.00, 0.00, -0.00, 0.00, 2.43, -4.43, -3.43, -0.22, -0.00
22.69473147392273, -2.37, 1.57, 0.96, 0.53, 1.42, -136.00, 90.00, 54.95, 30.31, 81.48, -0.20, -0.00, 0.00, -0.00, 0.00, 2.19, -4.43, -3.43, -0.23, -0.00
22.75572919845581, -2.37, 1.57, 0.96, 0.53, 1.42, -136.04, 90.00, 54.95, 30.31, 81.48, -0.18, -0.00, 0.00, -0.00, 0.00, 1.97, -4.43, -3.44, -0.23, -0.00
22.81324601173401, -2.38, 1.57, 0.96, 0.53, 1.42, -136.08, 90.00, 54.95, 30.31, 81.48, -0.16, -0.00, 0.00, -0.00, 0.00, 1.77, -4.44, -3.44, -0.23, -0.00
22.86635994911194, -2.38, 1.57, 0.96, 0.53, 1.42, -136.11, 90.00, 54.95, 30.31, 81.48, -0.14, -0.00, 0.00, -0.00, 0.00, 1.60, -4.44, -3.44, -0.23, -0.00
22.919172525405884, -2.38, 1.57, 0.96, 0.53, 1.42, -136.14, 90.00, 54.95, 30.31, 81.48, -0.13, -0.00, 0.00, -0.00, 0.00, 1.44, -4.44, -3.44, -0.23, -0.00
22.973172187805176, -2.38, 1.57, 0.96, 0.53, 1.42, -136.17, 90.00, 54.95, 30.31, 81.48, -0.12, -0.00, 0.00, -0.00, 0.00, 1.29, -4.44, -3.44, -0.23, -0.00
23.02417278289795, -2.38, 1.57, 0.96, 0.53, 1.42, -136.20, 90.00, 54.95, 30.31, 81.48, -0.10, -0.00, 0.00, -0.00, 0.00, 1.16, -4.44, -3.44, -0.23, -0.00
23.078172206878662, -2.38, 1.57, 0.96, 0.53, 1.42, -136.22, 90.00, 54.95, 30.31, 81.48, -0.09, -0.00, 0.00, -0.00, 0.00, 1.05, -4.44, -3.44, -0.23, -0.00
23.135173320770264, -2.38, 1.57, 0.96, 0.53, 1.42, -136.24, 90.00, 54.95, 30.31, 81.48, -0.08, -0.00, 0.00, -0.00, 0.00, 0.94, -4.44, -3.45, -0.23, -0.00
23.19217300415039, -2.38, 1.57, 0.96, 0.53, 1.42, -136.26, 90.00, 54.95, 30.31, 81.48, -0.08, -0.00, 0.00, -0.00, 0.00, 0.85, -4.44, -3.45, -0.23, -0.00
23.2491717338562, -2.38, 1.57, 0.96, 0.53, 1.42, -136.27, 90.00, 54.95, 30.31, 81.48, -0.07, -0.00, 0.00, -0.00, 0.00, 0.76, -4.44, -3.45, -0.23, -0.00
23.301947116851807, -2.38, 1.57, 0.96, 0.53, 1.42, -136.29, 90.00, 54.95, 30.31, 81.48, -0.06, -0.00, 0.00, -0.00, 0.00, 0.69, -4.44, -3.45, -0.23, -0.00
23.3545823097229, -2.38, 1.57, 0.96, 0.53, 1.42, -136.30, 90.00, 54.95, 30.31, 81.48, -0.06, -0.00, 0.00, -0.00, 0.00, 0.62, -4.44, -3.45, -0.23, -0.00
23.4076828956604, -2.38, 1.57, 0.96, 0.53, 1.42, -136.31, 90.00, 54.95, 30.31, 81.48, -0.05, -0.00, 0.00, -0.00, 0.00, 0.56, -4.44, -3.45, -0.23, -0.00
23.460683822631836, -2.38, 1.57, 0.96, 0.53, 1.42, -136.32, 90.00, 54.95, 30.31, 81.48, -0.04, -0.00, 0.00, -0.00, 0.00, 0.50, -4.45, -3.45, -0.23, -0.00
23.514683723449707, -2.38, 1.57, 0.96, 0.53, 1.42, -136.33, 90.00, 54.95, 30.31, 81.48, -0.04, -0.00, 0.00, -0.00, 0.00, 0.45, -4.45, -3.45, -0.23, -0.00
23.564682245254517, -2.38, 1.57, 0.96, 0.53, 1.42, -136.34, 90.00, 54.95, 30.31, 81.48, -0.04, -0.00, 0.00, -0.00, 0.00, 0.41, -4.45, -3.45, -0.23, -0.00
23.617682218551636, -2.38, 1.57, 0.96, 0.53, 1.42, -136.35, 90.00, 54.95, 30.31, 81.48, -0.03, -0.00, 0.00, -0.00, 0.00, 0.36, -4.45, -3.45, -0.23, -0.00
23.670682430267334, -2.38, 1.57, 0.96, 0.53, 1.42, -136.36, 90.00, 54.95, 30.31, 81.48, -0.03, -0.00, 0.00, -0.00, 0.00, 0.33, -4.45, -3.45, -0.23, -0.00
23.72276020050049, -2.38, 1.57, 0.96, 0.53, 1.42, -136.36, 90.00, 54.95, 30.31, 81.48, -0.03, -0.00, 0.00, -0.00, 0.00, 0.30, -4.45, -3.45, -0.23, -0.00
23.77152967453003, -2.38, 1.57, 0.96, 0.53, 1.42, -136.37, 90.00, 54.95, 30.31, 81.48, -0.02, -0.00, 0.00, -0.00, 0.00, 0.27, -4.45, -3.45, -0.23, -0.00
23.821529865264893, -2.38, 1.57, 0.96, 0.53, 1.42, -136.37, 90.00, 54.95, 30.31, 81.48, -0.02, -0.00, 0.00, -0.00, 0.00, 0.24, -4.45, -3.45, -0.23, -0.00
23.873530387878418, -2.38, 1.57, 0.96, 0.53, 1.42, -136.38, 90.00, 54.95, 30.31, 81.48, -0.02, -0.00, 0.00, -0.00, 0.00, 0.22, -4.45, -3.45, -0.23, -0.00
23.93053126335144, -2.38, 1.57, 0.96, 0.53, 1.42, -136.38, 90.00, 54.95, 30.31, 81.48, -0.02, -0.00, 0.00, -0.00, 0.00, 0.19, -4.45, -3.45, -0.23, -0.00
23.989530563354492, -2.38, 1.57, 0.96, 0.53, 1.42, -136.39, 90.00, 54.95, 30.31, 81.48, -0.02, -0.00, 0.00, -0.00, 0.00, 0.17, -4.45, -3.45, -0.23, -0.00
24.049819469451904, -2.38, 1.57, 0.96, 0.53, 1.42, -136.39, 90.00, 54.95, 30.31, 81.48, -0.01, -0.00, 0.00, -0.00, 0.00, 0.16, -4.45, -3.45, -0.23, -0.00
24.11554503440857, -2.38, 1.57, 0.96, 0.53, 1.42, -136.39, 90.00, 54.95, 30.31, 81.48, -0.01, -0.00, 0.00, -0.00, 0.00, 0.14, -4.45, -3.45, -0.23, -0.00
24.171592950820923, -2.38, 1.57, 0.96, 0.53, 1.42, -136.40, 90.00, 54.95, 30.31, 81.48, -0.01, -0.00, 0.00, -0.00, 0.00, 0.13, -4.45, -3.45, -0.23, -0.00
24.22558283805847, -2.38, 1.57, 0.96, 0.53, 1.42, -136.40, 90.00, 54.95, 30.31, 81.48, -0.01, -0.00, 0.00, -0.00, 0.00, 0.11, -4.45, -3.45, -0.23, -0.00
24.282577991485596, -2.38, 1.57, 0.96, 0.53, 1.42, -136.40, 90.00, 54.95, 30.31, 81.48, -0.01, -0.00, 0.00, -0.00, 0.00, 0.10, -4.45, -3.45, -0.23, -0.00
24.337064266204834, -2.38, 1.57, 0.96, 0.53, 1.42, -136.40, 90.00, 54.95, 30.31, 81.48, -0.01, -0.00, 0.00, -0.00, 0.00, 0.09, -4.45, -3.45, -0.23, -0.00
24.394060850143433, -2.38, 1.57, 0.96, 0.53, 1.42, -136.40, 90.00, 54.95, 30.31, 81.48, -0.01, -0.00, 0.00, -0.00, 0.00, 0.08, -4.45, -3.45, -0.23, -0.00
24.451062440872192, -2.38, 1.57, 0.96, 0.53, 1.42, -136.41, 90.00, 54.95, 30.31, 81.48, -0.01, -0.00, 0.00, -0.00, 0.00, 0.08, -4.45, -3.45, -0.23, -0.00
24.5120632648468, -2.38, 1.57, 0.96, 0.53, 1.42, -136.41, 90.00, 54.95, 30.31, 81.48, -0.01, -0.00, 0.00, -0.00, 0.00, 0.07, -4.45, -3.45, -0.23, -0.00
24.573061227798462, -2.38, 1.57, 0.96, 0.53, 1.42, -136.41, 90.00, 54.95, 30.31, 81.48, -0.01, -0.00, 0.00, -0.00, 0.00, 0.06, -4.45, -3.45, -0.23, -0.00
24.63484525680542, -2.38, 1.57, 0.96, 0.53, 1.42, -136.41, 90.00, 54.95, 30.31, 81.48, -0.00, -0.00, 0.00, -0.00, 0.00, 0.05, -4.45, -3.45, -0.23, -0.00
24.69783353805542, -2.38, 1.57, 0.96, 0.53, 1.42, -136.41, 90.00, 54.95, 30.31, 81.48, -0.00, -0.00, 0.00, -0.00, 0.00, 0.05, -4.45, -3.45, -0.23, -0.00
24.76183009147644, -2.38, 1.57, 0.96, 0.53, 1.42, -136.41, 90.00, 54.95, 30.31, 81.48, -0.00, -0.00, 0.00, -0.00, 0.00, 0.04, -4.45, -3.45, -0.23, -0.00
24.816646814346313, -2.38, 1.57, 0.96, 0.53, 1.42, -136.41, 90.00, 54.95, 30.31, 81.48, -0.00, -0.00, 0.00, -0.00, 0.00, 0.04, -4.45, -3.45, -0.23, -0.00
24.874021530151367, -2.38, 1.57, 0.96, 0.53, 1.42, -136.41, 90.00, 54.95, 30.31, 81.48, -0.00, -0.00, 0.00, -0.00, 0.00, 0.04, -4.45, -3.45, -0.23, -0.00
24.93502187728882, -2.38, 1.57, 0.96, 0.53, 1.42, -136.41, 90.00, 54.95, 30.31, 81.48, -0.00, -0.00, 0.00, -0.00, 0.00, 0.03, -4.45, -3.45, -0.23, -0.00
25.00602102279663, -2.38, 1.57, 0.96, 0.53, 1.42, -136.42, 90.00, 54.95, 30.31, 81.48, -0.00, -0.00, 0.00, -0.00, 0.00, 0.03, -4.45, -3.45, -0.23, -0.00
25.06101942062378, -2.38, 1.57, 0.96, 0.53, 1.42, -136.42, 90.00, 54.95, 30.31, 81.48, -0.00, -0.00, 0.00, -0.00, 0.00, 0.03, -4.45, -3.45, -0.23, -0.00
25.115020751953125, -2.38, 1.57, 0.96, 0.53, 1.42, -136.42, 90.00, 54.95, 30.31, 81.48, -0.00, -0.00, 0.00, -0.00, 0.00, 0.02, -4.45, -3.45, -0.23, -0.00
25.16502046585083, -2.38, 1.57, 0.96, 0.53, 1.42, -136.42, 90.00, 54.95, 30.31, 81.48, -0.00, -0.00, 0.00, -0.00, 0.00, 0.02, -4.45, -3.45, -0.23, -0.00
25.219022035598755, -2.38, 1.57, 0.96, 0.53, 1.42, -136.42, 90.00, 54.95, 30.31, 81.48, -0.00, -0.00, 0.00, -0.00, 0.00, 0.02, -4.45, -3.45, -0.23, -0.00
25.275021076202393, -2.38, 1.57, 0.96, 0.53, 1.42, -136.42, 90.00, 54.95, 30.31, 81.48, -0.00, -0.00, 0.00, -0.00, 0.00, 0.02, -4.45, -3.45, -0.23, -0.00
25.333022594451904, -2.38, 1.57, 0.96, 0.53, 1.42, -136.42, 90.00, 54.95, 30.31, 81.48, -0.00, -0.00, 0.00, -0.00, 0.00, 0.02, -4.45, -3.45, -0.23, -0.00
25.392024755477905, -2.38, 1.57, 0.96, 0.53, 1.42, -136.42, 90.00, 54.95, 30.31, 81.48, -0.00, -0.00, 0.00, -0.00, 0.00, 0.01, -4.45, -3.45, -0.23, -0.00
25.454891204833984, -2.38, 1.57, 0.96, 0.53, 1.42, -136.42, 90.00, 54.95, 30.31, 81.48, -0.00, -0.00, 0.00, -0.00, 0.00, 0.01, -4.45, -3.45, -0.23, -0.00
25.50989055633545, -2.38, 1.57, 0.96, 0.53, 1.42, -136.42, 90.00, 54.95, 30.31, 81.48, -0.00, -0.00, 0.00, -0.00, 0.00, 0.01, -4.45, -3.45, -0.23, -0.00
25.570887088775635, -2.38, 1.57, 0.96, 0.53, 1.42, -136.42, 90.00, 54.95, 30.31, 81.48, -0.00, -0.00, 0.00, -0.00, 0.00, 0.01, -4.45, -3.45, -0.23, -0.00
25.625885725021362, -2.38, 1.57, 0.96, 0.53, 1.42, -136.42, 90.00, 54.95, 30.31, 81.48, -0.00, -0.00, 0.00, -0.00, 0.00, 0.01, -4.45, -3.45, -0.23, -0.00
25.68688654899597, -2.38, 1.57, 0.96, 0.53, 1.42, -136.42, 90.00, 54.95, 30.31, 81.48, -0.00, -0.00, 0.00, -0.00, 0.00, 0.01, -4.45, -3.45, -0.23, -0.00
25.740885972976685, -2.38, 1.57, 0.96, 0.53, 1.42, -136.42, 90.00, 54.95, 30.31, 81.48, -0.00, -0.00, 0.00, -0.00, 0.00, 0.01, -4.45, -3.45, -0.23, -0.00
25.799118518829346, -2.38, 1.57, 0.96, 0.53, 1.42, -136.42, 90.00, 54.95, 30.31, 81.48, -0.00, -0.00, 0.00, -0.00, 0.00, 0.01, -4.45, -3.45, -0.23, -0.00
25.854114770889282, -2.38, 1.57, 0.96, 0.53, 1.42, -136.42, 90.00, 54.95, 30.31, 81.48, -0.00, -0.00, 0.00, -0.00, 0.00, 0.01, -4.45, -3.45, -0.23, -0.00
25.91111469268799, -2.38, 1.57, 0.96, 0.53, 1.42, -136.42, 90.00, 54.95, 30.31, 81.48, -0.00, -0.00, 0.00, -0.00, 0.00, 0.01, -4.45, -3.45, -0.23, -0.00
25.964069366455078, -2.38, 1.57, 0.96, 0.53, 1.42, -136.42, 90.00, 54.95, 30.31, 81.48, -0.00, -0.00, 0.00, -0.00, 0.00, 0.00, -4.45, -3.45, -0.23, -0.00
26.018070697784424, -2.38, 1.57, 0.96, 0.53, 1.42, -136.42, 90.00, 54.95, 30.31, 81.48, -0.00, -0.00, 0.00, -0.00, 0.00, 0.00, -4.45, -3.45, -0.23, -0.00
26.075068473815918, -2.38, 1.57, 0.96, 0.53, 1.42, -136.42, 90.00, 54.95, 30.31, 81.48, -0.00, -0.00, 0.00, -0.00, 0.00, 0.00, -4.45, -3.45, -0.23, -0.00
26.131391763687134, -2.38, 1.57, 0.96, 0.53, 1.42, -136.42, 90.00, 54.95, 30.31, 81.48, -0.00, -0.00, 0.00, -0.00, 0.00, 0.00, -4.45, -3.45, -0.23, -0.00
26.183393955230713, -2.38, 1.57, 0.96, 0.53, 1.42, -136.42, 90.00, 54.95, 30.31, 81.48, -0.00, -0.00, 0.00, -0.00, 0.00, 0.00, -4.45, -3.45, -0.23, -0.00
26.250983953475952, -2.38, 1.57, 0.96, 0.53, 1.42, -136.42, 90.00, 54.95, 30.31, 81.48, -0.00, -0.00, 0.00, -0.00, 0.00, 0.00, -4.45, -3.45, -0.23, -0.00
26.31113576889038, -2.38, 1.57, 0.96, 0.53, 1.42, -136.42, 90.00, 54.95, 30.31, 81.48, -0.00, -0.00, 0.00, -0.00, 0.00, 0.00, -4.45, -3.45, -0.23, -0.00
26.375267028808594, -2.38, 1.57, 0.96, 0.53, 1.42, -136.42, 90.00, 54.95, 30.31, 81.48, -0.00, -0.00, 0.00, -0.00, 0.00, 0.00, -4.45, -3.45, -0.23, -0.00
26.430513381958008, -2.38, 1.57, 0.96, 0.53, 1.42, -136.42, 90.00, 54.95, 30.31, 81.48, -0.00, -0.00, 0.00, -0.00, 0.00, 0.00, -4.45, -3.45, -0.23, -0.00
26.484513759613037, -2.38, 1.57, 0.96, 0.53, 1.42, -136.42, 90.00, 54.95, 30.31, 81.48, -0.00, -0.00, 0.00, -0.00, 0.00, 0.00, -4.45, -3.45, -0.23, -0.00
26.538514137268066, -2.38, 1.57, 0.96, 0.53, 1.42, -136.42, 90.00, 54.95, 30.31, 81.48, -0.00, -0.00, 0.00, -0.00, 0.00, 0.00, -4.45, -3.45, -0.23, -0.00
26.592514038085938, -2.38, 1.57, 0.96, 0.53, 1.42, -136.42, 90.00, 54.95, 30.31, 81.48, -0.00, -0.00, 0.00, -0.00, 0.00, 0.00, -4.45, -3.45, -0.23, -0.00
26.65451192855835, -2.38, 1.57, 0.96, 0.53, 1.42, -136.42, 90.00, 54.95, 30.31, 81.48, -0.00, -0.00, 0.00, -0.00, 0.00, 0.00, -4.45, -3.45, -0.23, -0.00
26.712517023086548, -2.38, 1.57, 0.96, 0.53, 1.42, -136.42, 90.00, 54.95, 30.31, 81.48, -0.00, -0.00, 0.00, -0.00, 0.00, 0.00, -4.45, -3.45, -0.23, -0.00
26.76851463317871, -2.38, 1.57, 0.96, 0.53, 1.42, -136.42, 90.00, 54.95, 30.31, 81.48, -0.00, -0.00, 0.00, -0.00, 0.00, 0.00, -4.45, -3.45, -0.23, -0.00
26.827513933181763, -2.38, 1.57, 0.96, 0.53, 1.42, -136.42, 90.00, 54.95, 30.31, 81.48, -0.00, -0.00, 0.00, -0.00, 0.00, 0.00, -4.45, -3.45, -0.23, -0.00
26.886543035507202, -2.38, 1.57, 0.96, 0.53, 1.42, -136.42, 90.00, 54.95, 30.31, 81.48, -0.00, -0.00, 0.00, -0.00, 0.00, 0.00, -4.45, -3.45, -0.23, -0.00
26.948554277420044, -2.38, 1.57, 0.96, 0.53, 1.42, -136.42, 90.00, 54.95, 30.31, 81.48, -0.00, -0.00, 0.00, -0.00, 0.00, 0.00, -4.45, -3.45, -0.23, -0.00
27.005553483963013, -2.38, 1.57, 0.96, 0.53, 1.42, -136.42, 90.00, 54.95, 30.31, 81.48, -0.00, -0.00, 0.00, -0.00, 0.00, 0.00, -4.45, -3.45, -0.23, -0.00
27.05934190750122, -2.38, 1.57, 0.96, 0.53, 1.42, -136.42, 90.00, 54.95, 30.31, 81.48, -0.00, -0.00, 0.00, -0.00, 0.00, 0.00, -4.45, -3.45, -0.23, -0.00
27.114548683166504, -2.38, 1.57, 0.96, 0.53, 1.42, -136.42, 90.00, 54.95, 30.31, 81.48, -0.00, -0.00, 0.00, -0.00, 0.00, 0.00, -4.45, -3.45, -0.23, -0.00
27.175350189208984, -2.38, 1.57, 0.96, 0.53, 1.42, -136.42, 90.00, 54.95, 30.31, 81.48, -0.00, -0.00, 0.00, -0.00, 0.00, 0.00, -4.45, -3.45, -0.23, -0.00
27.23634958267212, -2.38, 1.57, 0.96, 0.53, 1.42, -136.42, 90.00, 54.95, 30.31, 81.48, -0.00, -0.00, 0.00, -0.00, 0.00, 0.00, -4.45, -3.45, -0.23, -0.00
27.29634952545166, -2.38, 1.57, 0.96, 0.53, 1.42, -136.42, 90.00, 54.95, 30.31, 81.48, -0.00, -0.00, 0.00, -0.00, 0.00, 0.00, -4.45, -3.45, -0.23, -0.00
27.355437517166138, -2.38, 1.57, 0.96, 0.53, 1.42, -136.42, 90.00, 54.95, 30.31, 81.48, -0.00, -0.00, 0.00, -0.00, 0.00, 0.00, -4.45, -3.45, -0.23, -0.00
27.4104323387146, -2.38, 1.57, 0.96, 0.53, 1.42, -136.42, 90.00, 54.95, 30.31, 81.48, -0.00, -0.00, 0.00, -0.00, 0.00, 0.00, -4.45, -3.45, -0.23, -0.00
27.464435577392578, -2.38, 1.57, 0.96, 0.53, 1.42, -136.42, 90.00, 54.95, 30.31, 81.48, -0.00, -0.00, 0.00, -0.00, 0.00, 0.00, -4.45, -3.45, -0.23, -0.00
27.525432586669922, -2.38, 1.57, 0.96, 0.53, 1.42, -136.42, 90.00, 54.95, 30.31, 81.48, -0.00, -0.00, 0.00, -0.00, 0.00, 0.00, -4.45, -3.45, -0.23, -0.00
27.594434022903442, -2.38, 1.57, 0.96, 0.53, 1.42, -136.42, 90.00, 54.95, 30.31, 81.48, -0.00, -0.00, 0.00, -0.00, 0.00, 0.00, -4.45, -3.45, -0.23, -0.00
27.657432317733765, -2.38, 1.57, 0.96, 0.53, 1.42, -136.42, 90.00, 54.95, 30.31, 81.48, -0.00, -0.00, 0.00, -0.00, 0.00, 0.00, -4.45, -3.45, -0.23, -0.00
27.710431575775146, -2.38, 1.57, 0.96, 0.53, 1.42, -136.42, 90.00, 54.95, 30.31, 81.48, -0.00, -0.00, 0.00, -0.00, 0.00, 0.00, -4.45, -3.45, -0.23, -0.00
27.76643180847168, -2.38, 1.57, 0.96, 0.53, 1.42, -136.42, 90.00, 54.95, 30.31, 81.48, -0.00, -0.00, 0.00, -0.00, 0.00, 0.00, -4.45, -3.45, -0.23, -0.00
27.817431688308716, -2.38, 1.57, 0.96, 0.53, 1.42, -136.42, 90.00, 54.95, 30.31, 81.48, -0.00, -0.00, 0.00, -0.00, 0.00, 0.00, -4.45, -3.45, -0.23, -0.00
27.87243413925171, -2.38, 1.57, 0.96, 0.53, 1.42, -136.42, 90.00, 54.95, 30.31, 81.48, -0.00, -0.00, 0.00, -0.00, 0.00, 0.00, -4.45, -3.45, -0.23, -0.00
27.934125900268555, -2.38, 1.57, 0.96, 0.53, 1.42, -136.42, 90.00, 54.95, 30.31, 81.48, -0.00, -0.00, 0.00, -0.00, 0.00, 0.00, -4.45, -3.45, -0.23, -0.00
28.00132656097412, -2.38, 1.57, 0.96, 0.53, 1.42, -136.42, 90.00, 54.95, 30.31, 81.48, -0.00, -0.00, 0.00, -0.00, 0.00, 0.00, -4.45, -3.45, -0.23, -0.00
28.06011986732483, -2.38, 1.57, 0.96, 0.53, 1.42, -136.42, 90.00, 54.95, 30.31, 81.48, -0.00, -0.00, 0.00, -0.00, 0.00, 0.00, -4.45, -3.45, -0.23, -0.00
28.114121198654175, -2.38, 1.57, 0.96, 0.53, 1.42, -136.42, 90.00, 54.95, 30.31, 81.48, -0.00, -0.00, 0.00, -0.00, 0.00, 0.00, -4.45, -3.45, -0.23, -0.00
28.169119358062744, -2.38, 1.57, 0.96, 0.53, 1.42, -136.42, 90.00, 54.95, 30.31, 81.48, -0.00, -0.00, 0.00, -0.00, 0.00, 0.00, -4.45, -3.45, -0.23, -0.00
28.226121425628662, -2.38, 1.57, 0.96, 0.53, 1.42, -136.42, 90.00, 54.95, 30.31, 81.48, -0.00, -0.00, 0.00, -0.00, 0.00, 0.00, -4.45, -3.45, -0.23, -0.00
28.284120321273804, -2.38, 1.57, 0.96, 0.53, 1.42, -136.42, 90.00, 54.95, 30.31, 81.48, -0.00, -0.00, 0.00, -0.00, 0.00, 0.00, -4.45, -3.45, -0.23, -0.00
28.352120637893677, -2.38, 1.57, 0.96, 0.53, 1.42, -136.42, 90.00, 54.95, 30.31, 81.48, -0.00, -0.00, 0.00, -0.00, 0.00, 0.00, -4.45, -3.45, -0.23, -0.00
28.405669689178467, -2.38, 1.57, 0.96, 0.53, 1.42, -136.42, 90.00, 54.95, 30.31, 81.48, -0.00, -0.00, 0.00, -0.00, 0.00, 0.00, -4.45, -3.45, -0.23, -0.00
28.468670129776, -2.38, 1.57, 0.96, 0.53, 1.42, -136.42, 90.00, 54.95, 30.31, 81.48, -0.00, -0.00, 0.00, -0.00, 0.00, 0.00, -4.45, -3.45, -0.23, -0.00
28.524231910705566, -2.38, 1.57, 0.96, 0.53, 1.42, -136.42, 90.00, 54.95, 30.31, 81.48, -0.00, -0.00, 0.00, -0.00, 0.00, 0.00, -4.45, -3.45, -0.23, -0.00
28.581790685653687, -2.38, 1.57, 0.96, 0.53, 1.42, -136.42, 90.00, 54.95, 30.31, 81.48, -0.00, -0.00, 0.00, -0.00, 0.00, 0.00, -4.45, -3.45, -0.23, -0.00
28.639347314834595, -2.38, 1.57, 0.96, 0.53, 1.42, -136.42, 90.00, 54.95, 30.31, 81.48, -0.00, -0.00, 0.00, -0.00, 0.00, 0.00, -4.45, -3.45, -0.23, -0.00
28.69283103942871, -2.38, 1.57, 0.96, 0.53, 1.42, -136.42, 90.00, 54.95, 30.31, 81.48, -0.00, -0.00, 0.00, -0.00, 0.00, 0.00, -4.45, -3.45, -0.23, -0.00
28.746829986572266, -2.38, 1.57, 0.96, 0.53, 1.42, -136.42, 90.00, 54.95, 30.31, 81.48, -0.00, -0.00, 0.00, -0.00, 0.00, 0.00, -4.45, -3.45, -0.23, -0.00
28.79883074760437, -2.38, 1.57, 0.96, 0.53, 1.42, -136.42, 90.00, 54.95, 30.31, 81.48, -0.00, -0.00, 0.00, -0.00, 0.00, 0.00, -4.45, -3.45, -0.23, -0.00
28.853829860687256, -2.38, 1.57, 0.96, 0.53, 1.42, -136.42, 90.00, 54.95, 30.31, 81.48, -0.00, -0.00, 0.00, -0.00, 0.00, 0.00, -4.45, -3.45, -0.23, -0.00
28.912354469299316, -2.38, 1.57, 0.96, 0.53, 1.42, -136.42, 90.00, 54.95, 30.31, 81.48, -0.00, -0.00, 0.00, -0.00, 0.00, 0.00, -4.45, -3.45, -0.23, -0.00
28.967354774475098, -2.38, 1.57, 0.96, 0.53, 1.42, -136.42, 90.00, 54.95, 30.31, 81.48, -0.00, -0.00, 0.00, -0.00, 0.00, 0.00, -4.45, -3.45, -0.23, -0.00
29.021205186843872, -2.38, 1.57, 0.96, 0.53, 1.42, -136.42, 90.00, 54.95, 30.31, 81.48, -0.00, -0.00, 0.00, -0.00, 0.00, 0.00, -4.45, -3.45, -0.23, -0.00
29.076202392578125, -2.38, 1.57, 0.96, 0.53, 1.42, -136.42, 90.00, 54.95, 30.31, 81.48, -0.00, -0.00, 0.00, -0.00, 0.00, 0.00, -4.45, -3.45, -0.23, -0.00
29.129202604293823, -2.38, 1.57, 0.96, 0.53, 1.42, -136.42, 90.00, 54.95, 30.31, 81.48, -0.00, -0.00, 0.00, -0.00, 0.00, 0.00, -4.45, -3.45, -0.23, -0.00
29.1852023601532, -2.38, 1.57, 0.96, 0.53, 1.42, -136.42, 90.00, 54.95, 30.31, 81.48, -0.00, -0.00, 0.00, -0.00, 0.00, 0.00, -4.45, -3.45, -0.23, -0.00
29.241202116012573, -2.38, 1.57, 0.96, 0.53, 1.42, -136.42, 90.00, 54.95, 30.31, 81.48, -0.00, -0.00, 0.00, -0.00, 0.00, 0.00, -4.45, -3.45, -0.23, -0.00
29.291202306747437, -2.38, 1.57, 0.96, 0.53, 1.42, -136.42, 90.00, 54.95, 30.31, 81.48, -0.00, -0.00, 0.00, -0.00, 0.00, 0.00, -4.45, -3.45, -0.23, -0.00
29.345203161239624, -2.38, 1.57, 0.96, 0.53, 1.42, -136.42, 90.00, 54.95, 30.31, 81.48, -0.00, -0.00, 0.00, -0.00, 0.00, 0.00, -4.45, -3.45, -0.23, -0.00
29.398203372955322, -2.38, 1.57, 0.96, 0.53, 1.42, -136.42, 90.00, 54.95, 30.31, 81.48, -0.00, -0.00, 0.00, -0.00, 0.00, 0.00, -4.45, -3.45, -0.23, -0.00
29.45680046081543, -2.38, 1.57, 0.96, 0.53, 1.42, -136.42, 90.00, 54.95, 30.31, 81.48, -0.00, -0.00, 0.00, -0.00, 0.00, 0.00, -4.45, -3.45, -0.23, -0.00
29.510995864868164, -2.38, 1.57, 0.96, 0.53, 1.42, -136.42, 90.00, 54.95, 30.31, 81.48, -0.00, -0.00, 0.00, -0.00, 0.00, 0.00, -4.45, -3.45, -0.23, -0.00
29.565290927886963, -2.38, 1.57, 0.96, 0.53, 1.42, -136.42, 90.00, 54.95, 30.31, 81.48, -0.00, -0.00, 0.00, -0.00, 0.00, 0.00, -4.45, -3.45, -0.23, -0.00
29.625285625457764, -2.38, 1.57, 0.96, 0.53, 1.42, -136.42, 90.00, 54.95, 30.31, 81.48, -0.00, -0.00, 0.00, -0.00, 0.00, 0.00, -4.45, -3.45, -0.23, -0.00
29.68728542327881, -2.38, 1.57, 0.96, 0.53, 1.42, -136.42, 90.00, 54.95, 30.31, 81.48, -0.00, -0.00, 0.00, -0.00, 0.00, 0.00, -4.45, -3.45, -0.23, -0.00
29.74628734588623, -2.38, 1.57, 0.96, 0.53, 1.42, -136.42, 90.00, 54.95, 30.31, 81.48, -0.00, -0.00, 0.00, -0.00, 0.00, 0.00, -4.45, -3.45, -0.23, -0.00
29.80128574371338, -2.38, 1.57, 0.96, 0.53, 1.42, -136.42, 90.00, 54.95, 30.31, 81.48, -0.00, -0.00, 0.00, -0.00, 0.00, 0.00, -4.45, -3.45, -0.23, -0.00
29.859286546707153, -2.38, 1.57, 0.96, 0.53, 1.42, -136.42, 90.00, 54.95, 30.31, 81.48, -0.00, -0.00, 0.00, -0.00, 0.00, 0.00, -4.45, -3.45, -0.23, -0.00
29.918487548828125, -2.38, 1.57, 0.96, 0.53, 1.42, -136.42, 90.00, 54.95, 30.31, 81.48, -0.00, -0.00, 0.00, -0.00, 0.00, 0.00, -4.45, -3.45, -0.23, -0.00
29.97748827934265, -2.38, 1.57, 0.96, 0.53, 1.42, -136.42, 90.00, 54.95, 30.31, 81.48, -0.00, -0.00, 0.00, -0.00, 0.00, 0.00, -4.45, -3.45, -0.23, -0.00
30.027778387069702, -2.38, 1.57, 0.96, 0.53, 1.42, -136.42, 90.00, 54.95, 30.31, 81.48, -0.00, -0.00, 0.00, -0.00, 0.00, 0.00, -4.45, -3.45, -0.23, -0.00
30.081854343414307, -2.38, 1.57, 0.96, 0.53, 1.42, -136.42, 90.00, 54.95, 30.31, 81.48, -0.00, -0.00, 0.00, -0.00, 0.00, 0.00, -4.45, -3.45, -0.23, -0.00
30.13982892036438, -2.38, 1.57, 0.96, 0.53, 1.42, -136.42, 90.00, 54.95, 30.31, 81.48, -0.00, -0.00, 0.00, -0.00, 0.00, 0.00, -4.45, -3.45, -0.23, -0.00
30.19398546218872, -2.38, 1.57, 0.96, 0.53, 1.42, -136.42, 90.00, 54.95, 30.31, 81.48, -0.00, -0.00, 0.00, -0.00, 0.00, 0.00, -4.45, -3.45, -0.23, -0.00
30.257721662521362, -2.38, 1.57, 0.96, 0.53, 1.42, -136.42, 90.00, 54.95, 30.31, 81.48, -0.00, -0.00, 0.00, -0.00, 0.00, 0.00, -4.45, -3.45, -0.23, -0.00
30.320513248443604, -2.38, 1.57, 0.96, 0.53, 1.42, -136.42, 90.00, 54.95, 30.31, 81.48, -0.00, -0.00, 0.00, -0.00, 0.00, 0.00, -4.45, -3.45, -0.23, -0.00
30.378499746322632, -2.38, 1.57, 0.96, 0.53, 1.42, -136.42, 90.00, 54.95, 30.31, 81.48, -0.00, -0.00, 0.00, -0.00, 0.00, 0.00, -4.45, -3.45, -0.23, -0.00
30.436498165130615, -2.38, 1.57, 0.96, 0.53, 1.42, -136.42, 90.00, 54.95, 30.31, 81.48, -0.00, -0.00, 0.00, -0.00, 0.00, 0.00, -4.45, -3.45, -0.23, -0.00
30.493497848510742, -2.38, 1.57, 0.96, 0.53, 1.42, -136.42, 90.00, 54.95, 30.31, 81.48, -0.00, -0.00, 0.00, -0.00, 0.00, 0.00, -4.45, -3.45, -0.23, -0.00
30.550498723983765, -2.38, 1.57, 0.96, 0.53, 1.42, -136.42, 90.00, 54.95, 30.31, 81.48, -0.00, -0.00, 0.00, -0.00, 0.00, 0.00, -4.45, -3.45, -0.23, -0.00
30.614500522613525, -2.38, 1.57, 0.96, 0.53, 1.42, -136.42, 90.00, 54.95, 30.31, 81.48, -0.00, -0.00, 0.00, -0.00, 0.00, 0.00, -4.45, -3.45, -0.23, -0.00
30.670498371124268, -2.38, 1.57, 0.96, 0.53, 1.42, -136.42, 90.00, 54.95, 30.31, 81.48, -0.00, -0.00, 0.00, -0.00, 0.00, 0.00, -4.45, -3.45, -0.23, -0.00
30.732500553131104, -2.38, 1.57, 0.96, 0.53, 1.42, -136.42, 90.00, 54.95, 30.31, 81.48, -0.00, -0.00, 0.00, -0.00, 0.00, 0.00, -4.45, -3.45, -0.23, -0.00
30.790778398513794, -2.38, 1.57, 0.96, 0.53, 1.42, -136.42, 90.00, 54.95, 30.31, 81.48, -0.00, -0.00, 0.00, -0.00, 0.00, 0.00, -4.45, -3.45, -0.23, -0.00
30.85472869873047, -2.38, 1.57, 0.96, 0.53, 1.42, -136.42, 90.00, 54.95, 30.31, 81.48, -0.00, -0.00, 0.00, -0.00, 0.00, 0.00, -4.45, -3.45, -0.23, -0.00
30.914649963378906, -2.38, 1.57, 0.96, 0.53, 1.42, -136.42, 90.00, 54.95, 30.31, 81.48, -0.00, -0.00, 0.00, -0.00, 0.00, 0.00, -4.45, -3.45, -0.23, -0.00
30.96965003013611, -2.38, 1.57, 0.96, 0.53, 1.42, -136.42, 90.00, 54.95, 30.31, 81.48, -0.00, -0.00, 0.00, -0.00, 0.00, 0.00, -4.45, -3.45, -0.23, -0.00
31.026650190353394, -2.38, 1.57, 0.96, 0.53, 1.42, -136.42, 90.00, 54.95, 30.31, 81.48, -0.00, -0.00, 0.00, -0.00, 0.00, 0.00, -4.45, -3.45, -0.23, -0.00
31.080649852752686, -2.38, 1.57, 0.96, 0.53, 1.42, -136.42, 90.00, 54.95, 30.31, 81.48, -0.00, -0.00, 0.00, -0.00, 0.00, 0.00, -4.45, -3.45, -0.23, -0.00
31.13165044784546, -2.38, 1.57, 0.96, 0.53, 1.42, -136.42, 90.00, 54.95, 30.31, 81.48, -0.00, -0.00, 0.00, -0.00, 0.00, 0.00, -4.45, -3.45, -0.23, -0.00
31.189650058746338, -2.38, 1.57, 0.96, 0.53, 1.42, -136.42, 90.00, 54.95, 30.31, 81.48, -0.00, -0.00, 0.00, -0.00, 0.00, 0.00, -4.45, -3.45, -0.23, -0.00
31.25474977493286, -2.38, 1.57, 0.96, 0.53, 1.42, -136.42, 90.00, 54.95, 30.31, 81.48, -0.00, -0.00, 0.00, -0.00, 0.00, 0.00, -4.45, -3.45, -0.23, -0.00
31.314181804656982, -2.38, 1.57, 0.96, 0.53, 1.42, -136.42, 90.00, 54.95, 30.31, 81.48, -0.00, -0.00, 0.00, -0.00, 0.00, 0.00, -4.45, -3.45, -0.23, -0.00
31.371938705444336, -2.38, 1.57, 0.96, 0.53, 1.42, -136.42, 90.00, 54.95, 30.31, 81.48, -0.00, -0.00, 0.00, -0.00, 0.00, 0.00, -4.45, -3.45, -0.23, -0.00
31.43693447113037, -2.38, 1.57, 0.96, 0.53, 1.42, -136.42, 90.00, 54.95, 30.31, 81.48, -0.00, -0.00, 0.00, -0.00, 0.00, 0.00, -4.45, -3.45, -0.23, -0.00
31.493820667266846, -2.38, 1.57, 0.96, 0.53, 1.42, -136.42, 90.00, 54.95, 30.31, 81.48, -0.00, -0.00, 0.00, -0.00, 0.00, 0.00, -4.45, -3.45, -0.23, -0.00
31.55767035484314, -2.38, 1.57, 0.96, 0.53, 1.42, -136.42, 90.00, 54.95, 30.31, 81.48, -0.00, -0.00, 0.00, -0.00, 0.00, 0.00, -4.45, -3.45, -0.23, -0.00
31.651660442352295, -2.38, 1.57, 0.96, 0.53, 1.42, -136.42, 90.00, 54.95, 30.31, 81.48, -0.00, -0.00, 0.00, -0.00, 0.00, 0.00, -4.45, -3.45, -0.23, -0.00
31.712657690048218, -2.38, 1.57, 0.96, 0.53, 1.42, -136.42, 90.00, 54.95, 30.31, 81.48, -0.00, -0.00, 0.00, -0.00, 0.00, 0.00, -4.45, -3.45, -0.23, -0.00
31.771658182144165, -2.38, 1.57, 0.96, 0.53, 1.42, -136.42, 90.00, 54.95, 30.31, 81.48, -0.00, -0.00, 0.00, -0.00, 0.00, 0.00, -4.45, -3.45, -0.23, -0.00
31.824658632278442, -2.38, 1.57, 0.96, 0.53, 1.42, -136.42, 90.00, 54.95, 30.31, 81.48, -0.00, -0.00, 0.00, -0.00, 0.00, 0.00, -4.45, -3.45, -0.23, -0.00
31.884658098220825, -2.38, 1.57, 0.96, 0.53, 1.42, -136.42, 90.00, 54.95, 30.31, 81.48, -0.00, -0.00, 0.00, -0.00, 0.00, 0.00, -4.45, -3.45, -0.23, -0.00
31.936657905578613, -2.38, 1.57, 0.96, 0.53, 1.42, -136.42, 90.00, 54.95, 30.31, 81.48, -0.00, -0.00, 0.00, -0.00, 0.00, 0.00, -4.45, -3.45, -0.23, -0.00
31.991657972335815, -2.38, 1.57, 0.96, 0.53, 1.42, -136.42, 90.00, 54.95, 30.31, 81.48, -0.00, -0.00, 0.00, -0.00, 0.00, 0.00, -4.45, -3.45, -0.23, -0.00
32.04365801811218, -2.38, 1.57, 0.96, 0.53, 1.42, -136.42, 90.00, 54.95, 30.31, 81.48, -0.00, -0.00, 0.00, -0.00, 0.00, 0.00, -4.45, -3.45, -0.23, -0.00
32.094658851623535, -2.38, 1.57, 0.96, 0.53, 1.42, -136.42, 90.00, 54.95, 30.31, 81.48, -0.00, -0.00, 0.00, -0.00, 0.00, 0.00, -4.45, -3.45, -0.23, -0.00
32.1486599445343, -2.38, 1.57, 0.96, 0.53, 1.42, -136.42, 90.00, 54.95, 30.31, 81.48, -0.00, -0.00, 0.00, -0.00, 0.00, 0.00, -4.45, -3.45, -0.23, -0.00
32.205658197402954, -2.38, 1.57, 0.96, 0.53, 1.42, -136.42, 90.00, 54.95, 30.31, 81.48, -0.00, -0.00, 0.00, -0.00, 0.00, 0.00, -4.45, -3.45, -0.23, -0.00
32.26465821266174, -2.38, 1.57, 0.96, 0.53, 1.42, -136.42, 90.00, 54.95, 30.31, 81.48, -0.00, -0.00, 0.00, -0.00, 0.00, 0.00, -4.45, -3.45, -0.23, -0.00
32.319554567337036, -2.38, 1.57, 0.96, 0.53, 1.42, -136.42, 90.00, 54.95, 30.31, 81.48, -0.00, -0.00, 0.00, -0.00, 0.00, 0.00, -4.45, -3.45, -0.23, -0.00
32.375550270080566, -2.38, 1.57, 0.96, 0.53, 1.42, -136.42, 90.00, 54.95, 30.31, 81.48, -0.00, -0.00, 0.00, -0.00, 0.00, 0.00, -4.45, -3.45, -0.23, -0.00
32.429551124572754, -2.38, 1.57, 0.96, 0.53, 1.42, -136.42, 90.00, 54.95, 30.31, 81.48, -0.00, -0.00, 0.00, -0.00, 0.00, 0.00, -4.45, -3.45, -0.23, -0.00
32.48755168914795, -2.38, 1.57, 0.96, 0.53, 1.42, -136.42, 90.00, 54.95, 30.31, 81.48, -0.00, -0.00, 0.00, -0.00, 0.00, 0.00, -4.45, -3.45, -0.23, -0.00
32.54155135154724, -2.38, 1.57, 0.96, 0.53, 1.42, -136.42, 90.00, 54.95, 30.31, 81.48, -0.00, -0.00, 0.00, -0.00, 0.00, 0.00, -4.45, -3.45, -0.23, -0.00
32.59446859359741, -2.38, 1.57, 0.96, 0.53, 1.42, -136.42, 90.00, 54.95, 30.31, 81.48, -0.00, -0.00, 0.00, -0.00, 0.00, 0.00, -4.45, -3.45, -0.23, -0.00
32.64946675300598, -2.38, 1.57, 0.96, 0.53, 1.42, -136.42, 90.00, 54.95, 30.31, 81.48, -0.00, -0.00, 0.00, -0.00, 0.00, 0.00, -4.45, -3.45, -0.23, -0.00
32.713136196136475, -2.38, 1.57, 0.96, 0.53, 1.42, -136.42, 90.00, 54.95, 30.31, 81.48, -0.00, -0.00, 0.00, -0.00, 0.00, 0.00, -4.45, -3.45, -0.23, -0.00
32.77313566207886, -2.38, 1.57, 0.96, 0.53, 1.42, -136.42, 90.00, 54.95, 30.31, 81.48, -0.00, -0.00, 0.00, -0.00, 0.00, 0.00, -4.45, -3.45, -0.23, -0.00
32.82449245452881, -2.38, 1.57, 0.96, 0.53, 1.42, -136.42, 90.00, 54.95, 30.31, 81.48, -0.00, -0.00, 0.00, -0.00, 0.00, 0.00, -4.45, -3.45, -0.23, -0.00
32.88129782676697, -2.38, 1.57, 0.96, 0.53, 1.42, -136.42, 90.00, 54.95, 30.31, 81.48, -0.00, -0.00, 0.00, -0.00, 0.00, 0.00, -4.45, -3.45, -0.23, -0.00
32.944175481796265, -2.38, 1.57, 0.96, 0.53, 1.42, -136.42, 90.00, 54.95, 30.31, 81.48, -0.00, -0.00, 0.00, -0.00, 0.00, 0.00, -4.45, -3.45, -0.23, -0.00
33.00414228439331, -2.38, 1.57, 0.96, 0.53, 1.42, -136.42, 90.00, 54.95, 30.31, 81.48, -0.00, -0.00, 0.00, -0.00, 0.00, 0.00, -4.45, -3.45, -0.23, -0.00
33.06724405288696, -2.38, 1.57, 0.96, 0.53, 1.42, -136.42, 90.00, 54.95, 30.31, 81.48, -0.00, -0.00, 0.00, -0.00, 0.00, 0.00, -4.45, -3.45, -0.23, -0.00
33.12304353713989, -2.38, 1.57, 0.96, 0.53, 1.42, -136.42, 90.00, 54.95, 30.31, 81.48, -0.00, -0.00, 0.00, -0.00, 0.00, 0.00, -4.45, -3.45, -0.23, -0.00
33.17804217338562, -2.38, 1.57, 0.96, 0.53, 1.42, -136.42, 90.00, 54.95, 30.31, 81.48, -0.00, -0.00, 0.00, -0.00, 0.00, 0.00, -4.45, -3.45, -0.23, -0.00
33.229811668395996, -2.38, 1.57, 0.96, 0.53, 1.42, -136.42, 90.00, 54.95, 30.31, 81.48, -0.00, -0.00, 0.00, -0.00, 0.00, 0.00, -4.45, -3.45, -0.23, -0.00
33.2798113822937, -2.38, 1.57, 0.96, 0.53, 1.42, -136.42, 90.00, 54.95, 30.31, 81.48, -0.00, -0.00, 0.00, -0.00, 0.00, 0.00, -4.45, -3.45, -0.23, -0.00
33.33281064033508, -2.38, 1.57, 0.96, 0.53, 1.42, -136.42, 90.00, 54.95, 30.31, 81.48, -0.00, -0.00, 0.00, -0.00, 0.00, 0.00, -4.45, -3.45, -0.23, -0.00
33.38681101799011, -2.38, 1.57, 0.96, 0.53, 1.42, -136.42, 90.00, 54.95, 30.31, 81.48, -0.00, -0.00, 0.00, -0.00, 0.00, 0.00, -4.45, -3.45, -0.23, -0.00
33.461334228515625, -2.38, 1.57, 0.96, 0.53, 1.42, -136.42, 90.00, 54.95, 30.31, 81.48, -0.00, -0.00, 0.00, -0.00, 0.00, 0.00, -4.45, -3.45, -0.23, -0.00
33.519848585128784, -2.38, 1.57, 0.96, 0.53, 1.42, -136.42, 90.00, 54.95, 30.31, 81.48, -0.00, -0.00, 0.00, -0.00, 0.00, 0.00, -4.45, -3.45, -0.23, -0.00
33.57684898376465, -2.38, 1.57, 0.96, 0.53, 1.42, -136.42, 90.00, 54.95, 30.31, 81.48, -0.00, -0.00, 0.00, -0.00, 0.00, 0.00, -4.45, -3.45, -0.23, -0.00
33.633854150772095, -2.38, 1.57, 0.96, 0.53, 1.42, -136.42, 90.00, 54.95, 30.31, 81.48, -0.00, -0.00, 0.00, -0.00, 0.00, 0.00, -4.45, -3.45, -0.23, -0.00
33.696096420288086, -2.38, 1.57, 0.96, 0.53, 1.42, -136.42, 90.00, 54.95, 30.31, 81.48, -0.00, -0.00, 0.00, -0.00, 0.00, 0.00, -4.45, -3.45, -0.23, -0.00
33.75698709487915, -2.38, 1.57, 0.96, 0.53, 1.42, -136.42, 90.00, 54.95, 30.31, 81.48, -0.00, -0.00, 0.00, -0.00, 0.00, 0.00, -4.45, -3.45, -0.23, -0.00
33.810986042022705, -2.38, 1.57, 0.96, 0.53, 1.42, -136.42, 90.00, 54.95, 30.31, 81.48, -0.00, -0.00, 0.00, -0.00, 0.00, 0.00, -4.45, -3.45, -0.23, -0.00
33.87198853492737, -2.38, 1.57, 0.96, 0.53, 1.42, -136.42, 90.00, 54.95, 30.31, 81.48, -0.00, -0.00, 0.00, -0.00, 0.00, 0.00, -4.45, -3.45, -0.23, -0.00
33.93298578262329, -2.38, 1.57, 0.96, 0.53, 1.42, -136.42, 90.00, 54.95, 30.31, 81.48, -0.00, -0.00, 0.00, -0.00, 0.00, 0.00, -4.45, -3.45, -0.23, -0.00
33.99098539352417, -2.38, 1.57, 0.96, 0.53, 1.42, -136.42, 90.00, 54.95, 30.31, 81.48, -0.00, -0.00, 0.00, -0.00, 0.00, 0.00, -4.45, -3.45, -0.23, -0.00
34.04898643493652, -2.38, 1.57, 0.96, 0.53, 1.42, -136.42, 90.00, 54.95, 30.31, 81.48, -0.00, -0.00, 0.00, -0.00, 0.00, 0.00, -4.45, -3.45, -0.23, -0.00
34.101985692977905, -2.38, 1.57, 0.96, 0.53, 1.42, -136.42, 90.00, 54.95, 30.31, 81.48, -0.00, -0.00, 0.00, -0.00, 0.00, 0.00, -4.45, -3.45, -0.23, -0.00
34.15900135040283, -2.38, 1.57, 0.96, 0.53, 1.42, -136.42, 90.00, 54.95, 30.31, 81.48, -0.00, -0.00, 0.00, -0.00, 0.00, 0.00, -4.45, -3.45, -0.23, -0.00
34.217002868652344, -2.38, 1.57, 0.96, 0.53, 1.42, -136.42, 90.00, 54.95, 30.31, 81.48, -0.00, -0.00, 0.00, -0.00, 0.00, 0.00, -4.45, -3.45, -0.23, -0.00
34.271000385284424, -2.38, 1.57, 0.96, 0.53, 1.42, -136.42, 90.00, 54.95, 30.31, 81.48, -0.00, -0.00, 0.00, -0.00, 0.00, 0.00, -4.45, -3.45, -0.23, -0.00
34.328001737594604, -2.38, 1.57, 0.96, 0.53, 1.42, -136.42, 90.00, 54.95, 30.31, 81.48, -0.00, -0.00, 0.00, -0.00, 0.00, 0.00, -4.45, -3.45, -0.23, -0.00
34.39087629318237, -2.38, 1.57, 0.96, 0.53, 1.42, -136.42, 90.00, 54.95, 30.31, 81.48, -0.00, -0.00, 0.00, -0.00, 0.00, 0.00, -4.45, -3.45, -0.23, -0.00
34.454874992370605, -2.38, 1.57, 0.96, 0.53, 1.42, -136.42, 90.00, 54.95, 30.31, 81.48, -0.00, -0.00, 0.00, -0.00, 0.00, 0.00, -4.45, -3.45, -0.23, -0.00
34.51287221908569, -2.38, 1.57, 0.96, 0.53, 1.42, -136.42, 90.00, 54.95, 30.31, 81.48, -0.00, -0.00, 0.00, -0.00, 0.00, 0.00, -4.45, -3.45, -0.23, -0.00
34.56642818450928, -2.38, 1.57, 0.96, 0.53, 1.42, -136.42, 90.00, 54.95, 30.31, 81.48, -0.00, -0.00, 0.00, -0.00, 0.00, 0.00, -4.45, -3.45, -0.23, -0.00
34.620426416397095, -2.38, 1.57, 0.96, 0.53, 1.42, -136.42, 90.00, 54.95, 30.31, 81.48, -0.00, -0.00, 0.00, -0.00, 0.00, 0.00, -4.45, -3.45, -0.23, -0.00
34.68147134780884, -2.38, 1.57, 0.96, 0.53, 1.42, -136.42, 90.00, 54.95, 30.31, 81.48, -0.00, -0.00, 0.00, -0.00, 0.00, 0.00, -4.45, -3.45, -0.23, -0.00
34.7410101890564, -2.38, 1.57, 0.96, 0.53, 1.42, -136.42, 90.00, 54.95, 30.31, 81.48, -0.00, -0.00, 0.00, -0.00, 0.00, 0.00, -4.45, -3.45, -0.23, -0.00
34.794546365737915, -2.38, 1.57, 0.96, 0.53, 1.42, -136.42, 90.00, 54.95, 30.31, 81.48, -0.00, -0.00, 0.00, -0.00, 0.00, 0.00, -4.45, -3.45, -0.23, -0.00
34.864548206329346, -2.38, 1.57, 0.96, 0.53, 1.42, -136.42, 90.00, 54.95, 30.31, 81.48, -0.00, -0.00, 0.00, -0.00, 0.00, 0.00, -4.45, -3.45, -0.23, -0.00
34.92458152770996, -2.38, 1.57, 0.96, 0.53, 1.42, -136.42, 90.00, 54.95, 30.31, 81.48, -0.00, -0.00, 0.00, -0.00, 0.00, 0.00, -4.45, -3.45, -0.23, -0.00
34.98558187484741, -2.38, 1.57, 0.96, 0.53, 1.42, -136.42, 90.00, 54.95, 30.31, 81.48, -0.00, -0.00, 0.00, -0.00, 0.00, 0.00, -4.45, -3.45, -0.23, -0.00
35.038585901260376, -2.38, 1.57, 0.96, 0.53, 1.42, -136.42, 90.00, 54.95, 30.31, 81.48, -0.00, -0.00, 0.00, -0.00, 0.00, 0.00, -4.45, -3.45, -0.23, -0.00
35.09758138656616, -2.38, 1.57, 0.96, 0.53, 1.42, -136.42, 90.00, 54.95, 30.31, 81.48, -0.00, -0.00, 0.00, -0.00, 0.00, 0.00, -4.45, -3.45, -0.23, -0.00
35.15464162826538, -2.38, 1.57, 0.96, 0.53, 1.42, -136.42, 90.00, 54.95, 30.31, 81.48, -0.00, -0.00, 0.00, -0.00, 0.00, 0.00, -4.45, -3.45, -0.23, -0.00
35.21938371658325, -2.38, 1.57, 0.96, 0.53, 1.42, -136.42, 90.00, 54.95, 30.31, 81.48, -0.00, -0.00, 0.00, -0.00, 0.00, 0.00, -4.45, -3.45, -0.23, -0.00
35.28638315200806, -2.38, 1.57, 0.96, 0.53, 1.42, -136.42, 90.00, 54.95, 30.31, 81.48, -0.00, -0.00, 0.00, -0.00, 0.00, 0.00, -4.45, -3.45, -0.23, 0.00
35.34794020652771, -2.38, 1.57, 0.96, 0.53, 1.42, -136.42, 90.00, 54.95, 30.31, 81.48, -0.00, -0.00, 0.00, -0.00, 0.00, 0.00, -4.45, -3.45, -0.23, 0.00
35.40494132041931, -2.38, 1.57, 0.96, 0.53, 1.42, -136.42, 90.00, 54.95, 30.31, 81.48, -0.00, -0.00, 0.00, -0.00, 0.00, 0.00, -4.45, -3.45, -0.23, 0.00
35.462706565856934, -2.38, 1.57, 0.96, 0.53, 1.42, -136.42, 90.00, 54.95, 30.31, 81.48, -0.00, -0.00, 0.00, -0.00, 0.00, 0.00, -4.45, -3.45, -0.23, 0.00
35.52470636367798, -2.38, 1.57, 0.96, 0.53, 1.42, -136.42, 90.00, 54.95, 30.31, 81.48, -0.00, -0.00, 0.00, -0.00, 0.00, 0.00, -4.45, -3.45, -0.23, 0.00
35.58470559120178, -2.38, 1.57, 0.96, 0.53, 1.42, -136.42, 90.00, 54.95, 30.31, 81.48, -0.00, -0.00, 0.00, -0.00, 0.00, 0.00, -4.45, -3.45, -0.23, 0.00
35.64370560646057, -2.38, 1.57, 0.96, 0.53, 1.42, -136.42, 90.00, 54.95, 30.31, 81.48, -0.00, -0.00, 0.00, -0.00, 0.00, 0.00, -4.45, -3.45, -0.23, 0.00
35.699705362319946, -2.38, 1.57, 0.96, 0.53, 1.42, -136.42, 90.00, 54.95, 30.31, 81.48, -0.00, -0.00, 0.00, -0.00, 0.00, 0.00, -4.45, -3.45, -0.23, 0.00
35.76070857048035, -2.38, 1.57, 0.96, 0.53, 1.42, -136.42, 90.00, 54.95, 30.31, 81.48, -0.00, -0.00, 0.00, -0.00, 0.00, 0.00, -4.45, -3.45, -0.23, 0.00
35.82482147216797, -2.38, 1.57, 0.96, 0.53, 1.42, -136.42, 90.00, 54.95, 30.31, 81.48, -0.00, -0.00, 0.00, -0.00, 0.00, 0.00, -4.45, -3.45, -0.23, 0.00
35.89280939102173, -2.38, 1.57, 0.96, 0.53, 1.42, -136.42, 90.00, 54.95, 30.31, 81.48, -0.00, -0.00, 0.00, -0.00, 0.00, 0.00, -4.45, -3.45, -0.23, 0.00
35.95180702209473, -2.38, 1.57, 0.96, 0.53, 1.42, -136.42, 90.00, 54.95, 30.31, 81.48, -0.00, -0.00, 0.00, -0.00, 0.00, 0.00, -4.45, -3.45, -0.23, 0.00
36.016807556152344, -2.38, 1.57, 0.96, 0.53, 1.42, -136.42, 90.00, 54.95, 30.31, 81.48, -0.00, -0.00, 0.00, -0.00, 0.00, 0.00, -4.45, -3.45, -0.23, 0.00
36.07280921936035, -2.38, 1.57, 0.96, 0.53, 1.42, -136.42, 90.00, 54.95, 30.31, 81.48, -0.00, -0.00, 0.00, -0.00, 0.00, 0.00, -4.45, -3.45, -0.23, 0.00
36.1288115978241, -2.38, 1.57, 0.96, 0.53, 1.42, -136.42, 90.00, 54.95, 30.31, 81.48, -0.00, -0.00, 0.00, -0.00, 0.00, 0.00, -4.45, -3.45, -0.23, 0.00
36.188321352005005, -2.38, 1.57, 0.96, 0.53, 1.42, -136.42, 90.00, 54.95, 30.31, 81.48, -0.00, -0.00, 0.00, -0.00, 0.00, 0.00, -4.45, -3.45, -0.23, 0.00
36.24832105636597, -2.38, 1.57, 0.96, 0.53, 1.42, -136.42, 90.00, 54.95, 30.31, 81.48, -0.00, -0.00, 0.00, -0.00, 0.00, 0.00, -4.45, -3.45, -0.23, 0.00
36.30831956863403, -2.38, 1.57, 0.96, 0.53, 1.42, -136.42, 90.00, 54.95, 30.31, 81.48, -0.00, -0.00, 0.00, -0.00, 0.00, 0.00, -4.45, -3.45, -0.23, 0.00
