sulimanbadour1/Project_S/control/InverseKinematics/robot_joint_data.csv
Time, Joint 1 Angle (Rad), Joint 2 Angle (Rad), Joint 3 Angle (Rad), Joint 4 Angle (Rad), Joint 5 Angle (Rad), Joint 1 Angle (Deg), Joint 2 Angle (Deg), Joint 3 Angle (Deg), Joint 4 Angle (Deg), Joint 5 Angle (Deg), Joint 1 Vel, Joint 2 Vel, Joint 3 Vel, Joint 4 Vel, Joint 5 Vel, Joint 1 Eff, Joint 2 Eff, Joint 3 Eff, Joint 4 Eff, Joint 5 Eff
0.0, -3.14, 1.57, 0.96, 0.53, 1.42, -179.91, 89.95, 54.95, 30.31, 81.47, 0.00, 0.00, 0.00, -0.00, 0.00, 0.00, -12.56, -3.60, -0.21, 0.00
0.05351686477661133, -3.14, 1.57, 0.96, 0.53, 1.42, -179.91, 89.95, 54.95, 30.31, 81.47, -0.00, 0.00, 0.00, -0.00, 0.00, -0.00, -12.71, -3.71, -0.25, -0.00
0.10303306579589844, -3.14, 1.57, 0.96, 0.53, 1.42, -179.91, 89.95, 54.95, 30.31, 81.48, -0.00, 0.00, 0.00, -0.00, 0.00, 0.00, -12.71, -3.71, -0.25, -0.00
0.1540834903717041, -3.14, 1.57, 0.96, 0.53, 1.42, -179.91, 89.95, 54.95, 30.31, 81.48, -0.00, 0.00, 0.00, -0.00, 0.00, 0.00, -12.71, -3.71, -0.25, -0.00
0.20306801795959473, -3.14, 1.57, 0.96, 0.53, 1.42, -179.91, 89.95, 54.95, 30.31, 81.48, -0.00, 0.00, 0.00, -0.00, 0.00, 0.00, -12.71, -3.71, -0.25, -0.00
0.2530646324157715, -3.14, 1.57, 0.96, 0.53, 1.42, -179.91, 89.95, 54.95, 30.31, 81.48, -0.00, 0.00, 0.00, -0.00, 0.00, 0.00, -12.71, -3.71, -0.25, -0.00
0.3047361373901367, -3.14, 1.57, 0.96, 0.53, 1.42, -179.91, 89.95, 54.95, 30.31, 81.48, -0.00, 0.00, 0.00, -0.00, 0.00, 0.00, -12.71, -3.71, -0.25, -0.00
0.35573577880859375, -3.14, 1.57, 0.96, 0.53, 1.42, -179.91, 89.95, 54.95, 30.31, 81.48, -0.00, 0.00, 0.00, -0.00, 0.00, 0.00, -12.71, -3.71, -0.25, -0.00
0.4007375240325928, -3.14, 1.57, 0.96, 0.53, 1.42, -179.91, 89.95, 54.95, 30.31, 81.48, -0.00, 0.00, 0.00, -0.00, 0.00, 0.00, -12.71, -3.71, -0.25, -0.00
0.4457380771636963, -3.14, 1.57, 0.96, 0.53, 1.42, -179.91, 89.95, 54.95, 30.31, 81.48, -0.00, 0.00, 0.00, -0.00, 0.00, 0.00, -12.71, -3.70, -0.25, -0.00
0.4907355308532715, -3.14, 1.57, 0.96, 0.53, 1.42, -179.91, 89.95, 54.95, 30.31, 81.48, -0.00, 0.00, 0.00, -0.00, 0.00, 0.00, -12.71, -3.70, -0.25, -0.00
0.5377378463745117, -3.14, 1.57, 0.96, 0.53, 1.42, -179.91, 89.95, 54.95, 30.31, 81.48, -0.00, 0.00, 0.00, -0.00, 0.00, 0.00, -12.71, -3.70, -0.25, -0.00
0.5837349891662598, -3.14, 1.57, 0.96, 0.53, 1.42, -179.91, 89.95, 54.95, 30.31, 81.48, -0.00, 0.00, 0.00, -0.00, 0.00, 0.00, -12.70, -3.70, -0.25, -0.00
0.6327354907989502, -3.14, 1.57, 0.96, 0.53, 1.42, -179.91, 89.95, 54.95, 30.31, 81.48, -0.00, 0.00, 0.00, -0.00, 0.00, 0.00, -12.70, -3.70, -0.25, -0.00
0.6827352046966553, -3.14, 1.57, 0.96, 0.53, 1.42, -179.91, 89.95, 54.95, 30.31, 81.48, -0.00, 0.00, 0.00, -0.00, 0.00, 0.00, -12.70, -3.70, -0.25, -0.00
0.7297351360321045, -3.14, 1.57, 0.96, 0.53, 1.42, -179.91, 89.95, 54.95, 30.31, 81.48, -0.00, 0.00, 0.00, -0.00, 0.00, 0.00, -12.70, -3.70, -0.25, -0.00
0.7768867015838623, -3.14, 1.57, 0.96, 0.53, 1.42, -179.91, 89.95, 54.95, 30.31, 81.48, -0.00, 0.00, 0.00, -0.00, 0.00, 0.00, -12.70, -3.70, -0.25, -0.00
0.8255233764648438, -3.14, 1.57, 0.96, 0.53, 1.42, -179.91, 89.95, 54.95, 30.31, 81.48, -0.00, 0.00, 0.00, -0.00, 0.00, 0.00, -12.70, -3.70, -0.25, -0.00
0.8719072341918945, -3.14, 1.57, 0.96, 0.53, 1.42, -179.91, 89.95, 54.95, 30.31, 81.48, -0.00, 0.00, 0.00, -0.00, 0.00, 0.00, -12.70, -3.70, -0.25, -0.00
0.9170925617218018, -3.14, 1.57, 0.96, 0.53, 1.42, -179.91, 89.95, 54.95, 30.31, 81.48, -0.00, 0.00, 0.00, -0.00, 0.00, 0.00, -12.70, -3.70, -0.25, -0.00
0.9590930938720703, -3.14, 1.57, 0.96, 0.53, 1.42, -179.91, 89.95, 54.95, 30.31, 81.48, -0.00, 0.00, 0.00, -0.00, 0.00, 0.00, -12.70, -3.70, -0.25, -0.00
1.0052869319915771, -3.14, 1.57, 0.96, 0.53, 1.42, -179.91, 89.95, 54.95, 30.31, 81.48, -0.00, 0.00, 0.00, -0.00, 0.00, 0.00, -12.70, -3.70, -0.25, -0.00
1.0572876930236816, -3.14, 1.57, 0.96, 0.53, 1.42, -179.91, 89.95, 54.95, 30.31, 81.48, -0.00, 0.00, 0.00, -0.00, 0.00, 0.00, -12.70, -3.70, -0.25, -0.00
1.1072864532470703, -3.14, 1.57, 0.96, 0.53, 1.42, -179.91, 89.95, 54.95, 30.31, 81.48, -0.00, 0.00, 0.00, -0.00, 0.00, 0.00, -12.70, -3.70, -0.25, -0.00
1.1562864780426025, -3.14, 1.57, 0.96, 0.53, 1.42, -179.91, 89.95, 54.95, 30.31, 81.48, -0.00, 0.00, 0.00, -0.00, 0.00, 0.00, -12.70, -3.70, -0.25, -0.00
1.2052865028381348, -3.14, 1.57, 0.96, 0.53, 1.42, -179.91, 89.95, 54.95, 30.31, 81.48, -0.00, 0.00, 0.00, -0.00, 0.00, 0.00, -12.70, -3.70, -0.25, -0.00
1.2558987140655518, -3.14, 1.57, 0.96, 0.53, 1.42, -179.91, 89.95, 54.95, 30.31, 81.48, -0.00, 0.00, 0.00, -0.00, 0.00, 0.00, -12.70, -3.70, -0.25, -0.00
1.302260398864746, -3.14, 1.57, 0.96, 0.53, 1.42, -179.91, 89.95, 54.95, 30.31, 81.48, -0.00, 0.00, 0.00, -0.00, 0.00, 0.00, -12.70, -3.70, -0.25, -0.00
1.3522591590881348, -3.14, 1.57, 0.96, 0.53, 1.42, -179.91, 89.95, 54.95, 30.31, 81.48, -0.00, 0.00, 0.00, -0.00, 0.00, 0.00, -12.70, -3.70, -0.25, -0.00
1.3982775211334229, -3.14, 1.57, 0.96, 0.53, 1.42, -179.91, 89.95, 54.95, 30.31, 81.48, -0.00, 0.00, 0.00, -0.00, 0.00, 0.00, -12.70, -3.70, -0.25, -0.00
1.4432580471038818, -3.14, 1.57, 0.96, 0.53, 1.42, -179.91, 89.95, 54.95, 30.31, 81.48, -0.00, 0.00, 0.00, -0.00, 0.00, 0.00, -12.70, -3.70, -0.25, -0.00
1.5002601146697998, -3.14, 1.57, 0.96, 0.53, 1.42, -179.91, 89.95, 54.95, 30.31, 81.48, -0.00, 0.00, 0.00, -0.00, 0.00, 0.00, -12.70, -3.70, -0.25, -0.00
1.553257703781128, -3.14, 1.57, 0.96, 0.53, 1.42, -179.91, 89.95, 54.95, 30.31, 81.48, -0.00, 0.00, 0.00, -0.00, 0.00, 0.00, -12.70, -3.70, -0.25, -0.00
1.5972576141357422, -3.14, 1.57, 0.96, 0.53, 1.42, -179.91, 89.95, 54.95, 30.31, 81.48, -0.00, 0.00, 0.00, -0.00, 0.00, 0.00, -12.70, -3.70, -0.25, -0.00
1.6462583541870117, -3.14, 1.57, 0.96, 0.53, 1.42, -179.91, 89.95, 54.95, 30.31, 81.48, -0.00, 0.00, 0.00, -0.00, 0.00, 0.00, -12.70, -3.70, -0.25, -0.00
1.69925856590271, -3.14, 1.57, 0.96, 0.53, 1.42, -179.91, 89.95, 54.95, 30.31, 81.48, -0.00, 0.00, 0.00, -0.00, 0.00, 0.00, -12.70, -3.70, -0.25, -0.00
1.7462608814239502, -3.14, 1.57, 0.96, 0.53, 1.42, -179.91, 89.95, 54.95, 30.31, 81.48, -0.00, 0.00, 0.00, -0.00, 0.00, 0.00, -12.70, -3.70, -0.25, -0.00
1.7912580966949463, -3.14, 1.57, 0.96, 0.53, 1.42, -179.91, 89.95, 54.95, 30.31, 81.48, -0.00, 0.00, 0.00, -0.00, 0.00, 0.00, -12.70, -3.70, -0.25, -0.00
1.8432602882385254, -3.14, 1.57, 0.96, 0.53, 1.42, -179.91, 89.95, 54.95, 30.31, 81.48, -0.00, 0.00, 0.00, -0.00, 0.00, 0.00, -12.70, -3.70, -0.25, -0.00
1.8882591724395752, -3.14, 1.57, 0.96, 0.53, 1.42, -179.91, 89.95, 54.95, 30.31, 81.48, -0.00, 0.00, 0.00, -0.00, 0.00, 0.00, -12.70, -3.70, -0.25, -0.00
1.93626070022583, -3.14, 1.57, 0.96, 0.53, 1.42, -179.91, 89.95, 54.95, 30.31, 81.48, -0.00, 0.00, 0.00, -0.00, 0.00, 0.00, -12.70, -3.70, -0.25, -0.00
1.986257791519165, -3.14, 1.57, 0.96, 0.53, 1.42, -179.91, 89.95, 54.95, 30.31, 81.48, -0.00, 0.00, 0.00, -0.00, 0.00, 0.00, -12.70, -3.70, -0.25, -0.00
2.0392580032348633, -3.14, 1.57, 0.96, 0.53, 1.42, -179.91, 89.95, 54.95, 30.31, 81.48, -0.00, 0.00, 0.00, -0.00, 0.00, 0.00, -12.70, -3.70, -0.25, -0.00
2.0917410850524902, -3.14, 1.57, 0.96, 0.53, 1.42, -179.91, 89.95, 54.95, 30.31, 81.48, -0.00, 0.00, 0.00, -0.00, 0.00, 0.00, -12.70, -3.70, -0.25, -0.00
2.1377155780792236, -3.14, 1.57, 0.96, 0.53, 1.42, -179.91, 89.95, 54.95, 30.31, 81.48, -0.00, 0.00, 0.00, -0.00, 0.00, 0.00, -12.70, -3.70, -0.25, -0.00
2.1877167224884033, -3.14, 1.57, 0.96, 0.53, 1.42, -179.91, 89.95, 54.95, 30.31, 81.48, -0.00, 0.00, 0.00, -0.00, 0.00, 0.00, -12.70, -3.70, -0.25, -0.00
2.236715793609619, -3.14, 1.57, 0.96, 0.53, 1.42, -179.91, 89.95, 54.95, 30.31, 81.48, -0.00, 0.00, 0.00, -0.00, 0.00, 0.00, -12.70, -3.70, -0.25, -0.00
2.2827165126800537, -3.14, 1.57, 0.96, 0.53, 1.42, -179.91, 89.95, 54.95, 30.31, 81.48, -0.00, 0.00, 0.00, -0.00, 0.00, 0.00, -12.70, -3.70, -0.25, -0.00
2.3247179985046387, -3.14, 1.57, 0.96, 0.53, 1.42, -179.91, 89.95, 54.95, 30.31, 81.48, -0.00, 0.00, 0.00, -0.00, 0.00, 0.00, -12.70, -3.70, -0.25, -0.00
2.3698480129241943, -3.14, 1.57, 0.96, 0.53, 1.42, -179.91, 89.95, 54.95, 30.31, 81.48, -0.00, 0.00, 0.00, -0.00, 0.00, 0.00, -12.70, -3.70, -0.25, -0.00
2.4148600101470947, -3.14, 1.57, 0.96, 0.53, 1.42, -179.91, 89.95, 54.95, 30.31, 81.48, -0.00, 0.00, 0.00, -0.00, 0.00, 0.00, -12.70, -3.70, -0.25, -0.00
2.4598615169525146, -3.14, 1.57, 0.96, 0.53, 1.42, -179.91, 89.95, 54.95, 30.31, 81.48, -0.00, 0.00, 0.00, -0.00, 0.00, 0.00, -12.70, -3.70, -0.25, -0.00
2.503861904144287, -3.14, 1.57, 0.96, 0.53, 1.42, -179.91, 89.95, 54.95, 30.31, 81.48, -0.00, 0.00, 0.00, -0.00, 0.00, 0.00, -12.70, -3.70, -0.25, -0.00
2.547860860824585, -3.14, 1.57, 0.96, 0.53, 1.42, -179.91, 89.95, 54.95, 30.31, 81.48, -0.00, 0.00, 0.00, -0.00, 0.00, 0.00, -12.70, -3.70, -0.25, -0.00
2.598980665206909, -3.14, 1.57, 0.96, 0.53, 1.42, -179.91, 89.95, 54.95, 30.31, 81.48, -0.00, 0.00, 0.00, -0.00, 0.00, 0.00, -12.70, -3.70, -0.25, -0.00
2.6469831466674805, -3.14, 1.57, 0.96, 0.53, 1.42, -179.91, 89.95, 54.95, 30.31, 81.48, -0.00, 0.00, 0.00, -0.00, 0.00, 0.00, -12.70, -3.70, -0.25, -0.00
2.697981357574463, -3.14, 1.57, 0.96, 0.53, 1.42, -179.91, 89.95, 54.95, 30.31, 81.48, -0.00, 0.00, 0.00, -0.00, 0.00, 0.00, -12.70, -3.70, -0.25, -0.00
2.74298095703125, -3.14, 1.57, 0.96, 0.53, 1.42, -179.91, 89.95, 54.95, 30.31, 81.48, -0.00, 0.00, 0.00, -0.00, 0.00, 0.00, -12.70, -3.70, -0.25, -0.00
2.783980131149292, -3.14, 1.57, 0.96, 0.53, 1.42, -179.91, 89.95, 54.95, 30.31, 81.48, -0.00, 0.00, 0.00, -0.00, 0.00, 0.00, -12.70, -3.70, -0.25, -0.00
2.831979513168335, -3.14, 1.57, 0.96, 0.53, 1.42, -179.91, 89.95, 54.95, 30.31, 81.48, -0.00, 0.00, 0.00, -0.00, 0.00, 0.00, -12.70, -3.70, -0.25, -0.00
2.878979444503784, -3.14, 1.57, 0.96, 0.53, 1.42, -179.91, 89.95, 54.95, 30.31, 81.48, -0.00, 0.00, 0.00, -0.00, 0.00, 0.00, -12.70, -3.70, -0.25, -0.00
2.9339818954467773, -3.14, 1.57, 0.96, 0.53, 1.42, -179.91, 89.95, 54.95, 30.31, 81.48, -0.00, 0.00, 0.00, -0.00, 0.00, 0.00, -12.70, -3.70, -0.25, -0.00
2.9789812564849854, -3.14, 1.57, 0.96, 0.53, 1.42, -179.91, 89.95, 54.95, 30.31, 81.48, -0.00, 0.00, 0.00, -0.00, 0.00, 0.00, -12.70, -3.70, -0.25, -0.00
3.0249810218811035, -3.14, 1.57, 0.96, 0.53, 1.42, -179.91, 89.95, 54.95, 30.31, 81.48, -0.00, 0.00, 0.00, -0.00, 0.00, 0.00, -12.70, -3.70, -0.25, -0.00
3.073986291885376, -3.14, 1.57, 0.96, 0.53, 1.42, -179.91, 89.95, 54.95, 30.31, 81.48, -0.00, 0.00, 0.00, -0.00, 0.00, 0.00, -12.70, -3.70, -0.25, -0.00
3.12298583984375, -3.14, 1.57, 0.96, 0.53, 1.42, -179.91, 89.95, 54.95, 30.31, 81.48, -0.00, 0.00, 0.00, -0.00, 0.00, 0.00, -12.70, -3.70, -0.25, -0.00
3.166987419128418, -3.14, 1.57, 0.96, 0.53, 1.42, -179.91, 89.95, 54.95, 30.31, 81.48, -0.00, 0.00, 0.00, -0.00, 0.00, 0.00, -12.70, -3.70, -0.25, -0.00
3.2129876613616943, -3.14, 1.57, 0.96, 0.53, 1.42, -179.91, 89.95, 54.95, 30.31, 81.48, -0.00, 0.00, 0.00, -0.00, 0.00, 0.00, -12.70, -3.70, -0.25, -0.00
3.2599880695343018, -3.14, 1.57, 0.96, 0.53, 1.42, -179.91, 89.95, 54.95, 30.31, 81.48, -0.00, 0.00, 0.00, -0.00, 0.00, 0.00, -12.70, -3.70, -0.25, -0.00
3.304986000061035, -3.14, 1.57, 0.96, 0.53, 1.42, -179.91, 89.95, 54.95, 30.31, 81.48, -0.00, 0.00, 0.00, -0.00, 0.00, 0.00, -12.70, -3.70, -0.25, -0.00
3.3507368564605713, -3.14, 1.57, 0.96, 0.53, 1.42, -179.91, 89.95, 54.95, 30.31, 81.48, -0.00, 0.00, 0.00, -0.00, 0.00, 0.00, -12.70, -3.70, -0.25, -0.00
3.399735927581787, -3.14, 1.57, 0.96, 0.53, 1.42, -179.91, 89.95, 54.95, 30.31, 81.48, -0.00, 0.00, 0.00, -0.00, 0.00, 0.00, -12.70, -3.70, -0.25, -0.00
3.4447333812713623, -3.14, 1.57, 0.96, 0.53, 1.42, -179.91, 89.95, 54.95, 30.31, 81.48, -0.00, 0.00, 0.00, -0.00, 0.00, 0.00, -12.70, -3.70, -0.25, -0.00
3.507734537124634, -3.14, 1.57, 0.96, 0.53, 1.42, -179.91, 89.95, 54.95, 30.31, 81.48, -0.00, 0.00, 0.00, -0.00, 0.00, 0.00, -12.70, -3.70, -0.25, -0.00
3.5612645149230957, -3.14, 1.57, 0.96, 0.53, 1.42, -179.91, 89.95, 54.95, 30.31, 81.48, -0.00, 0.00, 0.00, -0.00, 0.00, 0.00, -12.70, -3.70, -0.25, -0.00
3.6097848415374756, -3.14, 1.57, 0.96, 0.53, 1.42, -179.91, 89.95, 54.95, 30.31, 81.48, -0.00, 0.00, 0.00, -0.00, 0.00, 0.00, -12.70, -3.70, -0.25, -0.00
3.6567907333374023, -3.14, 1.57, 0.96, 0.53, 1.42, -179.91, 89.95, 54.95, 30.31, 81.48, -0.00, 0.00, 0.00, -0.00, 0.00, 0.00, -12.70, -3.70, -0.25, -0.00
3.7057878971099854, -3.14, 1.57, 0.96, 0.53, 1.42, -179.91, 89.95, 54.95, 30.31, 81.48, -0.00, 0.00, 0.00, -0.00, 0.00, 0.00, -12.70, -3.70, -0.25, -0.00
3.7477848529815674, -3.14, 1.57, 0.96, 0.53, 1.42, -179.91, 89.95, 54.95, 30.31, 81.48, -0.00, 0.00, 0.00, -0.00, 0.00, 0.00, -12.70, -3.70, -0.25, -0.00
3.790785551071167, -3.14, 1.57, 0.96, 0.53, 1.42, -179.91, 89.95, 54.95, 30.31, 81.48, -0.00, 0.00, 0.00, -0.00, 0.00, 0.00, -12.70, -3.70, -0.25, -0.00
3.8413031101226807, -3.14, 1.57, 0.96, 0.53, 1.42, -179.91, 89.95, 54.95, 30.31, 81.48, -0.00, 0.00, 0.00, -0.00, 0.00, 0.00, -12.70, -3.70, -0.25, -0.00
3.8873002529144287, -3.14, 1.57, 0.96, 0.53, 1.42, -179.91, 89.95, 54.95, 30.31, 81.48, -0.00, 0.00, 0.00, -0.00, 0.00, 0.00, -12.70, -3.70, -0.25, -0.00
3.9341180324554443, -3.14, 1.57, 0.96, 0.53, 1.42, -179.91, 89.95, 54.95, 30.31, 81.48, -0.00, 0.00, 0.00, -0.00, 0.00, 0.00, -12.70, -3.70, -0.25, -0.00
3.976114511489868, -3.14, 1.57, 0.96, 0.53, 1.42, -179.91, 89.95, 54.95, 30.31, 81.48, -0.00, 0.00, 0.00, -0.00, 0.00, 0.00, -12.70, -3.70, -0.25, -0.00
4.024113655090332, -3.14, 1.57, 0.96, 0.53, 1.42, -179.91, 89.95, 54.95, 30.31, 81.48, -0.00, 0.00, 0.00, -0.00, 0.00, 0.00, -12.70, -3.70, -0.25, -0.00
4.069113254547119, -3.14, 1.57, 0.96, 0.53, 1.42, -179.91, 89.95, 54.95, 30.31, 81.48, -0.00, 0.00, 0.00, -0.00, 0.00, 0.00, -12.70, -3.70, -0.25, -0.00
4.113115072250366, -3.14, 1.57, 0.96, 0.53, 1.42, -179.91, 89.95, 54.95, 30.31, 81.48, -0.00, 0.00, 0.00, -0.00, 0.00, 0.00, -12.70, -3.70, -0.25, -0.00
4.158113241195679, -3.14, 1.57, 0.96, 0.53, 1.42, -179.91, 89.95, 54.95, 30.31, 81.48, -0.00, 0.00, 0.00, -0.00, 0.00, 0.00, -12.70, -3.70, -0.25, -0.00
4.204027414321899, -3.14, 1.57, 0.96, 0.53, 1.42, -179.91, 89.95, 54.95, 30.31, 81.48, -0.00, 0.00, 0.00, -0.00, 0.00, 0.00, -12.70, -3.70, -0.25, -0.00
4.265025854110718, -3.14, 1.57, 0.96, 0.53, 1.42, -179.91, 89.95, 54.95, 30.31, 81.48, -0.00, 0.00, 0.00, -0.00, 0.00, 0.00, -12.70, -3.70, -0.25, -0.00
4.324026584625244, -3.14, 1.57, 0.96, 0.53, 1.42, -179.91, 89.95, 54.95, 30.31, 81.48, -0.00, 0.00, 0.00, -0.00, 0.00, 0.00, -12.70, -3.70, -0.25, -0.00
4.374024391174316, -3.14, 1.57, 0.96, 0.53, 1.42, -179.91, 89.95, 54.95, 30.31, 81.48, -0.00, 0.00, 0.00, -0.00, 0.00, 0.00, -12.70, -3.70, -0.25, -0.00
4.4275453090667725, -3.14, 1.57, 0.96, 0.53, 1.42, -179.91, 89.95, 54.95, 30.31, 81.48, -0.00, 0.00, 0.00, -0.00, 0.00, 0.00, -12.70, -3.70, -0.25, -0.00
4.472541570663452, -3.14, 1.57, 0.96, 0.53, 1.42, -179.91, 89.95, 54.95, 30.31, 81.48, -0.00, 0.00, 0.00, -0.00, 0.00, 0.00, -12.70, -3.70, -0.25, -0.00
4.516543626785278, -3.14, 1.57, 0.96, 0.53, 1.42, -179.91, 89.95, 54.95, 30.31, 81.48, -0.00, 0.00, 0.00, -0.00, 0.00, 0.00, -12.70, -3.70, -0.25, -0.00
4.562541961669922, -3.14, 1.57, 0.96, 0.53, 1.42, -179.91, 89.95, 54.95, 30.31, 81.48, -0.00, 0.00, 0.00, -0.00, 0.00, 0.00, -12.70, -3.70, -0.25, -0.00
4.6095428466796875, -3.14, 1.57, 0.96, 0.53, 1.42, -179.91, 89.95, 54.95, 30.31, 81.48, -0.00, 0.00, 0.00, -0.00, 0.00, 0.00, -12.70, -3.70, -0.25, -0.00
4.6675450801849365, -3.14, 1.57, 0.96, 0.53, 1.42, -179.91, 89.95, 54.95, 30.31, 81.48, -0.00, 0.00, 0.00, -0.00, 0.00, 0.00, -12.70, -3.70, -0.25, -0.00
4.713541746139526, -3.14, 1.57, 0.96, 0.53, 1.42, -179.91, 89.95, 54.95, 30.31, 81.48, -0.00, 0.00, 0.00, -0.00, 0.00, 0.00, -12.70, -3.70, -0.25, -0.00
4.755541563034058, -3.14, 1.57, 0.96, 0.53, 1.42, -179.91, 89.95, 54.95, 30.31, 81.48, -0.00, 0.00, 0.00, -0.00, 0.00, 0.00, -12.70, -3.70, -0.25, -0.00
4.799544095993042, -3.14, 1.57, 0.96, 0.53, 1.42, -179.91, 89.95, 54.95, 30.31, 81.48, -0.00, 0.00, 0.00, -0.00, 0.00, 0.00, -12.70, -3.70, -0.25, -0.00
4.8485424518585205, -3.14, 1.57, 0.96, 0.53, 1.42, -179.91, 89.95, 54.95, 30.31, 81.48, -0.00, 0.00, 0.00, -0.00, 0.00, 0.00, -12.70, -3.70, -0.25, -0.00
4.894554376602173, -3.14, 1.57, 0.96, 0.53, 1.42, -179.91, 89.95, 54.95, 30.31, 81.48, -0.00, 0.00, 0.00, -0.00, 0.00, 0.00, -12.70, -3.70, -0.25, -0.00
4.935555934906006, -3.14, 1.57, 0.96, 0.53, 1.42, -179.91, 89.95, 54.95, 30.31, 81.48, -0.00, 0.00, 0.00, -0.00, 0.00, 0.00, -12.70, -3.70, -0.25, -0.00
4.989553928375244, -3.14, 1.57, 0.96, 0.53, 1.42, -179.91, 89.95, 54.95, 30.31, 81.48, -0.00, 0.00, 0.00, -0.00, 0.00, 0.00, -12.70, -3.70, -0.25, -0.00
5.033727645874023, -3.14, 1.57, 0.96, 0.53, 1.42, -179.91, 89.95, 54.95, 30.31, 81.48, -0.00, 0.00, 0.00, -0.00, 0.00, 0.00, -12.70, -3.70, -0.25, -0.00
5.087728261947632, -3.14, 1.57, 0.96, 0.53, 1.42, -179.91, 89.95, 54.95, 30.31, 81.48, -0.00, 0.00, 0.00, -0.00, 0.00, 0.00, -12.70, -3.70, -0.25, -0.00
5.139048099517822, -3.14, 1.57, 0.96, 0.53, 1.42, -179.91, 89.95, 54.95, 30.31, 81.48, -0.00, 0.00, 0.00, -0.00, 0.00, 0.00, -12.70, -3.70, -0.25, -0.00
5.188325881958008, -3.14, 1.57, 0.96, 0.53, 1.42, -179.91, 89.95, 54.95, 30.31, 81.48, -0.00, 0.00, 0.00, -0.00, 0.00, 0.00, -12.70, -3.70, -0.25, -0.00
5.2393271923065186, -3.14, 1.57, 0.96, 0.53, 1.42, -179.91, 89.95, 54.95, 30.31, 81.48, -0.00, 0.00, 0.00, -0.00, 0.00, 0.00, -12.70, -3.70, -0.25, -0.00
5.288695573806763, -3.14, 1.57, 0.96, 0.53, 1.42, -179.91, 89.95, 54.95, 30.31, 81.48, -0.00, 0.00, 0.00, -0.00, 0.00, 0.00, -12.70, -3.70, -0.25, -0.00
5.336697340011597, -3.14, 1.57, 0.96, 0.53, 1.42, -179.91, 89.95, 54.95, 30.31, 81.48, -0.00, 0.00, 0.00, -0.00, 0.00, 0.00, -12.70, -3.70, -0.25, -0.00
5.379695653915405, -3.14, 1.57, 0.96, 0.53, 1.42, -179.91, 89.95, 54.95, 30.31, 81.48, -0.00, 0.00, 0.00, -0.00, 0.00, 0.00, -12.70, -3.70, -0.25, -0.00
5.427695274353027, -3.14, 1.57, 0.96, 0.53, 1.42, -179.91, 89.95, 54.95, 30.31, 81.48, -0.00, 0.00, 0.00, -0.00, 0.00, 0.00, -12.70, -3.70, -0.25, -0.00
5.471694707870483, -3.14, 1.57, 0.96, 0.53, 1.42, -179.91, 89.95, 54.95, 30.31, 81.48, -0.00, 0.00, 0.00, -0.00, 0.00, 0.00, -12.70, -3.70, -0.25, -0.00
5.516865968704224, -3.14, 1.57, 0.96, 0.53, 1.42, -179.91, 89.95, 54.95, 30.31, 81.48, -0.00, 0.00, 0.00, -0.00, 0.00, 0.00, -12.70, -3.70, -0.25, -0.00
5.560865163803101, -3.14, 1.57, 0.96, 0.53, 1.42, -179.91, 89.95, 54.95, 30.31, 81.48, -0.00, 0.00, 0.00, -0.00, 0.00, 0.00, -12.70, -3.70, -0.25, -0.00
5.60786509513855, -3.14, 1.57, 0.96, 0.53, 1.42, -179.91, 89.95, 54.95, 30.31, 81.48, -0.00, 0.00, 0.00, -0.00, 0.00, 0.00, -12.70, -3.70, -0.25, -0.00
5.65386700630188, -3.14, 1.57, 0.96, 0.53, 1.42, -179.91, 89.95, 54.95, 30.31, 81.48, -0.00, 0.00, 0.00, -0.00, 0.00, 0.00, -12.70, -3.70, -0.25, -0.00
5.707865238189697, -3.14, 1.57, 0.96, 0.53, 1.42, -179.91, 89.95, 54.95, 30.31, 81.48, -0.00, 0.00, 0.00, -0.00, 0.00, 0.00, -12.70, -3.70, -0.25, -0.00
5.753864765167236, -3.14, 1.57, 0.96, 0.53, 1.42, -179.91, 89.95, 54.95, 30.31, 81.48, -0.00, 0.00, 0.00, -0.00, 0.00, 0.00, -12.70, -3.70, -0.25, -0.00
5.801867246627808, -3.14, 1.57, 0.96, 0.53, 1.42, -179.91, 89.95, 54.95, 30.31, 81.48, -0.00, 0.00, 0.00, -0.00, 0.00, 0.00, -12.70, -3.70, -0.25, -0.00
5.844864845275879, -3.14, 1.57, 0.96, 0.53, 1.42, -179.91, 89.95, 54.95, 30.31, 81.48, -0.00, 0.00, 0.00, -0.00, 0.00, 0.00, -12.70, -3.70, -0.25, -0.00
5.89186429977417, -3.14, 1.57, 0.96, 0.53, 1.42, -179.91, 89.95, 54.95, 30.31, 81.48, -0.00, 0.00, 0.00, -0.00, 0.00, 0.00, -12.70, -3.70, -0.25, -0.00
5.944863557815552, -3.14, 1.57, 0.96, 0.53, 1.42, -179.91, 89.95, 54.95, 30.31, 81.48, -0.00, 0.00, 0.00, -0.00, 0.00, 0.00, -12.70, -3.70, -0.25, -0.00
5.994523048400879, -3.14, 1.57, 0.96, 0.53, 1.42, -179.91, 89.95, 54.95, 30.31, 81.48, -0.00, 0.00, 0.00, -0.00, 0.00, 0.00, -12.70, -3.70, -0.25, -0.00
6.044508218765259, -3.14, 1.57, 0.96, 0.53, 1.42, -179.91, 89.95, 54.95, 30.31, 81.48, -0.00, 0.00, 0.00, -0.00, 0.00, 0.00, -12.70, -3.70, -0.25, -0.00
6.111508846282959, -3.14, 1.57, 0.96, 0.53, 1.42, -179.91, 89.95, 54.95, 30.31, 81.48, -0.00, 0.00, 0.00, -0.00, 0.00, 0.00, -12.70, -3.70, -0.25, -0.00
6.167025804519653, -3.14, 1.57, 0.96, 0.53, 1.42, -179.91, 89.95, 54.95, 30.31, 81.48, -0.00, 0.00, 0.00, -0.00, 0.00, 0.00, -12.70, -3.70, -0.25, -0.00
6.217025995254517, -3.14, 1.57, 0.96, 0.53, 1.42, -179.91, 89.95, 54.95, 30.31, 81.48, -0.00, 0.00, 0.00, -0.00, 0.00, 0.00, -12.70, -3.70, -0.25, -0.00
6.26212215423584, -3.14, 1.57, 0.96, 0.53, 1.42, -179.91, 89.95, 54.95, 30.31, 81.48, -0.00, 0.00, 0.00, -0.00, 0.00, 0.00, -12.70, -3.70, -0.25, -0.00
6.310123443603516, -3.14, 1.57, 0.96, 0.53, 1.42, -179.91, 89.95, 54.95, 30.31, 81.48, -0.00, 0.00, 0.00, -0.00, 0.00, 0.00, -12.70, -3.70, -0.25, -0.00
6.357121467590332, -3.14, 1.57, 0.96, 0.53, 1.42, -179.91, 89.95, 54.95, 30.31, 81.48, -0.00, 0.00, 0.00, -0.00, 0.00, 0.00, -12.70, -3.70, -0.25, -0.00
6.40112042427063, -3.14, 1.57, 0.96, 0.53, 1.42, -179.91, 89.95, 54.95, 30.31, 81.48, -0.00, 0.00, 0.00, -0.00, 0.00, 0.00, -12.70, -3.70, -0.25, -0.00
6.443118572235107, -3.14, 1.57, 0.96, 0.53, 1.42, -179.91, 89.95, 54.95, 30.31, 81.48, -0.00, 0.00, 0.00, -0.00, 0.00, 0.00, -12.70, -3.70, -0.25, -0.00
6.495118141174316, -3.14, 1.57, 0.96, 0.53, 1.42, -179.91, 89.95, 54.95, 30.31, 81.48, -0.00, 0.00, 0.00, -0.00, 0.00, 0.00, -12.70, -3.70, -0.25, -0.00
6.539724349975586, -3.14, 1.57, 0.96, 0.53, 1.42, -179.91, 89.95, 54.95, 30.31, 81.48, -0.00, 0.00, 0.00, -0.00, 0.00, 0.00, -12.70, -3.70, -0.25, -0.00
6.587721586227417, -3.14, 1.57, 0.96, 0.53, 1.42, -179.91, 89.95, 54.95, 30.31, 81.48, -0.00, 0.00, 0.00, -0.00, 0.00, 0.00, -12.70, -3.70, -0.25, -0.00
6.636721611022949, -3.14, 1.57, 0.96, 0.53, 1.42, -179.91, 89.95, 54.95, 30.31, 81.48, -0.00, 0.00, 0.00, -0.00, 0.00, 0.00, -12.70, -3.70, -0.25, -0.00
6.683725833892822, -3.14, 1.57, 0.96, 0.53, 1.42, -179.91, 89.95, 54.95, 30.31, 81.48, -0.00, 0.00, 0.00, -0.00, 0.00, 0.00, -12.70, -3.70, -0.25, -0.00
6.72859525680542, -3.14, 1.57, 0.96, 0.53, 1.42, -179.91, 89.95, 54.95, 30.31, 81.48, -0.00, 0.00, 0.00, -0.00, 0.00, 0.00, -12.70, -3.70, -0.25, -0.00
6.778595447540283, -3.14, 1.57, 0.96, 0.53, 1.42, -179.91, 89.95, 54.95, 30.31, 81.48, -0.00, 0.00, 0.00, -0.00, 0.00, 0.00, -12.70, -3.70, -0.25, -0.00
6.830595970153809, -3.14, 1.57, 0.96, 0.53, 1.42, -179.91, 89.95, 54.95, 30.31, 81.48, -0.00, 0.00, 0.00, -0.00, 0.00, 0.00, -12.70, -3.70, -0.25, -0.00
6.876597166061401, -3.14, 1.57, 0.96, 0.53, 1.42, -179.91, 89.95, 54.95, 30.31, 81.48, -0.00, 0.00, 0.00, -0.00, 0.00, 0.00, -12.70, -3.70, -0.25, -0.00
6.927596807479858, -3.14, 1.57, 0.96, 0.53, 1.42, -179.91, 89.95, 54.95, 30.31, 81.48, -0.00, 0.00, 0.00, -0.00, 0.00, 0.00, -12.70, -3.70, -0.25, -0.00
6.980597734451294, -3.14, 1.57, 0.96, 0.53, 1.42, -179.91, 89.95, 54.95, 30.31, 81.48, -0.00, 0.00, 0.00, -0.00, 0.00, 0.00, -12.70, -3.70, -0.25, -0.00
7.028594255447388, -3.14, 1.57, 0.96, 0.53, 1.42, -179.91, 89.95, 54.95, 30.31, 81.48, -0.00, 0.00, 0.00, -0.00, 0.00, 0.00, -12.70, -3.70, -0.25, -0.00
7.078596591949463, -3.14, 1.57, 0.96, 0.53, 1.42, -179.91, 89.95, 54.95, 30.31, 81.48, -0.00, 0.00, 0.00, -0.00, 0.00, 0.00, -12.70, -3.70, -0.25, -0.00
7.128597974777222, -3.14, 1.57, 0.96, 0.53, 1.42, -179.91, 89.95, 54.95, 30.31, 81.48, -0.00, 0.00, 0.00, -0.00, 0.00, 0.00, -12.70, -3.70, -0.25, -0.00
7.176569223403931, -3.14, 1.57, 0.96, 0.53, 1.42, -179.91, 89.95, 54.95, 30.31, 81.48, -0.00, 0.00, 0.00, -0.00, 0.00, 0.00, -12.70, -3.70, -0.25, -0.00
7.240568399429321, -3.14, 1.57, 0.96, 0.53, 1.42, -179.91, 89.95, 54.95, 30.31, 81.48, -0.00, 0.00, 0.00, -0.00, 0.00, 0.00, -12.70, -3.70, -0.25, -0.00
7.291571378707886, -3.14, 1.57, 0.96, 0.53, 1.42, -179.91, 89.95, 54.95, 30.31, 81.48, -0.00, 0.00, 0.00, -0.00, 0.00, 0.00, -12.70, -3.70, -0.25, -0.00
7.339569091796875, -3.14, 1.57, 0.96, 0.53, 1.42, -179.91, 89.95, 54.95, 30.31, 81.48, -0.00, 0.00, 0.00, -0.00, 0.00, 0.00, -12.70, -3.70, -0.25, -0.00
7.387109279632568, -3.14, 1.57, 0.96, 0.53, 1.42, -179.91, 89.95, 54.95, 30.31, 81.48, -0.00, 0.00, 0.00, -0.00, 0.00, 0.00, -12.70, -3.70, -0.25, -0.00
7.433146715164185, -3.14, 1.57, 0.96, 0.53, 1.42, -179.91, 89.95, 54.95, 30.31, 81.48, -0.00, 0.00, 0.00, -0.00, 0.00, 0.00, -12.70, -3.70, -0.25, -0.00
7.477383136749268, -3.14, 1.57, 0.96, 0.53, 1.42, -179.91, 89.95, 54.95, 30.31, 81.48, -0.00, 0.00, 0.00, -0.00, 0.00, 0.00, -12.70, -3.70, -0.25, -0.00
7.523556232452393, -3.14, 1.57, 0.96, 0.53, 1.42, -179.91, 89.95, 54.95, 30.31, 81.48, -0.00, 0.00, 0.00, -0.00, 0.00, 0.00, -12.70, -3.70, -0.25, -0.00
7.565557241439819, -3.14, 1.57, 0.96, 0.53, 1.42, -179.91, 89.95, 54.95, 30.31, 81.48, -0.00, 0.00, 0.00, -0.00, 0.00, 0.00, -12.70, -3.70, -0.25, -0.00
7.609560012817383, -3.14, 1.57, 0.96, 0.53, 1.42, -179.91, 89.95, 54.95, 30.31, 81.48, -0.00, 0.00, 0.00, -0.00, 0.00, 0.00, -12.70, -3.70, -0.25, -0.00
7.657558441162109, -3.14, 1.57, 0.96, 0.53, 1.42, -179.91, 89.95, 54.95, 30.31, 81.48, -0.00, 0.00, 0.00, -0.00, 0.00, 0.00, -12.70, -3.70, -0.25, -0.00
7.704555988311768, -3.14, 1.57, 0.96, 0.53, 1.42, -179.91, 89.95, 54.95, 30.31, 81.48, -0.00, 0.00, 0.00, -0.00, 0.00, 0.00, -12.70, -3.70, -0.25, -0.00
7.746558904647827, -3.14, 1.57, 0.96, 0.53, 1.42, -179.91, 89.95, 54.95, 30.31, 81.48, -0.00, 0.00, 0.00, -0.00, 0.00, 0.00, -12.70, -3.70, -0.25, -0.00
7.788558006286621, -3.14, 1.57, 0.96, 0.53, 1.42, -179.91, 89.95, 54.95, 30.31, 81.48, -0.00, 0.00, 0.00, -0.00, 0.00, 0.00, -12.70, -3.70, -0.25, -0.00
7.831073760986328, -3.14, 1.57, 0.96, 0.53, 1.42, -179.91, 89.95, 54.95, 30.31, 81.48, -0.00, 0.00, 0.00, -0.00, 0.00, 0.00, -12.70, -3.70, -0.25, -0.00
7.878076553344727, -3.14, 1.57, 0.96, 0.53, 1.42, -179.91, 89.95, 54.95, 30.31, 81.48, -0.00, 0.00, 0.00, -0.00, 0.00, 0.00, -12.70, -3.70, -0.25, -0.00
7.9230711460113525, -3.14, 1.57, 0.96, 0.53, 1.42, -179.91, 89.95, 54.95, 30.31, 81.48, -0.00, 0.00, 0.00, -0.00, 0.00, 0.00, -12.70, -3.70, -0.25, -0.00
7.969496965408325, -3.14, 1.57, 0.96, 0.53, 1.42, -179.91, 89.95, 54.95, 30.31, 81.48, -0.00, 0.00, 0.00, -0.00, 0.00, 0.00, -12.70, -3.70, -0.25, -0.00
8.020078420639038, -3.14, 1.57, 0.96, 0.53, 1.42, -179.91, 89.95, 54.95, 30.31, 81.48, -0.00, 0.00, 0.00, -0.00, 0.00, 0.00, -12.70, -3.70, -0.25, -0.00
8.068593263626099, -3.14, 1.57, 0.96, 0.53, 1.42, -179.91, 89.95, 54.95, 30.31, 81.48, -0.00, 0.00, 0.00, -0.00, 0.00, 0.00, -12.70, -3.70, -0.25, -0.00
8.12459659576416, -3.14, 1.57, 0.96, 0.53, 1.42, -179.91, 89.95, 54.95, 30.31, 81.48, -0.00, 0.00, 0.00, -0.00, 0.00, -0.00, -12.70, -3.70, -0.25, -0.00
8.1705961227417, -3.14, 1.57, 0.96, 0.53, 1.42, -179.91, 89.95, 54.95, 30.31, 81.48, -0.00, 0.00, 0.00, -0.00, 0.00, 0.00, -12.70, -3.70, -0.25, -0.00
8.218594312667847, -3.14, 1.57, 0.96, 0.53, 1.42, -179.91, 89.95, 54.95, 30.31, 81.48, -0.00, 0.00, 0.00, -0.00, 0.00, -0.00, -12.70, -3.70, -0.25, -0.00
8.262593269348145, -3.14, 1.57, 0.96, 0.53, 1.42, -179.91, 89.95, 54.95, 30.31, 81.48, -0.00, 0.00, 0.00, -0.00, 0.00, -0.00, -12.70, -3.70, -0.25, -0.00
8.305593729019165, -3.14, 1.57, 0.96, 0.53, 1.42, -179.91, 89.95, 54.95, 30.31, 81.48, -0.00, 0.00, 0.00, -0.00, 0.00, -0.00, -12.70, -3.70, -0.25, -0.00
8.348594427108765, -3.14, 1.57, 0.96, 0.53, 1.42, -179.91, 89.95, 54.95, 30.31, 81.48, -0.00, 0.00, 0.00, -0.00, 0.00, -0.00, -12.70, -3.70, -0.25, -0.00
8.393593311309814, -3.14, 1.57, 0.96, 0.53, 1.42, -179.91, 89.95, 54.95, 30.31, 81.48, -0.00, 0.00, 0.00, -0.00, 0.00, -0.00, -12.70, -3.70, -0.25, -0.00
8.435595512390137, -3.14, 1.57, 0.96, 0.53, 1.42, -179.91, 89.95, 54.95, 30.31, 81.48, -0.00, 0.00, 0.00, -0.00, 0.00, -0.00, -12.70, -3.70, -0.25, -0.00
8.480592966079712, -3.14, 1.57, 0.96, 0.53, 1.42, -179.91, 89.95, 54.95, 30.31, 81.48, -0.00, 0.00, 0.00, -0.00, 0.00, -0.00, -12.70, -3.70, -0.25, -0.00
8.52959418296814, -3.14, 1.57, 0.96, 0.53, 1.42, -179.91, 89.95, 54.95, 30.31, 81.48, -0.00, 0.00, 0.00, -0.00, 0.00, -0.00, -12.70, -3.70, -0.25, -0.00
8.579596281051636, -3.14, 1.57, 0.96, 0.53, 1.42, -179.91, 89.95, 54.95, 30.31, 81.48, -0.00, 0.00, 0.00, -0.00, 0.00, -0.00, -12.70, -3.70, -0.25, -0.00
8.62959361076355, -3.14, 1.57, 0.96, 0.53, 1.42, -179.91, 89.95, 54.95, 30.31, 81.48, -0.00, 0.00, 0.00, -0.00, 0.00, -0.00, -12.70, -3.70, -0.25, -0.00
8.683597087860107, -3.14, 1.57, 0.96, 0.53, 1.42, -179.91, 89.95, 54.95, 30.31, 81.48, -0.00, 0.00, 0.00, -0.00, 0.00, -0.00, -12.70, -3.70, -0.25, -0.00
8.729593276977539, -3.14, 1.57, 0.96, 0.53, 1.42, -179.91, 89.95, 54.95, 30.31, 81.48, -0.00, 0.00, 0.00, -0.00, 0.00, -0.00, -12.70, -3.70, -0.25, -0.00
8.781115531921387, -3.14, 1.57, 0.96, 0.53, 1.42, -179.91, 89.95, 54.95, 30.31, 81.48, -0.00, 0.00, 0.00, -0.00, 0.00, -0.00, -12.70, -3.70, -0.25, -0.00
8.822770118713379, -3.14, 1.57, 0.96, 0.53, 1.42, -179.91, 89.95, 54.95, 30.31, 81.48, -0.00, 0.00, 0.00, -0.00, 0.00, -0.00, -12.70, -3.70, -0.25, -0.00
8.86776614189148, -3.14, 1.57, 0.96, 0.53, 1.42, -179.91, 89.95, 54.95, 30.31, 81.48, -0.00, 0.00, 0.00, -0.00, 0.00, -0.00, -12.70, -3.70, -0.25, -0.00
8.910766363143921, -3.14, 1.57, 0.96, 0.53, 1.42, -179.91, 89.95, 54.95, 30.31, 81.48, -0.00, 0.00, 0.00, -0.00, 0.00, -0.00, -12.70, -3.70, -0.25, -0.00
8.951765775680542, -3.14, 1.57, 0.96, 0.53, 1.42, -179.91, 89.95, 54.95, 30.31, 81.48, -0.00, 0.00, 0.00, -0.00, 0.00, -0.00, -12.70, -3.70, -0.25, -0.00
8.993783712387085, -3.14, 1.57, 0.96, 0.53, 1.42, -179.91, 89.95, 54.95, 30.31, 81.48, -0.00, 0.00, 0.00, -0.00, 0.00, -0.00, -12.70, -3.70, -0.25, -0.00
9.03477931022644, -3.14, 1.57, 0.96, 0.53, 1.42, -179.91, 89.95, 54.95, 30.31, 81.48, -0.00, 0.00, 0.00, -0.00, 0.00, -0.00, -12.70, -3.70, -0.25, -0.00
9.07578182220459, -3.14, 1.57, 0.96, 0.53, 1.42, -179.91, 89.95, 54.95, 30.31, 81.48, -0.00, 0.00, 0.00, -0.00, 0.00, -0.00, -12.70, -3.70, -0.25, -0.00
9.117826461791992, -3.14, 1.57, 0.96, 0.53, 1.42, -179.91, 89.95, 54.95, 30.31, 81.48, -0.00, 0.00, 0.00, -0.00, 0.00, -0.00, -12.70, -3.70, -0.25, -0.00
9.166826725006104, -3.14, 1.57, 0.96, 0.53, 1.42, -179.91, 89.95, 54.95, 30.31, 81.48, -0.00, 0.00, 0.00, -0.00, 0.00, -0.00, -12.70, -3.70, -0.25, -0.00
9.216827630996704, -3.14, 1.57, 0.96, 0.53, 1.42, -179.91, 89.95, 54.95, 30.31, 81.48, -0.00, 0.00, 0.00, -0.00, 0.00, -0.00, -12.70, -3.70, -0.25, -0.00
9.260517597198486, -3.14, 1.57, 0.96, 0.53, 1.42, -179.91, 89.95, 54.95, 30.31, 81.48, -0.00, 0.00, 0.00, -0.00, 0.00, -0.00, -12.70, -3.70, -0.25, -0.00
9.309517860412598, -3.14, 1.57, 0.96, 0.53, 1.42, -179.91, 89.95, 54.95, 30.31, 81.48, -0.00, 0.00, 0.00, -0.00, 0.00, -0.00, -12.70, -3.70, -0.25, -0.00
9.359516143798828, -3.14, 1.57, 0.96, 0.53, 1.42, -179.91, 89.95, 54.95, 30.31, 81.48, -0.00, 0.00, 0.00, -0.00, 0.00, -0.00, -12.70, -3.70, -0.25, -0.00
9.40651798248291, -3.14, 1.57, 0.96, 0.53, 1.42, -179.91, 89.95, 54.95, 30.31, 81.48, -0.00, 0.00, 0.00, -0.00, 0.00, -0.00, -12.70, -3.70, -0.25, -0.00
9.455034494400024, -3.14, 1.57, 0.96, 0.53, 1.42, -179.91, 89.95, 54.95, 30.31, 81.48, -0.00, 0.00, 0.00, -0.00, 0.00, -0.00, -12.70, -3.70, -0.25, -0.00
9.508033752441406, -3.14, 1.57, 0.96, 0.53, 1.42, -179.91, 89.95, 54.95, 30.31, 81.48, -0.00, 0.00, 0.00, -0.00, 0.00, -0.00, -12.70, -3.70, -0.25, -0.00
9.561035633087158, -3.14, 1.57, 0.96, 0.53, 1.42, -179.91, 89.95, 54.95, 30.31, 81.48, -0.00, 0.00, 0.00, -0.00, 0.00, -0.00, -12.70, -3.70, -0.25, -0.00
9.61340069770813, -3.14, 1.57, 0.96, 0.53, 1.42, -179.91, 89.95, 54.95, 30.31, 81.48, -0.00, 0.00, 0.00, -0.00, 0.00, -0.00, -12.70, -3.70, -0.25, -0.00
9.666855573654175, -3.14, 1.57, 0.96, 0.53, 1.42, -179.91, 89.95, 54.95, 30.31, 81.48, -0.00, 0.00, 0.00, -0.00, 0.00, -0.00, -12.70, -3.70, -0.25, -0.00
9.711255550384521, -3.14, 1.57, 0.96, 0.53, 1.42, -179.91, 89.95, 54.95, 30.31, 81.48, -0.00, 0.00, 0.00, -0.00, 0.00, -0.00, -12.70, -3.70, -0.25, -0.00
9.75823712348938, -3.14, 1.57, 0.96, 0.53, 1.42, -179.91, 89.95, 54.95, 30.31, 81.48, -0.00, 0.00, 0.00, -0.00, 0.00, -0.00, -12.70, -3.70, -0.25, -0.00
9.800236940383911, -3.14, 1.57, 0.96, 0.53, 1.42, -179.91, 89.95, 54.95, 30.31, 81.48, -0.00, 0.00, 0.00, -0.00, 0.00, -0.00, -12.70, -3.70, -0.25, -0.00
9.84123706817627, -3.14, 1.57, 0.96, 0.53, 1.42, -179.91, 89.95, 54.95, 30.31, 81.48, -0.00, 0.00, 0.00, -0.00, 0.00, -0.00, -12.70, -3.70, -0.25, -0.00
9.885239362716675, -3.14, 1.57, 0.96, 0.53, 1.42, -179.91, 89.95, 54.95, 30.31, 81.48, -0.00, 0.00, 0.00, -0.00, 0.00, -0.00, -12.70, -3.70, -0.25, -0.00
9.930933475494385, -3.14, 1.57, 0.96, 0.53, 1.42, -179.91, 89.95, 54.95, 30.31, 81.48, -0.00, 0.00, 0.00, -0.00, 0.00, -0.00, -12.70, -3.70, -0.25, -0.00
9.972912788391113, -3.14, 1.57, 0.96, 0.53, 1.42, -179.91, 89.95, 54.95, 30.31, 81.48, -0.00, 0.00, 0.00, -0.00, 0.00, -0.00, -12.70, -3.70, -0.25, -0.00
10.019912481307983, -3.14, 1.57, 0.96, 0.53, 1.42, -179.91, 89.95, 54.95, 30.31, 81.48, -0.00, 0.00, 0.00, -0.00, 0.00, -0.00, -12.70, -3.70, -0.25, -0.00
10.124912977218628, -3.14, 1.57, 0.96, 0.53, 1.42, -179.91, 89.95, 54.95, 30.31, 81.48, -0.00, 0.00, 0.00, -0.00, 0.00, -0.00, -12.70, -3.70, -0.25, -0.00
10.18091082572937, -3.14, 1.57, 0.96, 0.53, 1.42, -179.91, 89.95, 54.95, 30.31, 81.48, -0.00, 0.00, 0.00, -0.00, 0.00, -0.00, -12.70, -3.70, -0.25, -0.00
10.231912612915039, -3.14, 1.57, 0.96, 0.53, 1.42, -179.91, 89.95, 54.95, 30.31, 81.48, -0.00, 0.00, 0.00, -0.00, 0.00, -0.00, -12.70, -3.70, -0.25, -0.00
10.284468650817871, -3.14, 1.57, 0.96, 0.53, 1.42, -179.91, 89.95, 54.95, 30.31, 81.48, -0.00, 0.00, 0.00, -0.00, 0.00, -0.00, -12.70, -3.70, -0.25, -0.00
10.334426879882812, -3.14, 1.57, 0.96, 0.53, 1.42, -179.91, 89.95, 54.95, 30.31, 81.48, -0.00, 0.00, 0.00, -0.00, 0.00, -0.00, -12.70, -3.70, -0.25, -0.00
10.380467891693115, -3.14, 1.57, 0.96, 0.53, 1.42, -179.91, 89.95, 54.95, 30.31, 81.48, -0.00, 0.00, 0.00, -0.00, 0.00, -0.00, -12.70, -3.70, -0.25, -0.00
10.433467864990234, -3.14, 1.57, 0.96, 0.53, 1.42, -179.91, 89.95, 54.95, 30.31, 81.48, -0.00, 0.00, 0.00, -0.00, 0.00, -0.00, -12.70, -3.70, -0.25, -0.00
10.482466697692871, -3.14, 1.57, 0.96, 0.53, 1.42, -179.91, 89.95, 54.95, 30.31, 81.48, -0.00, 0.00, 0.00, -0.00, 0.00, -0.00, -12.70, -3.70, -0.25, -0.00
10.528465509414673, -3.14, 1.57, 0.96, 0.53, 1.42, -179.91, 89.95, 54.95, 30.31, 81.48, -0.00, 0.00, 0.00, -0.00, 0.00, -0.00, -12.70, -3.70, -0.25, -0.00
10.575464963912964, -3.14, 1.57, 0.96, 0.53, 1.42, -179.91, 89.95, 54.95, 30.31, 81.48, -0.00, 0.00, 0.00, -0.00, 0.00, -0.00, -12.70, -3.70, -0.25, -0.00
10.624467372894287, -3.14, 1.57, 0.96, 0.53, 1.42, -179.91, 89.95, 54.95, 30.31, 81.48, -0.00, 0.00, 0.00, -0.00, 0.00, -0.00, -12.70, -3.70, -0.25, -0.00
10.680465698242188, -3.14, 1.57, 0.96, 0.53, 1.42, -179.91, 89.95, 54.95, 30.31, 81.48, -0.00, 0.00, 0.00, -0.00, 0.00, -0.00, -12.70, -3.70, -0.25, -0.00
10.729464292526245, -3.14, 1.57, 0.96, 0.53, 1.42, -179.91, 89.95, 54.95, 30.31, 81.48, -0.00, 0.00, 0.00, -0.00, 0.00, -0.00, -12.70, -3.70, -0.25, -0.00
10.77498722076416, -3.14, 1.57, 0.96, 0.53, 1.42, -179.91, 89.95, 54.95, 30.31, 81.48, -0.00, 0.00, 0.00, -0.00, 0.00, -0.00, -12.70, -3.70, -0.25, -0.00
10.824986219406128, -3.14, 1.57, 0.96, 0.53, 1.42, -179.91, 89.95, 54.95, 30.31, 81.48, -0.00, 0.00, 0.00, -0.00, 0.00, -0.00, -12.70, -3.70, -0.25, -0.00
10.875986099243164, -3.14, 1.57, 0.96, 0.53, 1.42, -179.91, 89.95, 54.95, 30.31, 81.48, -0.00, 0.00, 0.00, -0.00, 0.00, -0.00, -12.70, -3.70, -0.25, -0.00
10.924503803253174, -3.14, 1.57, 0.96, 0.53, 1.42, -179.91, 89.95, 54.95, 30.31, 81.48, -0.00, 0.00, 0.00, -0.00, 0.00, -0.00, -12.70, -3.70, -0.25, -0.00
10.977502822875977, -3.14, 1.57, 0.96, 0.53, 1.42, -179.91, 89.95, 54.95, 30.31, 81.48, -0.00, 0.00, 0.00, -0.00, 0.00, -0.00, -12.70, -3.70, -0.25, -0.00
11.023014068603516, -3.14, 1.57, 0.96, 0.53, 1.42, -179.91, 89.95, 54.95, 30.31, 81.48, -0.00, 0.00, 0.00, -0.00, 0.00, -0.00, -12.70, -3.70, -0.25, -0.00
11.068013906478882, -3.14, 1.57, 0.96, 0.53, 1.42, -179.91, 89.95, 54.95, 30.31, 81.48, -0.00, 0.00, 0.00, -0.00, 0.00, -0.00, -12.70, -3.70, -0.25, -0.00
11.123015880584717, -3.14, 1.57, 0.96, 0.53, 1.42, -179.91, 89.95, 54.95, 30.31, 81.48, -0.00, 0.00, 0.00, -0.00, 0.00, -0.00, -12.70, -3.70, -0.25, -0.00
11.179016828536987, -3.14, 1.57, 0.96, 0.53, 1.42, -179.91, 89.95, 54.95, 30.31, 81.48, -0.00, 0.00, 0.00, -0.00, 0.00, -0.00, -12.70, -3.70, -0.25, -0.00
11.22701382637024, -3.14, 1.57, 0.96, 0.53, 1.42, -179.91, 89.95, 54.95, 30.31, 81.48, -0.00, 0.00, 0.00, -0.00, 0.00, -0.00, -12.70, -3.70, -0.25, -0.00
11.269526720046997, -3.14, 1.57, 0.96, 0.53, 1.42, -179.91, 89.95, 54.95, 30.31, 81.48, -0.00, 0.00, 0.00, -0.00, 0.00, -0.00, -12.70, -3.70, -0.25, -0.00
11.316052436828613, -3.14, 1.57, 0.96, 0.53, 1.42, -179.91, 89.95, 54.95, 30.31, 81.48, -0.00, 0.00, 0.00, -0.00, 0.00, -0.00, -12.70, -3.70, -0.25, -0.00
11.3875732421875, -3.14, 1.57, 0.96, 0.53, 1.42, -179.91, 89.95, 54.95, 30.31, 81.48, -0.00, 0.00, 0.00, -0.00, 0.00, -0.00, -12.70, -3.70, -0.25, -0.00
11.440572500228882, -3.14, 1.57, 0.96, 0.53, 1.42, -179.91, 89.95, 54.95, 30.31, 81.48, -0.00, 0.00, 0.00, -0.00, 0.00, -0.00, -12.70, -3.70, -0.25, 0.00
11.486571788787842, -3.14, 1.57, 0.96, 0.53, 1.42, -179.91, 89.95, 54.95, 30.31, 81.48, -0.00, 0.00, 0.00, -0.00, 0.00, -0.00, -12.70, -3.70, -0.25, 0.00
11.532337665557861, -3.14, 1.57, 0.96, 0.53, 1.42, -179.91, 89.95, 54.95, 30.31, 81.48, -0.00, 0.00, 0.00, -0.00, 0.00, -0.00, -12.70, -3.70, -0.25, -0.00
11.58034873008728, -3.14, 1.57, 0.96, 0.53, 1.42, -179.91, 89.95, 54.95, 30.31, 81.48, -0.00, 0.00, 0.00, -0.00, 0.00, -0.00, -12.70, -3.70, -0.25, 0.00
11.630334377288818, -3.14, 1.57, 0.96, 0.53, 1.42, -179.91, 89.95, 54.95, 30.31, 81.48, -0.00, 0.00, 0.00, -0.00, 0.00, -0.00, -12.70, -3.70, -0.25, 0.00
11.678334474563599, -3.14, 1.57, 0.96, 0.53, 1.42, -179.91, 89.95, 54.95, 30.31, 81.48, -0.00, 0.00, 0.00, -0.00, 0.00, -0.00, -12.70, -3.70, -0.25, -0.00
11.722927331924438, -3.14, 1.57, 0.96, 0.53, 1.42, -179.91, 89.95, 54.95, 30.31, 81.48, -0.00, 0.00, 0.00, -0.00, 0.00, -0.00, -12.70, -3.70, -0.25, 0.00
11.772911310195923, -3.14, 1.57, 0.96, 0.53, 1.42, -179.91, 89.95, 54.95, 30.31, 81.48, -0.00, 0.00, 0.00, -0.00, 0.00, -0.00, -12.70, -3.70, -0.25, 0.00
11.825496435165405, -3.14, 1.57, 0.96, 0.53, 1.42, -179.91, 89.95, 54.95, 30.31, 81.48, -0.00, 0.00, 0.00, -0.00, 0.00, -0.00, -12.70, -3.70, -0.25, -0.00
11.871524095535278, -3.14, 1.57, 0.96, 0.53, 1.42, -179.91, 89.95, 54.95, 30.31, 81.48, -0.00, 0.00, 0.00, -0.00, 0.00, -0.00, -12.70, -3.70, -0.25, 0.00
11.92022705078125, -3.14, 1.57, 0.96, 0.53, 1.42, -179.91, 89.95, 54.95, 30.31, 81.48, -0.00, 0.00, 0.00, -0.00, 0.00, -0.00, -12.70, -3.70, -0.25, 0.00
11.973227977752686, -3.14, 1.57, 0.96, 0.53, 1.42, -179.91, 89.95, 54.95, 30.31, 81.48, -0.00, 0.00, 0.00, -0.00, 0.00, -0.00, -12.70, -3.70, -0.25, -0.00
12.015226125717163, -3.14, 1.57, 0.96, 0.53, 1.42, -179.91, 89.95, 54.95, 30.31, 81.48, -0.00, 0.00, 0.00, -0.00, 0.00, -0.00, -12.70, -3.70, -0.25, 0.00
12.064225435256958, -3.14, 1.57, 0.96, 0.53, 1.42, -179.91, 89.95, 54.95, 30.31, 81.48, -0.00, 0.00, 0.00, -0.00, 0.00, -0.00, -12.70, -3.70, -0.25, 0.00
12.109225749969482, -3.14, 1.57, 0.96, 0.53, 1.42, -179.91, 89.95, 54.95, 30.31, 81.48, -0.00, 0.00, 0.00, -0.00, 0.00, -0.00, -12.70, -3.70, -0.25, -0.00
12.158660888671875, -3.14, 1.57, 0.96, 0.53, 1.42, -179.91, 89.95, 54.95, 30.31, 81.48, -0.00, 0.00, 0.00, -0.00, 0.00, -0.00, -12.70, -3.70, -0.25, 0.00
12.20566177368164, -3.14, 1.57, 0.96, 0.53, 1.42, -179.91, 89.95, 54.95, 30.31, 81.48, -0.00, 0.00, 0.00, -0.00, 0.00, -0.00, -12.70, -3.70, -0.25, 0.00
12.252661228179932, -3.14, 1.57, 0.96, 0.53, 1.42, -179.91, 89.95, 54.95, 30.31, 81.48, -0.00, 0.00, 0.00, -0.00, 0.00, -0.00, -12.70, -3.70, -0.25, -0.00
12.296661138534546, -3.14, 1.57, 0.96, 0.53, 1.42, -179.91, 89.95, 54.95, 30.31, 81.48, -0.00, 0.00, 0.00, -0.00, 0.00, -0.00, -12.70, -3.70, -0.25, 0.00
12.339660167694092, -3.14, 1.57, 0.96, 0.53, 1.42, -179.91, 89.95, 54.95, 30.31, 81.48, -0.00, 0.00, 0.00, -0.00, 0.00, -0.00, -12.70, -3.70, -0.25, 0.00
12.38117265701294, -3.14, 1.57, 0.96, 0.53, 1.42, -179.91, 89.95, 54.95, 30.31, 81.48, -0.00, 0.00, 0.00, -0.00, 0.00, -0.00, -12.70, -3.70, -0.25, -0.00
12.423173189163208, -3.14, 1.57, 0.96, 0.53, 1.42, -179.91, 89.95, 54.95, 30.31, 81.48, -0.00, 0.00, 0.00, -0.00, 0.00, -0.00, -12.70, -3.70, -0.25, 0.00
12.469174146652222, -3.14, 1.57, 0.96, 0.53, 1.42, -179.91, 89.95, 54.95, 30.31, 81.48, -0.00, 0.00, 0.00, -0.00, 0.00, -0.00, -12.70, -3.70, -0.25, 0.00
12.5201735496521, -3.14, 1.57, 0.96, 0.53, 1.42, -179.91, 89.95, 54.95, 30.31, 81.48, -0.00, 0.00, 0.00, -0.00, 0.00, -0.00, -12.70, -3.70, -0.25, -0.00
12.567173480987549, -3.14, 1.57, 0.96, 0.53, 1.42, -179.91, 89.95, 54.95, 30.31, 81.48, -0.00, 0.00, 0.00, -0.00, 0.00, -0.00, -12.70, -3.70, -0.25, 0.00
12.62317442893982, -3.14, 1.57, 0.96, 0.53, 1.42, -179.91, 89.95, 54.95, 30.31, 81.48, -0.00, 0.00, 0.00, -0.00, 0.00, -0.00, -12.70, -3.70, -0.25, 0.00
12.681175231933594, -3.14, 1.57, 0.96, 0.53, 1.42, -179.91, 89.95, 54.95, 30.31, 81.48, -0.00, 0.00, 0.00, -0.00, 0.00, -0.00, -12.70, -3.70, -0.25, -0.00
12.733174800872803, -3.14, 1.57, 0.96, 0.53, 1.42, -179.91, 89.95, 54.95, 30.31, 81.48, -0.00, 0.00, 0.00, -0.00, 0.00, -0.00, -12.70, -3.70, -0.25, 0.00
12.78317642211914, -3.14, 1.57, 0.96, 0.53, 1.42, -179.91, 89.95, 54.95, 30.31, 81.48, -0.00, 0.00, 0.00, -0.00, 0.00, -0.00, -12.70, -3.70, -0.25, 0.00
12.838173151016235, -3.14, 1.57, 0.96, 0.53, 1.42, -179.91, 89.95, 54.95, 30.31, 81.48, -0.00, 0.00, 0.00, -0.00, 0.00, -0.00, -12.70, -3.70, -0.25, -0.00
12.891175031661987, -3.14, 1.57, 0.96, 0.53, 1.42, -179.91, 89.95, 54.95, 30.31, 81.48, -0.00, 0.00, 0.00, -0.00, 0.00, -0.00, -12.70, -3.70, -0.25, 0.00
12.941174745559692, -3.14, 1.57, 0.96, 0.53, 1.42, -179.91, 89.95, 54.95, 30.31, 81.48, -0.00, 0.00, 0.00, -0.00, 0.00, -0.00, -12.70, -3.70, -0.25, 0.00
12.992175340652466, -3.14, 1.57, 0.96, 0.53, 1.42, -179.91, 89.95, 54.95, 30.31, 81.48, -0.00, 0.00, 0.00, -0.00, 0.00, -0.00, -12.70, -3.70, -0.25, -0.00
13.044174194335938, -3.14, 1.57, 0.96, 0.53, 1.42, -179.91, 89.95, 54.95, 30.31, 81.48, -0.00, 0.00, 0.00, -0.00, 0.00, -0.00, -12.70, -3.70, -0.25, 0.00
13.098816156387329, -3.14, 1.57, 0.96, 0.53, 1.42, -179.91, 89.95, 54.95, 30.31, 81.48, -0.00, 0.00, 0.00, -0.00, 0.00, -0.00, -12.70, -3.70, -0.25, 0.00
13.150354623794556, -3.14, 1.57, 0.96, 0.53, 1.42, -179.91, 89.95, 54.95, 30.31, 81.48, -0.00, 0.00, 0.00, -0.00, 0.00, -0.00, -12.70, -3.70, -0.25, -0.00
13.201353549957275, -3.14, 1.57, 0.96, 0.53, 1.42, -179.91, 89.95, 54.95, 30.31, 81.48, -0.00, 0.00, 0.00, -0.00, 0.00, -0.00, -12.70, -3.70, -0.25, 0.00
13.249356508255005, -3.14, 1.57, 0.96, 0.53, 1.42, -179.91, 89.95, 54.95, 30.31, 81.48, -0.00, 0.00, 0.00, -0.00, 0.00, -0.00, -12.70, -3.70, -0.25, 0.00
13.295355558395386, -3.14, 1.57, 0.96, 0.53, 1.42, -179.91, 89.95, 54.95, 30.31, 81.48, -0.00, 0.00, 0.00, -0.00, 0.00, -0.00, -12.70, -3.70, -0.25, -0.00
13.344255447387695, -3.14, 1.57, 0.96, 0.53, 1.42, -179.91, 89.95, 54.95, 30.31, 81.48, -0.00, 0.00, 0.00, -0.00, 0.00, -0.00, -12.70, -3.70, -0.25, 0.00
13.398243427276611, -3.14, 1.57, 0.96, 0.53, 1.42, -179.91, 89.95, 54.95, 30.31, 81.48, -0.00, 0.00, 0.00, -0.00, 0.00, -0.00, -12.70, -3.70, -0.25, 0.00
13.444244146347046, -3.14, 1.57, 0.96, 0.53, 1.42, -179.91, 89.95, 54.95, 30.31, 81.48, -0.00, 0.00, 0.00, -0.00, 0.00, -0.00, -12.70, -3.70, -0.25, -0.00
13.497243642807007, -3.14, 1.57, 0.96, 0.53, 1.42, -179.91, 89.95, 54.95, 30.31, 81.48, -0.00, 0.00, 0.00, -0.00, 0.00, -0.00, -12.70, -3.70, -0.25, 0.00
13.550242900848389, -3.14, 1.57, 0.96, 0.53, 1.42, -179.91, 89.95, 54.95, 30.31, 81.48, -0.00, 0.00, 0.00, -0.00, 0.00, -0.00, -12.70, -3.70, -0.25, 0.00
13.600857734680176, -3.14, 1.57, 0.96, 0.53, 1.42, -179.91, 89.95, 54.95, 30.31, 81.48, -0.00, 0.00, 0.00, -0.00, 0.00, -0.00, -12.70, -3.70, -0.25, -0.00
13.649853706359863, -3.14, 1.57, 0.96, 0.53, 1.42, -179.91, 89.95, 54.95, 30.31, 81.48, -0.00, 0.00, 0.00, -0.00, 0.00, -0.00, -12.70, -3.70, -0.25, 0.00
13.704856395721436, -3.14, 1.57, 0.96, 0.53, 1.42, -179.91, 89.95, 54.95, 30.31, 81.48, -0.00, 0.00, 0.00, -0.00, 0.00, -0.00, -12.70, -3.70, -0.25, 0.00
13.7568519115448, -3.14, 1.57, 0.96, 0.53, 1.42, -179.91, 89.95, 54.95, 30.31, 81.48, -0.00, 0.00, 0.00, -0.00, 0.00, -0.00, -12.70, -3.70, -0.25, -0.00
13.803852319717407, -3.14, 1.57, 0.96, 0.53, 1.42, -179.91, 89.95, 54.95, 30.31, 81.48, -0.00, 0.00, 0.00, -0.00, 0.00, -0.00, -12.70, -3.70, -0.25, 0.00
13.85685420036316, -3.14, 1.57, 0.96, 0.53, 1.42, -179.91, 89.95, 54.95, 30.31, 81.48, -0.00, 0.00, 0.00, -0.00, 0.00, -0.00, -12.70, -3.70, -0.25, 0.00
13.906852722167969, -3.14, 1.57, 0.96, 0.53, 1.42, -179.91, 89.95, 54.95, 30.31, 81.48, -0.00, 0.00, 0.00, -0.00, 0.00, -0.00, -12.70, -3.70, -0.25, -0.00
13.95885157585144, -3.14, 1.57, 0.96, 0.53, 1.42, -179.91, 89.95, 54.95, 30.31, 81.48, -0.00, 0.00, 0.00, -0.00, 0.00, -0.00, -12.70, -3.70, -0.25, 0.00
14.004765033721924, -3.14, 1.57, 0.96, 0.53, 1.42, -179.91, 89.95, 54.95, 30.31, 81.48, -0.00, 0.00, 0.00, -0.00, 0.00, -0.00, -12.70, -3.70, -0.25, 0.00
14.052640676498413, -3.14, 1.57, 0.96, 0.53, 1.42, -179.91, 89.95, 54.95, 30.31, 81.48, -0.00, 0.00, 0.00, -0.00, 0.00, -0.00, -12.70, -3.70, -0.25, -0.00
14.098553657531738, -3.14, 1.57, 0.96, 0.53, 1.42, -179.91, 89.95, 54.95, 30.31, 81.48, -0.00, 0.00, 0.00, -0.00, 0.00, -0.00, -12.70, -3.70, -0.25, 0.00
14.140315771102905, -3.14, 1.57, 0.96, 0.53, 1.42, -179.91, 89.95, 54.95, 30.31, 81.48, -0.00, 0.00, 0.00, -0.00, 0.00, -0.00, -12.70, -3.70, -0.25, 0.00
14.187315702438354, -3.14, 1.57, 0.96, 0.53, 1.42, -179.91, 89.95, 54.95, 30.31, 81.48, -0.00, 0.00, 0.00, -0.00, 0.00, -0.00, -12.70, -3.70, -0.25, -0.00
14.232319355010986, -3.14, 1.57, 0.96, 0.53, 1.42, -179.91, 89.95, 54.95, 30.31, 81.48, -0.00, 0.00, 0.00, -0.00, 0.00, -0.00, -12.70, -3.70, -0.25, 0.00
14.274836540222168, -3.14, 1.57, 0.96, 0.53, 1.42, -179.91, 89.95, 54.95, 30.31, 81.48, -0.00, 0.00, 0.00, -0.00, 0.00, -0.00, -12.70, -3.70, -0.25, 0.00
14.352833986282349, -3.14, 1.57, 0.96, 0.53, 1.42, -179.91, 89.95, 54.95, 30.31, 81.48, -0.00, 0.00, 0.00, -0.00, 0.00, -0.00, -12.70, -3.70, -0.25, -0.00
14.402831792831421, -3.14, 1.57, 0.96, 0.53, 1.42, -179.91, 89.95, 54.95, 30.31, 81.48, -0.00, 0.00, 0.00, -0.00, 0.00, -0.00, -12.70, -3.70, -0.25, 0.00
14.448833227157593, -3.14, 1.57, 0.96, 0.53, 1.42, -179.91, 89.95, 54.95, 30.31, 81.48, -0.00, 0.00, 0.00, -0.00, 0.00, -0.00, -12.70, -3.70, -0.25, 0.00
14.494832515716553, -3.14, 1.57, 0.96, 0.53, 1.42, -179.91, 89.95, 54.95, 30.31, 81.48, -0.00, 0.00, 0.00, -0.00, 0.00, -0.00, -12.70, -3.70, -0.25, -0.00
14.541832208633423, -3.14, 1.57, 0.96, 0.53, 1.42, -179.91, 89.95, 54.95, 30.31, 81.48, -0.00, 0.00, 0.00, -0.00, 0.00, -0.00, -12.70, -3.70, -0.25, 0.00
14.58264422416687, -3.14, 1.57, 0.96, 0.53, 1.42, -179.91, 89.95, 54.95, 30.31, 81.48, -0.00, 0.00, 0.00, -0.00, 0.00, -0.00, -12.70, -3.70, -0.25, 0.00
14.624639511108398, -3.14, 1.57, 0.96, 0.53, 1.42, -179.91, 89.95, 54.95, 30.31, 81.48, -0.00, 0.00, 0.00, -0.00, 0.00, -0.00, -12.70, -3.70, -0.25, -0.00
14.6726393699646, -3.14, 1.57, 0.96, 0.53, 1.42, -179.91, 89.95, 54.95, 30.31, 81.48, -0.00, 0.00, 0.00, -0.00, 0.00, -0.00, -12.70, -3.70, -0.25, 0.00
14.719639539718628, -3.14, 1.57, 0.96, 0.53, 1.42, -179.91, 89.95, 54.95, 30.31, 81.48, -0.00, 0.00, 0.00, -0.00, 0.00, -0.00, -12.70, -3.70, -0.25, 0.00
14.767641544342041, -3.14, 1.57, 0.96, 0.53, 1.42, -179.91, 89.95, 54.95, 30.31, 81.48, -0.00, 0.00, 0.00, -0.00, 0.00, -0.00, -12.70, -3.70, -0.25, -0.00
14.814639568328857, -3.14, 1.57, 0.96, 0.53, 1.42, -179.91, 89.95, 54.95, 30.31, 81.48, -0.00, 0.00, 0.00, -0.00, 0.00, -0.00, -12.70, -3.70, -0.25, 0.00
14.864161252975464, -3.14, 1.57, 0.96, 0.53, 1.42, -179.91, 89.95, 54.95, 30.31, 81.48, -0.00, 0.00, 0.00, -0.00, 0.00, -0.00, -12.70, -3.70, -0.25, 0.00
14.91516399383545, -3.14, 1.57, 0.96, 0.53, 1.42, -179.91, 89.95, 54.95, 30.31, 81.48, -0.00, 0.00, 0.00, -0.00, 0.00, -0.00, -12.70, -3.70, -0.25, -0.00
14.966160774230957, -3.14, 1.57, 0.96, 0.53, 1.42, -179.91, 89.95, 54.95, 30.31, 81.48, -0.00, 0.00, 0.00, -0.00, 0.00, -0.00, -12.70, -3.70, -0.25, 0.00
15.010161399841309, -3.14, 1.57, 0.96, 0.53, 1.42, -179.91, 89.95, 54.95, 30.31, 81.48, -0.00, 0.00, 0.00, -0.00, 0.00, -0.00, -12.70, -3.70, -0.25, 0.00
15.06116008758545, -3.14, 1.57, 0.96, 0.53, 1.42, -179.91, 89.95, 54.95, 30.31, 81.48, -0.00, 0.00, 0.00, -0.00, 0.00, -0.00, -12.70, -3.70, -0.25, -0.00
15.114677667617798, -3.14, 1.57, 0.96, 0.53, 1.42, -179.91, 89.95, 54.95, 30.31, 81.48, -0.00, 0.00, 0.00, -0.00, 0.00, -0.00, -12.70, -3.70, -0.25, 0.00
15.16567611694336, -3.14, 1.57, 0.96, 0.53, 1.42, -179.91, 89.95, 54.95, 30.31, 81.48, -0.00, 0.00, 0.00, -0.00, 0.00, -0.00, -12.70, -3.70, -0.25, 0.00
15.21619725227356, -3.14, 1.57, 0.96, 0.53, 1.42, -179.91, 89.95, 54.95, 30.31, 81.48, -0.00, 0.00, 0.00, -0.00, 0.00, -0.00, -12.70, -3.70, -0.25, -0.00
15.271315336227417, -3.14, 1.57, 0.96, 0.53, 1.42, -179.91, 89.95, 54.95, 30.31, 81.48, -0.00, 0.00, 0.00, -0.00, 0.00, -0.00, -12.70, -3.70, -0.25, 0.00
15.316318988800049, -3.14, 1.57, 0.96, 0.53, 1.42, -179.91, 89.95, 54.95, 30.31, 81.48, -0.00, 0.00, 0.00, -0.00, 0.00, -0.00, -12.70, -3.70, -0.25, 0.00
15.36084771156311, -3.14, 1.57, 0.96, 0.53, 1.42, -179.91, 89.95, 54.95, 30.31, 81.48, -0.00, 0.00, 0.00, -0.00, 0.00, -0.00, -12.70, -3.70, -0.25, -0.00
15.410844802856445, -3.14, 1.57, 0.96, 0.53, 1.42, -179.91, 89.95, 54.95, 30.31, 81.48, -0.00, 0.00, 0.00, -0.00, 0.00, -0.00, -12.70, -3.70, -0.25, 0.00
15.456405878067017, -3.14, 1.57, 0.96, 0.53, 1.42, -179.91, 89.95, 54.95, 30.31, 81.48, -0.00, 0.00, 0.00, -0.00, 0.00, -0.00, -12.70, -3.70, -0.25, 0.00
15.506402492523193, -3.14, 1.57, 0.96, 0.53, 1.42, -179.91, 89.95, 54.95, 30.31, 81.48, -0.00, 0.00, 0.00, -0.00, 0.00, -0.00, -12.70, -3.70, -0.25, -0.00
15.551403999328613, -3.14, 1.57, 0.96, 0.53, 1.42, -179.91, 89.95, 54.95, 30.31, 81.48, -0.00, 0.00, 0.00, -0.00, 0.00, -0.00, -12.70, -3.70, -0.25, 0.00
15.595201969146729, -3.14, 1.57, 0.96, 0.53, 1.42, -179.91, 89.95, 54.95, 30.31, 81.48, -0.00, 0.00, 0.00, -0.00, 0.00, -0.00, -12.70, -3.70, -0.25, 0.00
15.64521074295044, -3.14, 1.57, 0.96, 0.53, 1.42, -179.91, 89.95, 54.95, 30.31, 81.48, -0.00, 0.00, 0.00, -0.00, 0.00, -0.00, -12.70, -3.70, -0.25, -0.00
15.688210725784302, -3.14, 1.57, 0.96, 0.53, 1.42, -179.91, 89.95, 54.95, 30.31, 81.48, -0.00, 0.00, 0.00, -0.00, 0.00, -0.00, -12.70, -3.70, -0.25, 0.00
15.729210376739502, -3.14, 1.57, 0.96, 0.53, 1.42, -179.91, 89.95, 54.95, 30.31, 81.48, -0.00, 0.00, 0.00, -0.00, 0.00, -0.00, -12.70, -3.70, -0.25, 0.00
15.773211002349854, -3.14, 1.57, 0.96, 0.53, 1.42, -179.91, 89.95, 54.95, 30.31, 81.48, -0.00, 0.00, 0.00, -0.00, 0.00, -0.00, -12.70, -3.70, -0.25, -0.00
15.824210405349731, -3.14, 1.57, 0.96, 0.53, 1.42, -179.91, 89.95, 54.95, 30.31, 81.48, -0.00, 0.00, 0.00, -0.00, 0.00, -0.00, -12.70, -3.70, -0.25, 0.00
15.867212057113647, -3.14, 1.57, 0.96, 0.53, 1.42, -179.91, 89.95, 54.95, 30.31, 81.48, -0.00, 0.00, 0.00, -0.00, 0.00, -0.00, -12.70, -3.70, -0.25, 0.00
15.913212776184082, -3.14, 1.57, 0.96, 0.53, 1.42, -179.91, 89.95, 54.95, 30.31, 81.48, -0.00, 0.00, 0.00, -0.00, 0.00, -0.00, -12.70, -3.70, -0.25, -0.00
15.961212158203125, -3.14, 1.57, 0.96, 0.53, 1.42, -179.91, 89.95, 54.95, 30.31, 81.48, -0.00, 0.00, 0.00, -0.00, 0.00, -0.00, -12.70, -3.70, -0.25, 0.00
16.006210327148438, -3.14, 1.57, 0.96, 0.53, 1.42, -179.91, 89.95, 54.95, 30.31, 81.48, -0.00, 0.00, 0.00, -0.00, 0.00, -0.00, -12.70, -3.70, -0.25, 0.00
16.050212621688843, -3.14, 1.57, 0.96, 0.53, 1.42, -179.91, 89.95, 54.95, 30.31, 81.48, -0.00, 0.00, 0.00, -0.00, 0.00, -0.00, -12.70, -3.70, -0.25, -0.00
16.101216316223145, -3.14, 1.57, 0.96, 0.53, 1.42, -179.91, 89.95, 54.95, 30.31, 81.48, -0.00, 0.00, 0.00, -0.00, 0.00, -0.00, -12.70, -3.70, -0.25, 0.00
16.15121078491211, -3.14, 1.57, 0.96, 0.53, 1.42, -179.91, 89.95, 54.95, 30.31, 81.48, -0.00, 0.00, 0.00, -0.00, 0.00, -0.00, -12.70, -3.70, -0.25, 0.00
16.200210571289062, -3.14, 1.57, 0.96, 0.53, 1.42, -179.91, 89.95, 54.95, 30.31, 81.48, -0.00, 0.00, 0.00, -0.00, 0.00, -0.00, -12.70, -3.70, -0.25, -0.00
16.246614456176758, -3.14, 1.57, 0.96, 0.53, 1.42, -179.91, 89.95, 54.95, 30.31, 81.48, -0.00, 0.00, 0.00, -0.00, 0.00, -0.00, -12.70, -3.70, -0.25, 0.00
16.292275190353394, -3.14, 1.57, 0.96, 0.53, 1.42, -179.91, 89.95, 54.95, 30.31, 81.48, -0.00, 0.00, 0.00, -0.00, 0.00, -0.00, -12.70, -3.70, -0.25, 0.00
16.341559648513794, -3.14, 1.57, 0.96, 0.53, 1.42, -179.91, 89.95, 54.95, 30.31, 81.48, -0.00, 0.00, 0.00, -0.00, 0.00, -0.00, -12.70, -3.70, -0.25, -0.00
16.387205362319946, -3.14, 1.57, 0.96, 0.53, 1.42, -179.91, 89.95, 54.95, 30.31, 81.48, -0.00, 0.00, 0.00, -0.00, 0.00, -0.00, -12.70, -3.70, -0.25, 0.00
16.42958378791809, -3.14, 1.57, 0.96, 0.53, 1.42, -179.91, 89.95, 54.95, 30.31, 81.48, -0.00, 0.00, 0.00, -0.00, 0.00, -0.00, -12.70, -3.70, -0.25, 0.00
16.47390913963318, -3.14, 1.57, 0.96, 0.53, 1.42, -179.91, 89.95, 54.95, 30.31, 81.48, -0.00, 0.00, 0.00, -0.00, 0.00, -0.00, -12.70, -3.70, -0.25, -0.00
16.52003312110901, -3.14, 1.57, 0.96, 0.53, 1.42, -179.91, 89.95, 54.95, 30.31, 81.48, -0.00, 0.00, 0.00, -0.00, 0.00, -0.00, -12.70, -3.70, -0.25, 0.00
16.56901502609253, -3.14, 1.57, 0.96, 0.53, 1.42, -179.91, 89.95, 54.95, 30.31, 81.48, -0.00, 0.00, 0.00, -0.00, 0.00, -0.00, -12.70, -3.70, -0.25, 0.00
16.619801998138428, -3.14, 1.57, 0.96, 0.53, 1.42, -179.91, 89.95, 54.95, 30.31, 81.48, -0.00, 0.00, 0.00, -0.00, 0.00, -0.00, -12.70, -3.70, -0.25, -0.00
16.66680598258972, -3.14, 1.57, 0.96, 0.53, 1.42, -179.91, 89.95, 54.95, 30.31, 81.48, -0.00, 0.00, 0.00, -0.00, 0.00, -0.00, -12.70, -3.70, -0.25, 0.00
16.714997053146362, -3.14, 1.57, 0.96, 0.53, 1.42, -179.91, 89.95, 54.95, 30.31, 81.48, -0.00, 0.00, 0.00, -0.00, 0.00, -0.00, -12.70, -3.70, -0.25, 0.00
16.755959510803223, -3.14, 1.57, 0.96, 0.53, 1.42, -179.91, 89.95, 54.95, 30.31, 81.48, -0.00, 0.00, 0.00, -0.00, 0.00, -0.00, -12.70, -3.70, -0.25, -0.00
16.808647871017456, -3.14, 1.57, 0.96, 0.53, 1.42, -179.91, 89.95, 54.95, 30.31, 81.48, -0.00, 0.00, 0.00, -0.00, 0.00, -0.00, -12.70, -3.70, -0.25, 0.00
16.857648372650146, -3.14, 1.57, 0.96, 0.53, 1.42, -179.91, 89.95, 54.95, 30.31, 81.48, -0.00, 0.00, 0.00, -0.00, 0.00, -0.00, -12.70, -3.70, -0.25, 0.00
16.907647371292114, -3.14, 1.57, 0.96, 0.53, 1.42, -179.91, 89.95, 54.95, 30.31, 81.48, -0.00, 0.00, 0.00, -0.00, 0.00, -0.00, -12.70, -3.70, -0.25, -0.00
16.951645374298096, -3.14, 1.57, 0.96, 0.53, 1.42, -179.91, 89.95, 54.95, 30.31, 81.48, -0.00, 0.00, 0.00, -0.00, 0.00, -0.00, -12.70, -3.70, -0.25, 0.00
16.99864673614502, -3.14, 1.57, 0.96, 0.53, 1.42, -179.91, 89.95, 54.95, 30.31, 81.48, -0.00, 0.00, 0.00, -0.00, 0.00, -0.00, -12.70, -3.70, -0.25, 0.00
17.047645807266235, -3.14, 1.57, 0.96, 0.53, 1.42, -179.91, 89.95, 54.95, 30.31, 81.48, -0.00, 0.00, 0.00, -0.00, 0.00, -0.00, -12.70, -3.70, -0.25, -0.00
17.096646308898926, -3.14, 1.57, 0.96, 0.53, 1.42, -179.91, 89.95, 54.95, 30.31, 81.48, -0.00, 0.00, 0.00, -0.00, 0.00, -0.00, -12.70, -3.70, -0.25, 0.00
17.145946502685547, -3.14, 1.57, 0.96, 0.53, 1.42, -179.91, 89.95, 54.95, 30.31, 81.48, -0.00, 0.00, 0.00, -0.00, 0.00, -0.00, -12.70, -3.70, -0.25, 0.00
17.196412324905396, -3.14, 1.57, 0.96, 0.53, 1.42, -179.91, 89.95, 54.95, 30.31, 81.48, -0.00, 0.00, 0.00, -0.00, 0.00, -0.00, -12.70, -3.70, -0.25, -0.00
17.27441430091858, -3.14, 1.57, 0.96, 0.53, 1.42, -179.91, 89.95, 54.95, 30.31, 81.48, -0.00, 0.00, 0.00, -0.00, 0.00, -0.00, -12.70, -3.70, -0.25, 0.00
17.324933290481567, -3.14, 1.57, 0.96, 0.53, 1.42, -179.91, 89.95, 54.95, 30.31, 81.48, -0.00, 0.00, 0.00, -0.00, 0.00, -0.00, -12.70, -3.70, -0.25, 0.00
17.36992883682251, -3.14, 1.57, 0.96, 0.53, 1.42, -179.91, 89.95, 54.95, 30.31, 81.48, -0.00, 0.00, 0.00, -0.00, 0.00, -0.00, -12.70, -3.70, -0.25, -0.00
17.41293215751648, -3.14, 1.57, 0.96, 0.53, 1.42, -179.91, 89.95, 54.95, 30.31, 81.48, -0.00, 0.00, 0.00, -0.00, 0.00, -0.00, -12.70, -3.70, -0.25, 0.00
17.457928895950317, -3.14, 1.57, 0.96, 0.53, 1.42, -179.91, 89.95, 54.95, 30.31, 81.48, -0.00, 0.00, 0.00, -0.00, 0.00, -0.00, -12.70, -3.70, -0.25, 0.00
17.51093292236328, -3.14, 1.57, 0.96, 0.53, 1.42, -179.91, 89.95, 54.95, 30.31, 81.48, -0.00, 0.00, 0.00, -0.00, 0.00, -0.00, -12.70, -3.70, -0.25, -0.00
17.553946256637573, -3.14, 1.57, 0.96, 0.53, 1.42, -179.91, 89.95, 54.95, 30.31, 81.48, -0.00, 0.00, 0.00, -0.00, 0.00, -0.00, -12.70, -3.70, -0.25, 0.00
17.603946924209595, -3.14, 1.57, 0.96, 0.53, 1.42, -179.91, 89.95, 54.95, 30.31, 81.48, -0.00, 0.00, 0.00, -0.00, 0.00, -0.00, -12.70, -3.70, -0.25, 0.00
17.649948358535767, -3.14, 1.57, 0.96, 0.53, 1.42, -179.91, 89.95, 54.95, 30.31, 81.48, -0.00, 0.00, 0.00, -0.00, 0.00, -0.00, -12.70, -3.70, -0.25, -0.00
17.695948600769043, -3.14, 1.57, 0.96, 0.53, 1.42, -179.91, 89.95, 54.95, 30.31, 81.48, -0.00, 0.00, 0.00, -0.00, 0.00, -0.00, -12.70, -3.70, -0.25, 0.00
17.741461515426636, -3.14, 1.57, 0.96, 0.53, 1.42, -179.91, 89.95, 54.95, 30.31, 81.48, -0.00, 0.00, 0.00, -0.00, 0.00, -0.00, -12.70, -3.70, -0.25, 0.00
17.795461893081665, -3.14, 1.57, 0.96, 0.53, 1.42, -179.91, 89.95, 54.95, 30.31, 81.48, -0.00, 0.00, 0.00, -0.00, 0.00, -0.00, -12.70, -3.70, -0.25, -0.00
17.841461181640625, -3.14, 1.57, 0.96, 0.53, 1.42, -179.91, 89.95, 54.95, 30.31, 81.48, -0.00, 0.00, 0.00, -0.00, 0.00, -0.00, -12.70, -3.70, -0.25, 0.00
17.88905620574951, -3.14, 1.57, 0.96, 0.53, 1.42, -179.91, 89.95, 54.95, 30.31, 81.48, -0.00, 0.00, 0.00, -0.00, 0.00, -0.00, -12.70, -3.70, -0.25, 0.00
17.933069705963135, -3.14, 1.57, 0.96, 0.53, 1.42, -179.91, 89.95, 54.95, 30.31, 81.48, -0.00, 0.00, 0.00, -0.00, 0.00, -0.00, -12.70, -3.70, -0.25, -0.00
17.982070207595825, -3.14, 1.57, 0.96, 0.53, 1.42, -179.91, 89.95, 54.95, 30.31, 81.48, -0.00, 0.00, 0.00, -0.00, 0.00, -0.00, -12.70, -3.70, -0.25, 0.00
18.03207039833069, -3.14, 1.57, 0.96, 0.53, 1.42, -179.91, 89.95, 54.95, 30.31, 81.48, -0.00, 0.00, 0.00, -0.00, 0.00, -0.00, -12.70, -3.70, -0.25, 0.00
18.080070972442627, -3.14, 1.57, 0.96, 0.53, 1.42, -179.91, 89.95, 54.95, 30.31, 81.48, -0.00, 0.00, 0.00, -0.00, 0.00, -0.00, -12.70, -3.70, -0.25, -0.00
18.13106942176819, -3.14, 1.57, 0.96, 0.53, 1.42, -179.91, 89.95, 54.95, 30.31, 81.48, -0.00, 0.00, 0.00, -0.00, 0.00, -0.00, -12.70, -3.70, -0.25, 0.00
18.17707085609436, -3.14, 1.57, 0.96, 0.53, 1.42, -179.91, 89.95, 54.95, 30.31, 81.48, -0.00, 0.00, 0.00, -0.00, 0.00, -0.00, -12.70, -3.70, -0.25, 0.00
18.227363109588623, -3.14, 1.57, 0.96, 0.53, 1.42, -179.91, 89.95, 54.95, 30.31, 81.48, -0.00, 0.00, 0.00, -0.00, 0.00, -0.00, -12.70, -3.70, -0.25, -0.00
18.273362636566162, -3.14, 1.57, 0.96, 0.53, 1.42, -179.91, 89.95, 54.95, 30.31, 81.48, -0.00, 0.00, 0.00, -0.00, 0.00, -0.00, -12.70, -3.70, -0.25, 0.00
18.315364837646484, -3.14, 1.57, 0.96, 0.53, 1.42, -179.91, 89.95, 54.95, 30.31, 81.48, -0.00, 0.00, 0.00, -0.00, 0.00, -0.00, -12.70, -3.70, -0.25, 0.00
18.370886087417603, -3.14, 1.57, 0.96, 0.53, 1.42, -179.91, 89.95, 54.95, 30.31, 81.48, -0.00, 0.00, 0.00, -0.00, 0.00, -0.00, -12.70, -3.70, -0.25, -0.00
18.42255735397339, -3.14, 1.57, 0.96, 0.53, 1.42, -179.91, 89.95, 54.95, 30.31, 81.48, -0.00, 0.00, 0.00, -0.00, 0.00, -0.00, -12.70, -3.70, -0.25, 0.00
18.469091176986694, -3.14, 1.57, 0.96, 0.53, 1.42, -179.91, 89.95, 54.95, 30.31, 81.48, -0.00, 0.00, 0.00, -0.00, 0.00, -0.00, -12.70, -3.70, -0.25, 0.00
18.519883155822754, -3.14, 1.57, 0.96, 0.53, 1.42, -179.91, 89.95, 54.95, 30.31, 81.48, -0.00, 0.00, 0.00, -0.00, 0.00, -0.00, -12.70, -3.70, -0.25, -0.00
18.57255792617798, -3.14, 1.57, 0.96, 0.53, 1.42, -179.91, 89.95, 54.95, 30.31, 81.48, -0.00, 0.00, 0.00, -0.00, 0.00, -0.00, -12.70, -3.70, -0.25, 0.00
18.614556550979614, -3.14, 1.57, 0.96, 0.53, 1.42, -179.91, 89.95, 54.95, 30.31, 81.48, -0.00, 0.00, 0.00, -0.00, 0.00, -0.00, -12.70, -3.70, -0.25, 0.00
18.69355535507202, -3.14, 1.57, 0.96, 0.53, 1.42, -179.91, 89.95, 54.95, 30.31, 81.48, -0.00, 0.00, 0.00, -0.00, 0.00, -0.00, -12.70, -3.70, -0.25, -0.00
18.745553493499756, -3.14, 1.57, 0.96, 0.53, 1.42, -179.91, 89.95, 54.95, 30.31, 81.48, -0.00, 0.00, 0.00, -0.00, 0.00, -0.00, -12.70, -3.70, -0.25, 0.00
18.791553258895874, -3.14, 1.57, 0.96, 0.53, 1.42, -179.91, 89.95, 54.95, 30.31, 81.48, -0.00, 0.00, 0.00, -0.00, 0.00, -0.00, -12.70, -3.70, -0.25, 0.00
18.83477258682251, -3.14, 1.57, 0.96, 0.53, 1.42, -179.91, 89.95, 54.95, 30.31, 81.48, -0.00, 0.00, 0.00, -0.00, 0.00, -0.00, -12.70, -3.70, -0.25, -0.00
18.88177227973938, -3.14, 1.57, 0.96, 0.53, 1.42, -179.91, 89.95, 54.95, 30.31, 81.48, -0.00, 0.00, 0.00, -0.00, 0.00, -0.00, -12.70, -3.70, -0.25, 0.00
18.927772521972656, -3.14, 1.57, 0.96, 0.53, 1.42, -179.91, 89.95, 54.95, 30.31, 81.48, -0.00, 0.00, 0.00, -0.00, 0.00, -0.00, -12.70, -3.70, -0.25, 0.00
18.973774194717407, -3.14, 1.57, 0.96, 0.53, 1.42, -179.91, 89.95, 54.95, 30.31, 81.48, -0.00, 0.00, 0.00, -0.00, 0.00, -0.00, -12.70, -3.70, -0.25, -0.00
19.02153444290161, -3.14, 1.57, 0.96, 0.53, 1.42, -179.91, 89.95, 54.95, 30.31, 81.48, -0.00, 0.00, 0.00, -0.00, 0.00, -0.00, -12.70, -3.70, -0.25, 0.00
19.066535711288452, -3.14, 1.57, 0.96, 0.53, 1.42, -179.91, 89.95, 54.95, 30.31, 81.48, -0.00, 0.00, 0.00, -0.00, 0.00, -0.00, -12.70, -3.70, -0.25, 0.00
19.116533756256104, -3.14, 1.57, 0.96, 0.53, 1.42, -179.91, 89.95, 54.95, 30.31, 81.48, -0.00, 0.00, 0.00, -0.00, 0.00, -0.00, -12.70, -3.70, -0.25, -0.00
19.16353487968445, -3.14, 1.57, 0.96, 0.53, 1.42, -179.91, 89.95, 54.95, 30.31, 81.48, -0.00, 0.00, 0.00, -0.00, 0.00, -0.00, -12.70, -3.70, -0.25, 0.00
19.211535692214966, -3.14, 1.57, 0.96, 0.53, 1.42, -179.91, 89.95, 54.95, 30.31, 81.48, -0.00, 0.00, 0.00, -0.00, 0.00, -0.00, -12.70, -3.70, -0.25, 0.00
19.262534141540527, -3.14, 1.57, 0.96, 0.53, 1.42, -179.91, 89.95, 54.95, 30.31, 81.48, -0.00, 0.00, 0.00, -0.00, 0.00, -0.00, -12.70, -3.70, -0.25, -0.00
19.345535039901733, -3.14, 1.57, 0.96, 0.53, 1.42, -179.91, 89.95, 54.95, 30.31, 81.48, -0.00, 0.00, 0.00, -0.00, 0.00, -0.00, -12.70, -3.70, -0.25, 0.00
19.39653468132019, -3.14, 1.57, 0.96, 0.53, 1.42, -179.91, 89.95, 54.95, 30.31, 81.48, -0.00, 0.00, 0.00, -0.00, 0.00, -0.00, -12.70, -3.70, -0.25, 0.00
19.443533182144165, -3.14, 1.57, 0.96, 0.53, 1.42, -179.91, 89.95, 54.95, 30.31, 81.48, -0.00, 0.00, 0.00, -0.00, 0.00, -0.00, -12.70, -3.70, -0.25, -0.00
19.487533569335938, -3.14, 1.57, 0.96, 0.53, 1.42, -179.91, 89.95, 54.95, 30.31, 81.48, -0.00, 0.00, 0.00, -0.00, 0.00, -0.00, -12.70, -3.70, -0.25, 0.00
19.53386950492859, -3.14, 1.57, 0.96, 0.53, 1.42, -179.91, 89.95, 54.95, 30.31, 81.48, -0.00, 0.00, 0.00, -0.00, 0.00, -0.00, -12.70, -3.70, -0.25, 0.00
19.575867652893066, -3.14, 1.57, 0.96, 0.53, 1.42, -179.91, 89.95, 54.95, 30.31, 81.48, -0.00, 0.00, 0.00, -0.00, 0.00, -0.00, -12.70, -3.70, -0.25, -0.00
19.6218683719635, -3.14, 1.57, 0.96, 0.53, 1.42, -179.91, 89.95, 54.95, 30.31, 81.48, -0.00, 0.00, 0.00, -0.00, 0.00, -0.00, -12.70, -3.70, -0.25, 0.00
19.670867443084717, -3.14, 1.57, 0.96, 0.53, 1.42, -179.91, 89.95, 54.95, 30.31, 81.48, -0.00, 0.00, 0.00, -0.00, 0.00, -0.00, -12.70, -3.70, -0.25, 0.00
19.713388681411743, -3.14, 1.57, 0.96, 0.53, 1.42, -179.91, 89.95, 54.95, 30.31, 81.48, -0.00, 0.00, 0.00, -0.00, 0.00, -0.00, -12.70, -3.70, -0.25, -0.00
19.75838589668274, -3.14, 1.57, 0.96, 0.53, 1.42, -179.91, 89.95, 54.95, 30.31, 81.48, -0.00, 0.00, 0.00, -0.00, 0.00, -0.00, -12.70, -3.70, -0.25, 0.00
19.80138635635376, -3.14, 1.57, 0.96, 0.53, 1.42, -179.91, 89.95, 54.95, 30.31, 81.48, -0.00, 0.00, 0.00, -0.00, 0.00, -0.00, -12.70, -3.70, -0.25, 0.00
19.84838557243347, -3.14, 1.57, 0.96, 0.53, 1.42, -179.91, 89.95, 54.95, 30.31, 81.48, -0.00, 0.00, 0.00, -0.00, 0.00, -0.00, -12.70, -3.70, -0.25, -0.00
19.895111560821533, -3.14, 1.57, 0.96, 0.53, 1.42, -179.91, 89.95, 54.95, 30.31, 81.48, -0.00, 0.00, 0.00, -0.00, 0.00, -0.00, -12.70, -3.70, -0.25, 0.00
19.944109678268433, -3.14, 1.57, 0.96, 0.53, 1.42, -179.91, 89.95, 54.95, 30.31, 81.48, -0.00, 0.00, 0.00, -0.00, 0.00, -0.00, -12.70, -3.70, -0.25, 0.00
19.997111320495605, -3.14, 1.57, 0.96, 0.53, 1.42, -179.91, 89.95, 54.95, 30.31, 81.48, -0.00, 0.00, 0.00, -0.00, 0.00, -0.00, -12.70, -3.70, -0.25, -0.00
20.062628269195557, -3.14, 1.57, 0.96, 0.53, 1.42, -179.91, 89.95, 54.95, 30.31, 81.48, -0.00, 0.00, 0.00, -0.00, 0.00, -0.00, -12.70, -3.70, -0.25, 0.00
20.115626573562622, -3.14, 1.57, 0.96, 0.53, 1.42, -179.91, 89.95, 54.95, 30.31, 81.48, -0.00, 0.00, 0.00, -0.00, 0.00, -0.00, -12.70, -3.70, -0.25, 0.00
20.163630723953247, -3.14, 1.57, 0.96, 0.53, 1.42, -179.91, 89.95, 54.95, 30.31, 81.48, -0.00, 0.00, 0.00, -0.00, 0.00, -0.00, -12.70, -3.70, -0.25, -0.00
20.216625690460205, -3.14, 1.57, 0.96, 0.53, 1.42, -179.91, 89.95, 54.95, 30.31, 81.48, -0.00, 0.00, 0.00, -0.00, 0.00, -0.00, -12.70, -3.70, -0.25, 0.00
20.267627477645874, -3.14, 1.57, 0.96, 0.53, 1.42, -179.91, 89.95, 54.95, 30.31, 81.48, -0.00, 0.00, 0.00, -0.00, 0.00, -0.00, -12.70, -3.70, -0.25, 0.00
20.31663155555725, -3.14, 1.57, 0.96, 0.53, 1.42, -179.91, 89.95, 54.95, 30.31, 81.48, -0.00, 0.00, 0.00, -0.00, 0.00, -0.00, -12.70, -3.70, -0.25, -0.00
20.36426830291748, -3.14, 1.57, 0.96, 0.53, 1.42, -179.91, 89.95, 54.95, 30.31, 81.48, -0.00, 0.00, 0.00, -0.00, 0.00, -0.00, -12.70, -3.70, -0.25, 0.00
20.41526770591736, -3.14, 1.57, 0.96, 0.53, 1.42, -179.91, 89.95, 54.95, 30.31, 81.48, -0.00, 0.00, 0.00, -0.00, 0.00, -0.00, -12.70, -3.70, -0.25, 0.00
20.462267637252808, -3.14, 1.57, 0.96, 0.53, 1.42, -179.91, 89.95, 54.95, 30.31, 81.48, -0.00, 0.00, 0.00, -0.00, 0.00, -0.00, -12.70, -3.70, -0.25, -0.00
20.51199436187744, -3.14, 1.57, 0.96, 0.53, 1.42, -179.91, 89.95, 54.95, 30.31, 81.48, -0.00, 0.00, 0.00, -0.00, 0.00, -0.00, -12.70, -3.70, -0.25, 0.00
20.565959692001343, -3.14, 1.57, 0.96, 0.53, 1.42, -179.91, 89.95, 54.95, 30.31, 81.48, -0.00, 0.00, 0.00, -0.00, 0.00, -0.00, -12.70, -3.70, -0.25, 0.00
20.623197078704834, -3.14, 1.57, 0.96, 0.53, 1.42, -179.91, 89.95, 54.95, 30.31, 81.48, -0.00, 0.00, 0.00, -0.00, 0.00, -0.00, -12.70, -3.70, -0.25, -0.00
20.68559956550598, -3.14, 1.57, 0.96, 0.53, 1.42, -179.91, 89.95, 54.95, 30.31, 81.48, -0.00, 0.00, 0.00, -0.00, 0.00, -0.00, -12.70, -3.70, -0.25, 0.00
20.73730444908142, -3.14, 1.57, 0.96, 0.53, 1.42, -179.91, 89.95, 54.95, 30.31, 81.48, -0.00, 0.00, 0.00, -0.00, 0.00, -0.00, -12.70, -3.70, -0.25, 0.00
20.789304971694946, -3.14, 1.57, 0.96, 0.53, 1.42, -179.91, 89.95, 54.95, 30.31, 81.48, -0.00, 0.00, 0.00, -0.00, 0.00, -0.00, -12.70, -3.70, -0.25, -0.00
20.838305234909058, -3.14, 1.57, 0.96, 0.53, 1.42, -179.91, 89.95, 54.95, 30.31, 81.48, -0.00, 0.00, 0.00, -0.00, 0.00, -0.00, -12.70, -3.70, -0.25, 0.00
20.88798689842224, -3.14, 1.57, 0.96, 0.53, 1.42, -179.91, 89.95, 54.95, 30.31, 81.48, -0.00, 0.00, 0.00, -0.00, 0.00, -0.00, -12.70, -3.70, -0.25, 0.00
20.933998823165894, -3.14, 1.57, 0.96, 0.53, 1.42, -179.91, 89.95, 54.95, 30.31, 81.48, -0.00, 0.00, 0.00, -0.00, 0.00, -0.00, -12.70, -3.70, -0.25, -0.00
20.977998971939087, -3.14, 1.57, 0.96, 0.53, 1.42, -179.91, 89.95, 54.95, 30.31, 81.48, -0.00, 0.00, 0.00, -0.00, 0.00, -0.00, -12.70, -3.70, -0.25, 0.00
21.019999265670776, -3.14, 1.57, 0.96, 0.53, 1.42, -179.91, 89.95, 54.95, 30.31, 81.48, -0.00, 0.00, 0.00, -0.00, 0.00, -0.00, -12.70, -3.70, -0.25, 0.00
21.06399893760681, -3.14, 1.57, 0.96, 0.53, 1.42, -179.91, 89.95, 54.95, 30.31, 81.48, -0.00, 0.00, 0.00, -0.00, 0.00, -0.00, -12.70, -3.70, -0.25, -0.00
21.11400032043457, -3.14, 1.57, 0.96, 0.53, 1.42, -179.91, 89.95, 54.95, 30.31, 81.48, -0.00, 0.00, 0.00, -0.00, 0.00, -0.00, -12.70, -3.70, -0.25, 0.00
21.163761138916016, -3.14, 1.57, 0.96, 0.53, 1.42, -179.91, 89.95, 54.95, 30.31, 81.48, -0.00, 0.00, 0.00, -0.00, 0.00, -0.00, -12.70, -3.70, -0.25, 0.00
21.20575761795044, -3.14, 1.57, 0.96, 0.53, 1.42, -179.91, 89.95, 54.95, 30.31, 81.48, -0.00, 0.00, 0.00, -0.00, 0.00, -0.00, -12.70, -3.70, -0.25, -0.00
21.251757860183716, -3.14, 1.57, 0.96, 0.53, 1.42, -179.91, 89.95, 54.95, 30.31, 81.48, -0.00, 0.00, 0.00, -0.00, 0.00, -0.00, -12.70, -3.70, -0.25, 0.00
21.297771215438843, -3.14, 1.57, 0.96, 0.53, 1.42, -179.91, 89.95, 54.95, 30.31, 81.48, -0.00, 0.00, 0.00, -0.00, 0.00, -0.00, -12.70, -3.70, -0.25, 0.00
21.34329652786255, -3.14, 1.57, 0.96, 0.53, 1.42, -179.91, 89.95, 54.95, 30.31, 81.48, -0.00, 0.00, 0.00, -0.00, 0.00, -0.00, -12.70, -3.70, -0.25, -0.00
21.38838815689087, -3.14, 1.57, 0.96, 0.53, 1.42, -179.91, 89.95, 54.95, 30.31, 81.48, -0.00, 0.00, 0.00, -0.00, 0.00, -0.00, -12.70, -3.70, -0.25, 0.00
21.44136357307434, -3.14, 1.57, 0.96, 0.53, 1.42, -179.91, 89.95, 54.95, 30.31, 81.48, -0.00, 0.00, 0.00, -0.00, 0.00, -0.00, -12.70, -3.70, -0.25, 0.00
21.494036197662354, -3.14, 1.57, 0.96, 0.53, 1.42, -179.91, 89.95, 54.95, 30.31, 81.48, -0.00, 0.00, 0.00, -0.00, 0.00, -0.00, -12.70, -3.70, -0.25, -0.00
21.542684316635132, -3.14, 1.57, 0.96, 0.53, 1.42, -179.91, 89.95, 54.95, 30.31, 81.48, -0.00, 0.00, 0.00, -0.00, 0.00, -0.00, -12.70, -3.70, -0.25, 0.00
21.61383628845215, -3.14, 1.57, 0.96, 0.53, 1.42, -179.91, 89.95, 54.95, 30.31, 81.48, -0.00, 0.00, 0.00, -0.00, 0.00, -0.00, -12.70, -3.70, -0.25, 0.00
21.66635775566101, -3.14, 1.57, 0.96, 0.53, 1.42, -179.91, 89.95, 54.95, 30.31, 81.48, -0.00, 0.00, 0.00, -0.00, 0.00, -0.00, -12.70, -3.70, -0.25, -0.00
21.716354846954346, -3.14, 1.57, 0.96, 0.53, 1.42, -179.91, 89.95, 54.95, 30.31, 81.48, -0.00, 0.00, 0.00, -0.00, 0.00, -0.00, -12.70, -3.70, -0.25, 0.00
21.767356395721436, -3.14, 1.57, 0.96, 0.53, 1.42, -179.91, 89.95, 54.95, 30.31, 81.48, -0.00, 0.00, 0.00, -0.00, 0.00, -0.00, -12.70, -3.70, -0.25, 0.00
21.817356824874878, -3.14, 1.57, 0.96, 0.53, 1.42, -179.91, 89.95, 54.95, 30.31, 81.48, -0.00, 0.00, 0.00, -0.00, 0.00, -0.00, -12.70, -3.70, -0.25, -0.00
21.860356330871582, -3.14, 1.57, 0.96, 0.53, 1.42, -179.91, 89.95, 54.95, 30.31, 81.48, -0.00, 0.00, 0.00, -0.00, 0.00, -0.00, -12.70, -3.70, -0.25, 0.00
21.90835452079773, -3.14, 1.57, 0.96, 0.53, 1.42, -179.91, 89.95, 54.95, 30.31, 81.48, -0.00, 0.00, 0.00, -0.00, 0.00, -0.00, -12.70, -3.70, -0.25, 0.00
21.95635461807251, -3.14, 1.57, 0.96, 0.53, 1.42, -179.91, 89.95, 54.95, 30.31, 81.48, -0.00, 0.00, 0.00, -0.00, 0.00, -0.00, -12.70, -3.70, -0.25, -0.00
22.006356716156006, -3.14, 1.57, 0.96, 0.53, 1.42, -179.91, 89.95, 54.95, 30.31, 81.48, -0.00, 0.00, 0.00, -0.00, 0.00, -0.00, -12.70, -3.70, -0.25, 0.00
22.058355808258057, -3.14, 1.57, 0.96, 0.53, 1.42, -179.91, 89.95, 54.95, 30.31, 81.48, -0.00, 0.00, 0.00, -0.00, 0.00, -0.00, -12.70, -3.70, -0.25, 0.00
22.10535502433777, -3.14, 1.57, 0.96, 0.53, 1.42, -179.91, 89.95, 54.95, 30.31, 81.48, -0.00, 0.00, 0.00, -0.00, 0.00, -0.00, -12.70, -3.70, -0.25, -0.00
22.16135573387146, -3.14, 1.57, 0.96, 0.53, 1.42, -179.91, 89.95, 54.95, 30.31, 81.48, -0.00, 0.00, 0.00, -0.00, 0.00, -0.00, -12.70, -3.70, -0.25, 0.00
22.21435570716858, -3.14, 1.57, 0.96, 0.53, 1.42, -179.91, 89.95, 54.95, 30.31, 81.48, -0.00, 0.00, 0.00, -0.00, 0.00, -0.00, -12.70, -3.70, -0.25, 0.00
22.263479471206665, -3.14, 1.57, 0.96, 0.53, 1.42, -179.91, 89.95, 54.95, 30.31, 81.48, -0.00, 0.00, 0.00, -0.00, 0.00, -0.00, -12.70, -3.70, -0.25, -0.00
22.316569566726685, -3.14, 1.57, 0.96, 0.53, 1.42, -179.91, 89.95, 54.95, 30.31, 81.48, -0.00, 0.00, 0.00, -0.00, 0.00, -0.00, -12.70, -3.70, -0.25, 0.00
22.368226051330566, -3.14, 1.57, 0.96, 0.53, 1.42, -179.91, 89.95, 54.95, 30.31, 81.48, -0.00, 0.00, 0.00, -0.00, 0.00, -0.00, -12.70, -3.70, -0.25, 0.00
22.417227506637573, -3.14, 1.57, 0.96, 0.53, 1.42, -179.91, 89.95, 54.95, 30.31, 81.48, -0.00, 0.00, 0.00, -0.00, 0.00, -0.00, -12.70, -3.70, -0.25, -0.00
22.46522569656372, -3.14, 1.57, 0.96, 0.53, 1.42, -179.91, 89.95, 54.95, 30.31, 81.48, -0.00, 0.00, 0.00, -0.00, 0.00, -0.00, -12.70, -3.70, -0.25, 0.00
22.511226892471313, -3.14, 1.57, 0.96, 0.53, 1.42, -179.91, 89.95, 54.95, 30.31, 81.48, -0.00, 0.00, 0.00, -0.00, 0.00, -0.00, -12.70, -3.70, -0.25, 0.00
22.561148643493652, -3.14, 1.57, 0.96, 0.53, 1.42, -179.91, 89.95, 54.95, 30.31, 81.48, -0.00, 0.00, 0.00, -0.00, 0.00, -0.00, -12.70, -3.70, -0.25, -0.00
22.61110758781433, -3.14, 1.57, 0.96, 0.53, 1.42, -179.91, 89.95, 54.95, 30.31, 81.48, -0.00, 0.00, 0.00, -0.00, 0.00, -0.00, -12.70, -3.70, -0.25, 0.00
22.65710997581482, -3.14, 1.57, 0.96, 0.53, 1.42, -179.91, 89.95, 54.95, 30.31, 81.48, -0.00, 0.00, 0.00, -0.00, 0.00, -0.00, -12.70, -3.70, -0.25, 0.00
22.70993399620056, -3.14, 1.57, 0.96, 0.53, 1.42, -179.91, 89.95, 54.95, 30.31, 81.48, -0.00, 0.00, 0.00, -0.00, 0.00, -0.00, -12.70, -3.70, -0.25, -0.00
22.760916233062744, -3.14, 1.57, 0.96, 0.53, 1.42, -179.91, 89.95, 54.95, 30.31, 81.48, -0.00, 0.00, 0.00, -0.00, 0.00, -0.00, -12.70, -3.70, -0.25, 0.00
22.814915657043457, -3.14, 1.57, 0.96, 0.53, 1.42, -179.91, 89.95, 54.95, 30.31, 81.48, -0.00, 0.00, 0.00, -0.00, 0.00, -0.00, -12.70, -3.70, -0.25, 0.00
22.866785287857056, -3.14, 1.57, 0.96, 0.53, 1.42, -179.91, 89.95, 54.95, 30.31, 81.48, -0.00, 0.00, 0.00, -0.00, 0.00, -0.00, -12.70, -3.70, -0.25, -0.00
22.91547966003418, -3.14, 1.57, 0.96, 0.53, 1.42, -179.91, 89.95, 54.95, 30.31, 81.48, -0.00, 0.00, 0.00, -0.00, 0.00, -0.00, -12.70, -3.70, -0.25, 0.00
22.96625065803528, -3.14, 1.57, 0.96, 0.53, 1.42, -179.91, 89.95, 54.95, 30.31, 81.48, -0.00, 0.00, 0.00, -0.00, 0.00, -0.00, -12.70, -3.70, -0.25, 0.00
23.019168376922607, -3.14, 1.57, 0.96, 0.53, 1.42, -179.91, 89.95, 54.95, 30.31, 81.48, -0.00, 0.00, 0.00, -0.00, 0.00, -0.00, -12.70, -3.70, -0.25, -0.00
23.07369327545166, -3.14, 1.57, 0.96, 0.53, 1.42, -179.91, 89.95, 54.95, 30.31, 81.48, -0.00, 0.00, 0.00, -0.00, 0.00, -0.00, -12.70, -3.70, -0.25, 0.00
23.122692108154297, -3.14, 1.57, 0.96, 0.53, 1.42, -179.91, 89.95, 54.95, 30.31, 81.48, -0.00, 0.00, 0.00, -0.00, 0.00, -0.00, -12.70, -3.70, -0.25, 0.00
23.173688888549805, -3.14, 1.57, 0.96, 0.53, 1.42, -179.91, 89.95, 54.95, 30.31, 81.48, -0.00, 0.00, 0.00, -0.00, 0.00, -0.00, -12.70, -3.70, -0.25, -0.00
23.228692293167114, -3.14, 1.57, 0.96, 0.53, 1.42, -179.91, 89.95, 54.95, 30.31, 81.48, -0.00, 0.00, 0.00, -0.00, 0.00, -0.00, -12.70, -3.70, -0.25, 0.00
23.27769184112549, -3.14, 1.57, 0.96, 0.53, 1.42, -179.91, 89.95, 54.95, 30.31, 81.48, -0.00, 0.00, 0.00, -0.00, 0.00, -0.00, -12.70, -3.70, -0.25, 0.00
23.318689346313477, -3.14, 1.57, 0.96, 0.53, 1.42, -179.91, 89.95, 54.95, 30.31, 81.48, -0.00, 0.00, 0.00, -0.00, 0.00, -0.00, -12.70, -3.70, -0.25, -0.00
23.360689163208008, -3.14, 1.57, 0.96, 0.53, 1.42, -179.91, 89.95, 54.95, 30.31, 81.48, -0.00, 0.00, 0.00, -0.00, 0.00, -0.00, -12.70, -3.70, -0.25, 0.00
23.406692028045654, -3.14, 1.57, 0.96, 0.53, 1.42, -179.91, 89.95, 54.95, 30.31, 81.48, -0.00, 0.00, 0.00, -0.00, 0.00, -0.00, -12.70, -3.70, -0.25, 0.00
23.448694229125977, -3.14, 1.57, 0.96, 0.53, 1.42, -179.91, 89.95, 54.95, 30.31, 81.48, -0.00, 0.00, 0.00, -0.00, 0.00, -0.00, -12.70, -3.70, -0.25, -0.00
23.491703987121582, -3.14, 1.57, 0.96, 0.53, 1.42, -179.91, 89.95, 54.95, 30.31, 81.48, -0.00, 0.00, 0.00, -0.00, 0.00, -0.00, -12.70, -3.70, -0.25, 0.00
23.544703722000122, -3.14, 1.57, 0.96, 0.53, 1.42, -179.91, 89.95, 54.95, 30.31, 81.48, -0.00, 0.00, 0.00, -0.00, 0.00, -0.00, -12.70, -3.70, -0.25, 0.00
23.5947048664093, -3.14, 1.57, 0.96, 0.53, 1.42, -179.91, 89.95, 54.95, 30.31, 81.48, -0.00, 0.00, 0.00, -0.00, 0.00, -0.00, -12.70, -3.70, -0.25, -0.00
23.6437029838562, -3.14, 1.57, 0.96, 0.53, 1.42, -179.91, 89.95, 54.95, 30.31, 81.48, -0.00, 0.00, 0.00, -0.00, 0.00, -0.00, -12.70, -3.70, -0.25, 0.00
23.693702459335327, -3.14, 1.57, 0.96, 0.53, 1.42, -179.91, 89.95, 54.95, 30.31, 81.48, -0.00, 0.00, 0.00, -0.00, 0.00, -0.00, -12.70, -3.70, -0.25, 0.00
23.739704132080078, -3.14, 1.57, 0.96, 0.53, 1.42, -179.91, 89.95, 54.95, 30.31, 81.48, -0.00, 0.00, 0.00, -0.00, 0.00, -0.00, -12.70, -3.70, -0.25, -0.00
23.789703369140625, -3.14, 1.57, 0.96, 0.53, 1.42, -179.91, 89.95, 54.95, 30.31, 81.48, -0.00, 0.00, 0.00, -0.00, 0.00, -0.00, -12.70, -3.70, -0.25, 0.00
23.832701444625854, -3.14, 1.57, 0.96, 0.53, 1.42, -179.91, 89.95, 54.95, 30.31, 81.48, -0.00, 0.00, 0.00, -0.00, 0.00, -0.00, -12.70, -3.70, -0.25, 0.00
23.874702215194702, -3.14, 1.57, 0.96, 0.53, 1.42, -179.91, 89.95, 54.95, 30.31, 81.48, -0.00, 0.00, 0.00, -0.00, 0.00, -0.00, -12.70, -3.70, -0.25, -0.00
23.92170214653015, -3.14, 1.57, 0.96, 0.53, 1.42, -179.91, 89.95, 54.95, 30.31, 81.48, -0.00, 0.00, 0.00, -0.00, 0.00, -0.00, -12.70, -3.70, -0.25, 0.00
23.973703145980835, -3.14, 1.57, 0.96, 0.53, 1.42, -179.91, 89.95, 54.95, 30.31, 81.48, -0.00, 0.00, 0.00, -0.00, 0.00, -0.00, -12.70, -3.70, -0.25, 0.00
24.026703596115112, -3.14, 1.57, 0.96, 0.53, 1.42, -179.91, 89.95, 54.95, 30.31, 81.48, -0.00, 0.00, 0.00, -0.00, 0.00, -0.00, -12.70, -3.70, -0.25, -0.00
24.074702262878418, -3.14, 1.57, 0.96, 0.53, 1.42, -179.91, 89.95, 54.95, 30.31, 81.48, -0.00, 0.00, 0.00, -0.00, 0.00, -0.00, -12.70, -3.70, -0.25, 0.00
24.119702100753784, -3.14, 1.57, 0.96, 0.53, 1.42, -179.91, 89.95, 54.95, 30.31, 81.48, -0.00, 0.00, 0.00, -0.00, 0.00, -0.00, -12.70, -3.70, -0.25, 0.00
24.170520305633545, -3.14, 1.57, 0.96, 0.53, 1.42, -179.91, 89.95, 54.95, 30.31, 81.48, -0.00, 0.00, 0.00, -0.00, 0.00, -0.00, -12.70, -3.70, -0.25, -0.00
24.21407198905945, -3.14, 1.57, 0.96, 0.53, 1.42, -179.91, 89.95, 54.95, 30.31, 81.48, -0.00, 0.00, 0.00, -0.00, 0.00, -0.00, -12.70, -3.70, -0.25, 0.00
24.256067752838135, -3.14, 1.57, 0.96, 0.53, 1.42, -179.91, 89.95, 54.95, 30.31, 81.48, -0.00, 0.00, 0.00, -0.00, 0.00, -0.00, -12.70, -3.70, -0.25, 0.00
24.305585622787476, -3.14, 1.57, 0.96, 0.53, 1.42, -179.91, 89.95, 54.95, 30.31, 81.48, -0.00, 0.00, 0.00, -0.00, 0.00, -0.00, -12.70, -3.70, -0.25, -0.00
24.359585523605347, -3.14, 1.57, 0.96, 0.53, 1.42, -179.91, 89.95, 54.95, 30.31, 81.48, -0.00, 0.00, 0.00, -0.00, 0.00, -0.00, -12.70, -3.70, -0.25, 0.00
24.41358518600464, -3.14, 1.57, 0.96, 0.53, 1.42, -179.91, 89.95, 54.95, 30.31, 81.48, -0.00, 0.00, 0.00, -0.00, 0.00, -0.00, -12.70, -3.70, -0.25, 0.00
24.468586921691895, -3.14, 1.57, 0.96, 0.53, 1.42, -179.91, 89.95, 54.95, 30.31, 81.48, -0.00, 0.00, 0.00, -0.00, 0.00, -0.00, -12.70, -3.70, -0.25, -0.00
24.520585298538208, -3.14, 1.57, 0.96, 0.53, 1.42, -179.91, 89.95, 54.95, 30.31, 81.48, -0.00, 0.00, 0.00, -0.00, 0.00, -0.00, -12.70, -3.70, -0.25, 0.00
24.590585708618164, -3.14, 1.57, 0.96, 0.53, 1.42, -179.91, 89.95, 54.95, 30.31, 81.48, -0.00, 0.00, 0.00, -0.00, 0.00, -0.00, -12.70, -3.70, -0.25, 0.00
24.649584531784058, -3.14, 1.57, 0.96, 0.53, 1.42, -179.91, 89.95, 54.95, 30.31, 81.48, -0.00, 0.00, 0.00, -0.00, 0.00, -0.00, -12.70, -3.70, -0.25, -0.00
24.701582670211792, -3.14, 1.57, 0.96, 0.53, 1.42, -179.91, 89.95, 54.95, 30.31, 81.48, -0.00, 0.00, 0.00, -0.00, 0.00, -0.00, -12.70, -3.70, -0.25, 0.00
24.753588438034058, -3.14, 1.57, 0.96, 0.53, 1.42, -179.91, 89.95, 54.95, 30.31, 81.48, -0.00, 0.00, 0.00, -0.00, 0.00, -0.00, -12.70, -3.70, -0.25, 0.00
24.80458354949951, -3.14, 1.57, 0.96, 0.53, 1.42, -179.91, 89.95, 54.95, 30.31, 81.48, -0.00, 0.00, 0.00, -0.00, 0.00, -0.00, -12.70, -3.70, -0.25, -0.00
24.85867476463318, -3.14, 1.57, 0.96, 0.53, 1.42, -179.91, 89.95, 54.95, 30.31, 81.48, -0.00, 0.00, 0.00, -0.00, 0.00, -0.00, -12.70, -3.70, -0.25, 0.00
24.90823793411255, -3.14, 1.57, 0.96, 0.53, 1.42, -179.91, 89.95, 54.95, 30.31, 81.48, -0.00, 0.00, 0.00, -0.00, 0.00, -0.00, -12.70, -3.70, -0.25, 0.00
24.96118402481079, -3.14, 1.57, 0.96, 0.53, 1.42, -179.91, 89.95, 54.95, 30.31, 81.48, -0.00, 0.00, 0.00, -0.00, 0.00, -0.00, -12.70, -3.70, -0.25, -0.00
25.010183334350586, -3.14, 1.57, 0.96, 0.53, 1.42, -179.91, 89.95, 54.95, 30.31, 81.48, -0.00, 0.00, 0.00, -0.00, 0.00, -0.00, -12.70, -3.70, -0.25, 0.00
25.066723823547363, -3.14, 1.57, 0.96, 0.53, 1.42, -179.91, 89.95, 54.95, 30.31, 81.48, -0.00, 0.00, 0.00, -0.00, 0.00, -0.00, -12.70, -3.70, -0.25, 0.00
25.121432065963745, -3.14, 1.57, 0.96, 0.53, 1.42, -179.91, 89.95, 54.95, 30.31, 81.48, -0.00, 0.00, 0.00, -0.00, 0.00, -0.00, -12.70, -3.70, -0.25, -0.00
25.17152500152588, -3.14, 1.57, 0.96, 0.53, 1.42, -179.91, 89.95, 54.95, 30.31, 81.48, -0.00, 0.00, 0.00, -0.00, 0.00, -0.00, -12.70, -3.70, -0.25, 0.00
25.227638006210327, -3.14, 1.57, 0.96, 0.53, 1.42, -179.91, 89.95, 54.95, 30.31, 81.48, -0.00, 0.00, 0.00, -0.00, 0.00, -0.00, -12.70, -3.70, -0.25, 0.00
25.279492378234863, -3.14, 1.57, 0.96, 0.53, 1.42, -179.91, 89.95, 54.95, 30.31, 81.48, -0.00, 0.00, 0.00, -0.00, 0.00, -0.00, -12.70, -3.70, -0.25, -0.00
25.330009698867798, -3.14, 1.57, 0.96, 0.53, 1.42, -179.91, 89.95, 54.95, 30.31, 81.48, -0.00, 0.00, 0.00, -0.00, 0.00, -0.00, -12.70, -3.70, -0.25, 0.00
25.38100790977478, -3.14, 1.57, 0.96, 0.53, 1.42, -179.91, 89.95, 54.95, 30.31, 81.48, -0.00, 0.00, 0.00, -0.00, 0.00, -0.00, -12.70, -3.70, -0.25, 0.00
25.431006908416748, -3.14, 1.57, 0.96, 0.53, 1.42, -179.91, 89.95, 54.95, 30.31, 81.48, -0.00, 0.00, 0.00, -0.00, 0.00, -0.00, -12.70, -3.70, -0.25, -0.00
25.480008363723755, -3.14, 1.57, 0.96, 0.53, 1.42, -179.91, 89.95, 54.95, 30.31, 81.48, -0.00, 0.00, 0.00, -0.00, 0.00, -0.00, -12.70, -3.70, -0.25, 0.00
25.532010078430176, -3.14, 1.57, 0.96, 0.53, 1.42, -179.91, 89.95, 54.95, 30.31, 81.48, -0.00, 0.00, 0.00, -0.00, 0.00, -0.00, -12.70, -3.70, -0.25, 0.00
25.58400845527649, -3.14, 1.57, 0.96, 0.53, 1.42, -179.91, 89.95, 54.95, 30.31, 81.48, -0.00, 0.00, 0.00, -0.00, 0.00, -0.00, -12.70, -3.70, -0.25, -0.00
25.640008449554443, -3.14, 1.57, 0.96, 0.53, 1.42, -179.91, 89.95, 54.95, 30.31, 81.48, -0.00, 0.00, 0.00, -0.00, 0.00, -0.00, -12.70, -3.70, -0.25, 0.00
25.698532819747925, -3.14, 1.57, 0.96, 0.53, 1.42, -179.91, 89.95, 54.95, 30.31, 81.48, -0.00, 0.00, 0.00, -0.00, 0.00, -0.00, -12.70, -3.70, -0.25, 0.00
25.746532440185547, -3.14, 1.57, 0.96, 0.53, 1.42, -179.91, 89.95, 54.95, 30.31, 81.48, -0.00, 0.00, 0.00, -0.00, 0.00, -0.00, -12.70, -3.70, -0.25, -0.00
25.799533128738403, -3.14, 1.57, 0.96, 0.53, 1.42, -179.91, 89.95, 54.95, 30.31, 81.48, -0.00, 0.00, 0.00, -0.00, 0.00, -0.00, -12.70, -3.70, -0.25, 0.00
25.847050428390503, -3.14, 1.57, 0.96, 0.53, 1.42, -179.91, 89.95, 54.95, 30.31, 81.48, -0.00, 0.00, 0.00, -0.00, 0.00, -0.00, -12.70, -3.70, -0.25, 0.00
25.90004825592041, -3.14, 1.57, 0.96, 0.53, 1.42, -179.91, 89.95, 54.95, 30.31, 81.48, -0.00, 0.00, 0.00, -0.00, 0.00, -0.00, -12.70, -3.70, -0.25, -0.00
25.95704698562622, -3.14, 1.57, 0.96, 0.53, 1.42, -179.91, 89.95, 54.95, 30.31, 81.48, -0.00, 0.00, 0.00, -0.00, 0.00, -0.00, -12.70, -3.70, -0.25, 0.00
26.004049062728882, -3.14, 1.57, 0.96, 0.53, 1.42, -179.91, 89.95, 54.95, 30.31, 81.48, -0.00, 0.00, 0.00, -0.00, 0.00, -0.00, -12.70, -3.70, -0.25, 0.00
26.059564113616943, -3.14, 1.57, 0.96, 0.53, 1.42, -179.91, 89.95, 54.95, 30.31, 81.48, -0.00, 0.00, 0.00, -0.00, 0.00, -0.00, -12.70, -3.70, -0.25, -0.00
26.108564376831055, -3.14, 1.57, 0.96, 0.53, 1.42, -179.91, 89.95, 54.95, 30.31, 81.48, -0.00, 0.00, 0.00, -0.00, 0.00, -0.00, -12.70, -3.70, -0.25, 0.00
26.159563064575195, -3.14, 1.57, 0.96, 0.53, 1.42, -179.91, 89.95, 54.95, 30.31, 81.48, -0.00, 0.00, 0.00, -0.00, 0.00, -0.00, -12.70, -3.70, -0.25, 0.00
26.213562965393066, -3.14, 1.57, 0.96, 0.53, 1.42, -179.91, 89.95, 54.95, 30.31, 81.48, -0.00, 0.00, 0.00, -0.00, 0.00, -0.00, -12.70, -3.70, -0.25, -0.00
26.268563270568848, -3.14, 1.57, 0.96, 0.53, 1.42, -179.91, 89.95, 54.95, 30.31, 81.48, -0.00, 0.00, 0.00, -0.00, 0.00, -0.00, -12.70, -3.70, -0.25, 0.00
26.31656575202942, -3.14, 1.57, 0.96, 0.53, 1.42, -179.91, 89.95, 54.95, 30.31, 81.48, -0.00, 0.00, 0.00, -0.00, 0.00, -0.00, -12.70, -3.70, -0.25, 0.00
26.36956262588501, -3.14, 1.57, 0.96, 0.53, 1.42, -179.91, 89.95, 54.95, 30.31, 81.48, -0.00, 0.00, 0.00, -0.00, 0.00, -0.00, -12.70, -3.70, -0.25, -0.00
26.419830083847046, -3.14, 1.57, 0.96, 0.53, 1.42, -179.91, 89.95, 54.95, 30.31, 81.48, -0.00, 0.00, 0.00, -0.00, 0.00, -0.00, -12.70, -3.70, -0.25, 0.00
26.471019744873047, -3.14, 1.57, 0.96, 0.53, 1.42, -179.91, 89.95, 54.95, 30.31, 81.48, -0.00, 0.00, 0.00, -0.00, 0.00, -0.00, -12.70, -3.70, -0.25, 0.00
26.521300792694092, -3.14, 1.57, 0.96, 0.53, 1.42, -179.91, 89.95, 54.95, 30.31, 81.48, -0.00, 0.00, 0.00, -0.00, 0.00, -0.00, -12.70, -3.70, -0.25, -0.00
26.571855068206787, -3.14, 1.57, 0.96, 0.53, 1.42, -179.91, 89.95, 54.95, 30.31, 81.48, -0.00, 0.00, 0.00, -0.00, 0.00, -0.00, -12.70, -3.70, -0.25, 0.00
26.623106002807617, -3.14, 1.57, 0.96, 0.53, 1.42, -179.91, 89.95, 54.95, 30.31, 81.48, -0.00, 0.00, 0.00, -0.00, 0.00, -0.00, -12.70, -3.70, -0.25, 0.00
26.67611598968506, -3.14, 1.57, 0.96, 0.53, 1.42, -179.91, 89.95, 54.95, 30.31, 81.48, -0.00, 0.00, 0.00, -0.00, 0.00, -0.00, -12.70, -3.70, -0.25, -0.00
26.72711682319641, -3.14, 1.57, 0.96, 0.53, 1.42, -179.91, 89.95, 54.95, 30.31, 81.48, -0.00, 0.00, 0.00, -0.00, 0.00, -0.00, -12.70, -3.70, -0.25, 0.00
26.774128198623657, -3.14, 1.57, 0.96, 0.53, 1.42, -179.91, 89.95, 54.95, 30.31, 81.48, -0.00, 0.00, 0.00, -0.00, 0.00, -0.00, -12.70, -3.70, -0.25, 0.00
26.817139863967896, -3.14, 1.57, 0.96, 0.53, 1.42, -179.91, 89.95, 54.95, 30.31, 81.48, -0.00, 0.00, 0.00, -0.00, 0.00, -0.00, -12.70, -3.70, -0.25, -0.00
26.865138292312622, -3.14, 1.57, 0.96, 0.53, 1.42, -179.91, 89.95, 54.95, 30.31, 81.48, -0.00, 0.00, 0.00, -0.00, 0.00, -0.00, -12.70, -3.70, -0.25, 0.00
26.91367745399475, -3.14, 1.57, 0.96, 0.53, 1.42, -179.91, 89.95, 54.95, 30.31, 81.48, -0.00, 0.00, 0.00, -0.00, 0.00, -0.00, -12.70, -3.70, -0.25, 0.00
26.96418857574463, -3.14, 1.57, 0.96, 0.53, 1.42, -179.91, 89.95, 54.95, 30.31, 81.48, -0.00, 0.00, 0.00, -0.00, 0.00, -0.00, -12.70, -3.70, -0.25, -0.00
27.01418447494507, -3.14, 1.57, 0.96, 0.53, 1.42, -179.91, 89.95, 54.95, 30.31, 81.48, -0.00, 0.00, 0.00, -0.00, 0.00, -0.00, -12.70, -3.70, -0.25, 0.00
27.060184717178345, -3.14, 1.57, 0.96, 0.53, 1.42, -179.91, 89.95, 54.95, 30.31, 81.48, -0.00, 0.00, 0.00, -0.00, 0.00, -0.00, -12.70, -3.70, -0.25, 0.00
27.108693599700928, -3.14, 1.57, 0.96, 0.53, 1.42, -179.91, 89.95, 54.95, 30.31, 81.48, -0.00, 0.00, 0.00, -0.00, 0.00, -0.00, -12.70, -3.70, -0.25, -0.00
27.156697034835815, -3.14, 1.57, 0.96, 0.53, 1.42, -179.91, 89.95, 54.95, 30.31, 81.48, -0.00, 0.00, 0.00, -0.00, 0.00, -0.00, -12.70, -3.70, -0.25, 0.00
27.200215101242065, -3.14, 1.57, 0.96, 0.53, 1.42, -179.91, 89.95, 54.95, 30.31, 81.48, -0.00, 0.00, 0.00, -0.00, 0.00, -0.00, -12.70, -3.70, -0.25, 0.00
27.246217250823975, -3.14, 1.57, 0.96, 0.53, 1.42, -179.91, 89.95, 54.95, 30.31, 81.48, -0.00, 0.00, 0.00, -0.00, 0.00, -0.00, -12.70, -3.70, -0.25, -0.00
27.29721689224243, -3.14, 1.57, 0.96, 0.53, 1.42, -179.91, 89.95, 54.95, 30.31, 81.48, -0.00, 0.00, 0.00, -0.00, 0.00, -0.00, -12.70, -3.70, -0.25, 0.00
27.34195637702942, -3.14, 1.57, 0.96, 0.53, 1.42, -179.91, 89.95, 54.95, 30.31, 81.48, -0.00, 0.00, 0.00, -0.00, 0.00, -0.00, -12.70, -3.70, -0.25, 0.00
27.38694977760315, -3.14, 1.57, 0.96, 0.53, 1.42, -179.91, 89.95, 54.95, 30.31, 81.48, -0.00, 0.00, 0.00, -0.00, 0.00, -0.00, -12.70, -3.70, -0.25, -0.00
27.4306538105011, -3.14, 1.57, 0.96, 0.53, 1.42, -179.91, 89.95, 54.95, 30.31, 81.48, -0.00, 0.00, 0.00, -0.00, 0.00, -0.00, -12.70, -3.70, -0.25, 0.00
27.479289770126343, -3.14, 1.57, 0.96, 0.53, 1.42, -179.91, 89.95, 54.95, 30.31, 81.48, -0.00, 0.00, 0.00, -0.00, 0.00, -0.00, -12.70, -3.70, -0.25, 0.00
27.521310806274414, -3.14, 1.57, 0.96, 0.53, 1.42, -179.91, 89.95, 54.95, 30.31, 81.48, -0.00, 0.00, 0.00, -0.00, 0.00, -0.00, -12.70, -3.70, -0.25, -0.00
27.56404447555542, -3.14, 1.57, 0.96, 0.53, 1.42, -179.91, 89.95, 54.95, 30.31, 81.48, -0.00, 0.00, 0.00, -0.00, 0.00, -0.00, -12.70, -3.70, -0.25, 0.00
27.610029458999634, -3.14, 1.57, 0.96, 0.53, 1.42, -179.91, 89.95, 54.95, 30.31, 81.48, -0.00, 0.00, 0.00, -0.00, 0.00, -0.00, -12.70, -3.70, -0.25, 0.00
27.685032844543457, -3.14, 1.57, 0.96, 0.53, 1.42, -179.91, 89.95, 54.95, 30.31, 81.48, -0.00, 0.00, 0.00, -0.00, 0.00, -0.00, -12.70, -3.70, -0.25, -0.00
27.7350332736969, -3.14, 1.57, 0.96, 0.53, 1.42, -179.91, 89.95, 54.95, 30.31, 81.48, -0.00, 0.00, 0.00, -0.00, 0.00, -0.00, -12.70, -3.70, -0.25, 0.00
27.78455114364624, -3.14, 1.57, 0.96, 0.53, 1.42, -179.91, 89.95, 54.95, 30.31, 81.48, -0.00, 0.00, 0.00, -0.00, 0.00, -0.00, -12.70, -3.70, -0.25, 0.00
27.83155107498169, -3.14, 1.57, 0.96, 0.53, 1.42, -179.91, 89.95, 54.95, 30.31, 81.48, -0.00, 0.00, 0.00, -0.00, 0.00, -0.00, -12.70, -3.70, -0.25, -0.00
27.88254976272583, -3.14, 1.57, 0.96, 0.53, 1.42, -179.91, 89.95, 54.95, 30.31, 81.48, -0.00, 0.00, 0.00, -0.00, 0.00, -0.00, -12.70, -3.70, -0.25, 0.00
27.929550170898438, -3.14, 1.57, 0.96, 0.53, 1.42, -179.91, 89.95, 54.95, 30.31, 81.48, -0.00, 0.00, 0.00, -0.00, 0.00, -0.00, -12.70, -3.70, -0.25, 0.00
27.978550672531128, -3.14, 1.57, 0.96, 0.53, 1.42, -179.91, 89.95, 54.95, 30.31, 81.48, -0.00, 0.00, 0.00, -0.00, 0.00, -0.00, -12.70, -3.70, -0.25, -0.00
28.028549194335938, -3.14, 1.57, 0.96, 0.53, 1.42, -179.91, 89.95, 54.95, 30.31, 81.48, -0.00, 0.00, 0.00, -0.00, 0.00, -0.00, -12.70, -3.70, -0.25, 0.00
28.076552629470825, -3.14, 1.57, 0.96, 0.53, 1.42, -179.91, 89.95, 54.95, 30.31, 81.48, -0.00, 0.00, 0.00, -0.00, 0.00, -0.00, -12.70, -3.70, -0.25, 0.00
28.14055109024048, -3.14, 1.57, 0.96, 0.53, 1.42, -179.91, 89.95, 54.95, 30.31, 81.48, -0.00, 0.00, 0.00, -0.00, 0.00, -0.00, -12.70, -3.70, -0.25, -0.00
28.194550275802612, -3.14, 1.57, 0.96, 0.53, 1.42, -179.91, 89.95, 54.95, 30.31, 81.48, -0.00, 0.00, 0.00, -0.00, 0.00, -0.00, -12.70, -3.70, -0.25, 0.00
28.24454975128174, -3.14, 1.57, 0.96, 0.53, 1.42, -179.91, 89.95, 54.95, 30.31, 81.48, -0.00, 0.00, 0.00, -0.00, 0.00, -0.00, -12.70, -3.70, -0.25, 0.00
28.287549018859863, -3.14, 1.57, 0.96, 0.53, 1.42, -179.91, 89.95, 54.95, 30.31, 81.48, -0.00, 0.00, 0.00, -0.00, 0.00, -0.00, -12.70, -3.70, -0.25, -0.00
28.337549686431885, -3.14, 1.57, 0.96, 0.53, 1.42, -179.91, 89.95, 54.95, 30.31, 81.48, -0.00, 0.00, 0.00, -0.00, 0.00, -0.00, -12.70, -3.70, -0.25, 0.00
28.378551244735718, -3.14, 1.57, 0.96, 0.53, 1.42, -179.91, 89.95, 54.95, 30.31, 81.48, -0.00, 0.00, 0.00, -0.00, 0.00, -0.00, -12.70, -3.70, -0.25, 0.00
28.42055058479309, -3.14, 1.57, 0.96, 0.53, 1.42, -179.91, 89.95, 54.95, 30.31, 81.48, -0.00, 0.00, 0.00, -0.00, 0.00, -0.00, -12.70, -3.70, -0.25, -0.00
28.467548847198486, -3.14, 1.57, 0.96, 0.53, 1.42, -179.91, 89.95, 54.95, 30.31, 81.48, -0.00, 0.00, 0.00, -0.00, 0.00, -0.00, -12.70, -3.70, -0.25, 0.00
28.519550800323486, -3.14, 1.57, 0.96, 0.53, 1.42, -179.91, 89.95, 54.95, 30.31, 81.48, -0.00, 0.00, 0.00, -0.00, 0.00, -0.00, -12.70, -3.70, -0.25, 0.00
28.57065725326538, -3.14, 1.57, 0.96, 0.53, 1.42, -179.91, 89.95, 54.95, 30.31, 81.48, -0.00, 0.00, 0.00, -0.00, 0.00, -0.00, -12.70, -3.70, -0.25, -0.00
28.62255072593689, -3.14, 1.57, 0.96, 0.53, 1.42, -179.91, 89.95, 54.95, 30.31, 81.48, -0.00, 0.00, 0.00, -0.00, 0.00, -0.00, -12.70, -3.70, -0.25, 0.00
28.677552700042725, -3.14, 1.57, 0.96, 0.53, 1.42, -179.91, 89.95, 54.95, 30.31, 81.48, -0.00, 0.00, 0.00, -0.00, 0.00, -0.00, -12.70, -3.70, -0.25, 0.00
28.724548816680908, -3.14, 1.57, 0.96, 0.53, 1.42, -179.91, 89.95, 54.95, 30.31, 81.48, -0.00, 0.00, 0.00, -0.00, 0.00, -0.00, -12.70, -3.70, -0.25, -0.00
28.766549110412598, -3.14, 1.57, 0.96, 0.53, 1.42, -179.91, 89.95, 54.95, 30.31, 81.48, -0.00, 0.00, 0.00, -0.00, 0.00, -0.00, -12.70, -3.70, -0.25, 0.00
28.81107497215271, -3.14, 1.57, 0.96, 0.53, 1.42, -179.91, 89.95, 54.95, 30.31, 81.48, -0.00, 0.00, 0.00, -0.00, 0.00, -0.00, -12.70, -3.70, -0.25, 0.00
28.856070518493652, -3.14, 1.57, 0.96, 0.53, 1.42, -179.91, 89.95, 54.95, 30.31, 81.48, -0.00, 0.00, 0.00, -0.00, 0.00, -0.00, -12.70, -3.70, -0.25, -0.00
28.89703059196472, -3.14, 1.57, 0.96, 0.53, 1.42, -179.91, 89.95, 54.95, 30.31, 81.48, -0.00, 0.00, 0.00, -0.00, 0.00, -0.00, -12.70, -3.70, -0.25, 0.00
28.943031072616577, -3.14, 1.57, 0.96, 0.53, 1.42, -179.91, 89.95, 54.95, 30.31, 81.48, -0.00, 0.00, 0.00, -0.00, 0.00, -0.00, -12.70, -3.70, -0.25, 0.00
28.986029386520386, -3.14, 1.57, 0.96, 0.53, 1.42, -179.91, 89.95, 54.95, 30.31, 81.48, -0.00, 0.00, 0.00, -0.00, 0.00, -0.00, -12.70, -3.70, -0.25, -0.00
29.031034469604492, -3.14, 1.57, 0.96, 0.53, 1.42, -179.91, 89.95, 54.95, 30.31, 81.48, -0.00, 0.00, 0.00, -0.00, 0.00, -0.00, -12.70, -3.70, -0.25, 0.00
29.073030948638916, -3.14, 1.57, 0.96, 0.53, 1.42, -179.91, 89.95, 54.95, 30.31, 81.48, -0.00, 0.00, 0.00, -0.00, 0.00, -0.00, -12.70, -3.70, -0.25, 0.00
29.12203288078308, -3.14, 1.57, 0.96, 0.53, 1.42, -179.91, 89.95, 54.95, 30.31, 81.48, -0.00, 0.00, 0.00, -0.00, 0.00, -0.00, -12.70, -3.70, -0.25, -0.00
29.17424201965332, -3.14, 1.57, 0.96, 0.53, 1.42, -179.91, 89.95, 54.95, 30.31, 81.48, -0.00, 0.00, 0.00, -0.00, 0.00, -0.00, -12.70, -3.70, -0.25, 0.00
29.224220514297485, -3.14, 1.57, 0.96, 0.53, 1.42, -179.91, 89.95, 54.95, 30.31, 81.48, -0.00, 0.00, 0.00, -0.00, 0.00, -0.00, -12.70, -3.70, -0.25, 0.00
29.27321982383728, -3.14, 1.57, 0.96, 0.53, 1.42, -179.91, 89.95, 54.95, 30.31, 81.48, -0.00, 0.00, 0.00, -0.00, 0.00, -0.00, -12.70, -3.70, -0.25, -0.00
29.323219776153564, -3.14, 1.57, 0.96, 0.53, 1.42, -179.91, 89.95, 54.95, 30.31, 81.48, -0.00, 0.00, 0.00, -0.00, 0.00, -0.00, -12.70, -3.70, -0.25, 0.00
29.371220588684082, -3.14, 1.57, 0.96, 0.53, 1.42, -179.91, 89.95, 54.95, 30.31, 81.48, -0.00, 0.00, 0.00, -0.00, 0.00, -0.00, -12.70, -3.70, -0.25, 0.00
29.416218996047974, -3.14, 1.57, 0.96, 0.53, 1.42, -179.91, 89.95, 54.95, 30.31, 81.48, -0.00, 0.00, 0.00, -0.00, 0.00, -0.00, -12.70, -3.70, -0.25, -0.00
29.46740698814392, -3.14, 1.57, 0.96, 0.53, 1.42, -179.91, 89.95, 54.95, 30.31, 81.48, -0.00, 0.00, 0.00, -0.00, 0.00, -0.00, -12.70, -3.70, -0.25, 0.00
29.520405054092407, -3.14, 1.57, 0.96, 0.53, 1.42, -179.91, 89.95, 54.95, 30.31, 81.48, -0.00, 0.00, 0.00, -0.00, 0.00, -0.00, -12.70, -3.70, -0.25, 0.00
29.570749282836914, -3.14, 1.57, 0.96, 0.53, 1.42, -179.91, 89.95, 54.95, 30.31, 81.48, -0.00, 0.00, 0.00, -0.00, 0.00, -0.00, -12.70, -3.70, -0.25, -0.00
29.632185459136963, -3.14, 1.57, 0.96, 0.53, 1.42, -179.91, 89.95, 54.95, 30.31, 81.48, -0.00, 0.00, 0.00, -0.00, 0.00, -0.00, -12.70, -3.70, -0.25, 0.00
29.688836812973022, -3.14, 1.57, 0.96, 0.53, 1.42, -179.91, 89.95, 54.95, 30.31, 81.48, -0.00, 0.00, 0.00, -0.00, 0.00, -0.00, -12.70, -3.70, -0.25, 0.00
29.735883951187134, -3.14, 1.57, 0.96, 0.53, 1.42, -179.91, 89.95, 54.95, 30.31, 81.48, -0.00, 0.00, 0.00, -0.00, 0.00, -0.00, -12.70, -3.70, -0.25, -0.00
29.790883541107178, -3.14, 1.57, 0.96, 0.53, 1.42, -179.91, 89.95, 54.95, 30.31, 81.48, -0.00, 0.00, 0.00, -0.00, 0.00, -0.00, -12.70, -3.70, -0.25, 0.00
29.840887308120728, -3.14, 1.57, 0.96, 0.53, 1.42, -179.91, 89.95, 54.95, 30.31, 81.48, -0.00, 0.00, 0.00, -0.00, 0.00, -0.00, -12.70, -3.70, -0.25, 0.00
29.892889738082886, -3.14, 1.57, 0.96, 0.53, 1.42, -179.91, 89.95, 54.95, 30.31, 81.48, -0.00, 0.00, 0.00, -0.00, 0.00, -0.00, -12.70, -3.70, -0.25, -0.00
29.943905115127563, -3.14, 1.57, 0.96, 0.53, 1.42, -179.91, 89.95, 54.95, 30.31, 81.48, -0.00, 0.00, 0.00, -0.00, 0.00, -0.00, -12.70, -3.70, -0.25, 0.00
29.992905855178833, -3.14, 1.57, 0.96, 0.53, 1.42, -179.91, 89.95, 54.95, 30.31, 81.48, -0.00, 0.00, 0.00, -0.00, 0.00, -0.00, -12.70, -3.70, -0.25, 0.00
30.039904832839966, -3.14, 1.57, 0.96, 0.53, 1.42, -179.91, 89.95, 54.95, 30.31, 81.48, -0.00, 0.00, 0.00, -0.00, 0.00, -0.00, -12.70, -3.70, -0.25, -0.00
30.08890390396118, -3.14, 1.57, 0.96, 0.53, 1.42, -179.91, 89.95, 54.95, 30.31, 81.48, -0.00, 0.00, 0.00, -0.00, 0.00, -0.00, -12.70, -3.70, -0.25, 0.00
30.13490653038025, -3.14, 1.57, 0.96, 0.53, 1.42, -179.91, 89.95, 54.95, 30.31, 81.48, -0.00, 0.00, 0.00, -0.00, 0.00, -0.00, -12.70, -3.70, -0.25, 0.00
30.187904119491577, -3.14, 1.57, 0.96, 0.53, 1.42, -179.91, 89.95, 54.95, 30.31, 81.48, -0.00, 0.00, 0.00, -0.00, 0.00, -0.00, -12.70, -3.70, -0.25, -0.00
30.23690390586853, -3.14, 1.57, 0.96, 0.53, 1.42, -179.91, 89.95, 54.95, 30.31, 81.48, -0.00, 0.00, 0.00, -0.00, 0.00, -0.00, -12.70, -3.70, -0.25, 0.00
30.291903972625732, -3.14, 1.57, 0.96, 0.53, 1.42, -179.91, 89.95, 54.95, 30.31, 81.48, -0.00, 0.00, 0.00, -0.00, 0.00, -0.00, -12.70, -3.70, -0.25, 0.00
30.339425802230835, -3.14, 1.57, 0.96, 0.53, 1.42, -179.91, 89.95, 54.95, 30.31, 81.48, -0.00, 0.00, 0.00, -0.00, 0.00, -0.00, -12.70, -3.70, -0.25, -0.00
30.3913631439209, -3.14, 1.57, 0.96, 0.53, 1.42, -179.91, 89.95, 54.95, 30.31, 81.48, -0.00, 0.00, 0.00, -0.00, 0.00, -0.00, -12.70, -3.70, -0.25, 0.00
30.441362857818604, -3.14, 1.57, 0.96, 0.53, 1.42, -179.91, 89.95, 54.95, 30.31, 81.48, -0.00, 0.00, 0.00, -0.00, 0.00, -0.00, -12.70, -3.70, -0.25, 0.00
30.491708993911743, -3.14, 1.57, 0.96, 0.53, 1.42, -179.91, 89.95, 54.95, 30.31, 81.48, -0.00, 0.00, 0.00, -0.00, 0.00, -0.00, -12.70, -3.70, -0.25, -0.00
30.544618606567383, -3.14, 1.57, 0.96, 0.53, 1.42, -179.91, 89.95, 54.95, 30.31, 81.48, -0.00, 0.00, 0.00, -0.00, 0.00, -0.00, -12.70, -3.70, -0.25, 0.00
30.595333337783813, -3.14, 1.57, 0.96, 0.53, 1.42, -179.91, 89.95, 54.95, 30.31, 81.48, -0.00, 0.00, 0.00, -0.00, 0.00, -0.00, -12.70, -3.70, -0.25, 0.00
30.66685390472412, -3.14, 1.57, 0.96, 0.53, 1.42, -179.91, 89.95, 54.95, 30.31, 81.48, -0.00, 0.00, 0.00, -0.00, 0.00, -0.00, -12.70, -3.70, -0.25, -0.00
30.72985291481018, -3.14, 1.57, 0.96, 0.53, 1.42, -179.91, 89.95, 54.95, 30.31, 81.48, -0.00, 0.00, 0.00, -0.00, 0.00, -0.00, -12.70, -3.70, -0.25, 0.00
30.78185486793518, -3.14, 1.57, 0.96, 0.53, 1.42, -179.91, 89.95, 54.95, 30.31, 81.48, -0.00, 0.00, 0.00, -0.00, 0.00, -0.00, -12.70, -3.70, -0.25, 0.00
30.835854291915894, -3.14, 1.57, 0.96, 0.53, 1.42, -179.91, 89.95, 54.95, 30.31, 81.48, -0.00, 0.00, 0.00, -0.00, 0.00, -0.00, -12.70, -3.70, -0.25, -0.00
30.885865926742554, -3.14, 1.57, 0.96, 0.53, 1.42, -179.91, 89.95, 54.95, 30.31, 81.48, -0.00, 0.00, 0.00, -0.00, 0.00, -0.00, -12.70, -3.70, -0.25, 0.00
30.935378789901733, -3.14, 1.57, 0.96, 0.53, 1.42, -179.91, 89.95, 54.95, 30.31, 81.48, -0.00, 0.00, 0.00, -0.00, 0.00, -0.00, -12.70, -3.70, -0.25, 0.00
30.983886241912842, -3.14, 1.57, 0.96, 0.53, 1.42, -179.91, 89.95, 54.95, 30.31, 81.48, -0.00, 0.00, 0.00, -0.00, 0.00, -0.00, -12.70, -3.70, -0.25, -0.00
31.034887552261353, -3.14, 1.57, 0.96, 0.53, 1.42, -179.91, 89.95, 54.95, 30.31, 81.48, -0.00, 0.00, 0.00, -0.00, 0.00, -0.00, -12.70, -3.70, -0.25, 0.00
31.087886810302734, -3.14, 1.57, 0.96, 0.53, 1.42, -179.91, 89.95, 54.95, 30.31, 81.48, -0.00, 0.00, 0.00, -0.00, 0.00, -0.00, -12.70, -3.70, -0.25, 0.00
31.136885404586792, -3.14, 1.57, 0.96, 0.53, 1.42, -179.91, 89.95, 54.95, 30.31, 81.48, -0.00, 0.00, 0.00, -0.00, 0.00, -0.00, -12.70, -3.70, -0.25, -0.00
31.190886974334717, -3.14, 1.57, 0.96, 0.53, 1.42, -179.91, 89.95, 54.95, 30.31, 81.48, -0.00, 0.00, 0.00, -0.00, 0.00, -0.00, -12.70, -3.70, -0.25, 0.00
31.245887756347656, -3.14, 1.57, 0.96, 0.53, 1.42, -179.91, 89.95, 54.95, 30.31, 81.48, -0.00, 0.00, 0.00, -0.00, 0.00, -0.00, -12.70, -3.70, -0.25, 0.00
31.2918860912323, -3.14, 1.57, 0.96, 0.53, 1.42, -179.91, 89.95, 54.95, 30.31, 81.48, -0.00, 0.00, 0.00, -0.00, 0.00, -0.00, -12.70, -3.70, -0.25, -0.00
31.3338840007782, -3.14, 1.57, 0.96, 0.53, 1.42, -179.91, 89.95, 54.95, 30.31, 81.48, -0.00, 0.00, 0.00, -0.00, 0.00, -0.00, -12.70, -3.70, -0.25, 0.00
31.37888813018799, -3.14, 1.57, 0.96, 0.53, 1.42, -179.91, 89.95, 54.95, 30.31, 81.48, -0.00, 0.00, 0.00, -0.00, 0.00, -0.00, -12.70, -3.70, -0.25, 0.00
31.421886444091797, -3.14, 1.57, 0.96, 0.53, 1.42, -179.91, 89.95, 54.95, 30.31, 81.48, -0.00, 0.00, 0.00, -0.00, 0.00, -0.00, -12.70, -3.70, -0.25, -0.00
31.46788763999939, -3.14, 1.57, 0.96, 0.53, 1.42, -179.91, 89.95, 54.95, 30.31, 81.48, -0.00, 0.00, 0.00, -0.00, 0.00, -0.00, -12.70, -3.70, -0.25, 0.00
31.511886835098267, -3.14, 1.57, 0.96, 0.53, 1.42, -179.91, 89.95, 54.95, 30.31, 81.48, -0.00, 0.00, 0.00, -0.00, 0.00, -0.00, -12.70, -3.70, -0.25, 0.00
31.559887647628784, -3.14, 1.57, 0.96, 0.53, 1.42, -179.91, 89.95, 54.95, 30.31, 81.48, -0.00, 0.00, 0.00, -0.00, 0.00, -0.00, -12.70, -3.70, -0.25, -0.00
31.607887268066406, -3.14, 1.57, 0.96, 0.53, 1.42, -179.91, 89.95, 54.95, 30.31, 81.48, -0.00, 0.00, 0.00, -0.00, 0.00, -0.00, -12.70, -3.70, -0.25, 0.00
31.652885675430298, -3.14, 1.57, 0.96, 0.53, 1.42, -179.91, 89.95, 54.95, 30.31, 81.48, -0.00, 0.00, 0.00, -0.00, 0.00, -0.00, -12.70, -3.70, -0.25, 0.00
