sulimanbadour1/Project_S/control/InverseKinematics/robot_joint_data.csv
Time, Joint 1 Angle, Joint 2 Angle, Joint 3 Angle, Joint 4 Angle, Joint 5 Angle, Joint 1 Vel, Joint 2 Vel, Joint 3 Vel, Joint 4 Vel, Joint 5 Vel, Joint 1 Eff, Joint 2 Eff, Joint 3 Eff, Joint 4 Eff, Joint 5 Eff
0.0, -3.141918, 1.57096, 0.9590584932073033, 0.5289714409863684, 1.4220324037667882, 0.01968000000000103, -0.009599999999998943, 0.014038369752811752, -0.0068541632715906665, 0.007776904029176981, -49.53162668489986, -0.6579437827078777, -3.4905322837149684, -0.21769259339176164, 8.577776816638866e-07
0.06139230728149414, -3.1418524, 1.5709279999999999, 0.959079577646505, 0.5289625101550266, 1.4220451791442896, 0.01574400000000509, -0.0076799999999970225, 0.005060265408406345, -0.0021433995220196643, 0.003066090600354206, -20.208365700539982, -3.3579345337923283, -3.8690227404210504, -0.38712508552470754, -1.1291587648038746e-06
0.11339187622070312, -3.14179992, 1.5709023999999998, 0.9590936224517105, 0.5289567826549233, 1.4220538679892571, 0.012595199999999807, -0.006143999999995486, 0.003370753249325259, -0.001374600024802543, 0.0020853227922185556, -16.166989148440486, -3.1585045628519115, -3.4013268725034203, -0.21985306594476337, -5.852284630623535e-08
0.16683244705200195, -3.141757936, 1.57088192, 0.9591028327155305, 0.528953423911417, 1.4220598841103198, 0.010076160000004107, -0.004915199999992126, 0.002210463316818345, -0.0008060984415210767, 0.0014438690550429099, -12.933859775869735, -3.3993139043645044, -3.3950834527757596, -0.21632294930633722, -7.664364326940608e-10
0.21715617179870605, -3.1417243488, 1.570865536, 0.9591083943366302, 0.528951836183171, 1.4220638696630337, 0.008060927999999025, -0.003932159999997964, 0.0013347890639148485, -0.0003810547790466034, 0.0009565326513505629, -10.347284871872738, -3.6044929840245548, -3.40184511460695, -0.21804749707921495, 7.155994891913543e-09
0.27031874656677246, -3.14169747904, 1.5708524287999999, 0.9591112186924293, 0.5289515552403942, 1.422066314324501, 0.006448742400003482, -0.0031457279999962673, 0.0006778453917951066, -6.742626644161436e-05, 0.0005867187521185698, -8.277971402143574, -3.7693820322177327, -3.4079402556487395, -0.2196787648382681, 1.1674105368057537e-08
0.32274889945983887, -3.141675983232, 1.5708419430399998, 0.9591120161941767, 0.5289522207546095, 1.4220676010351019, 0.005158993919998522, -0.0025165823999948322, 0.00019140041937176777, 0.00015972341166838185, 0.0003088105442417886, -6.622481463545876, -3.901638533762408, -3.4131288682199297, -0.221091911551095, 1.4658423191977179e-08
0.3798041343688965, -3.1416587865856, 1.5708335544319998, 0.9591113388149711, 0.5289535543659377, 1.4220680286240528, 0.0041271951360073444, -0.0020132659199916247, -0.00016257100936031832, 0.000320066718769938, 0.00010262134823978207, -5.29806094520745, -4.007743938941988, -3.4175520336290695, -0.22231625766070337, 1.651008390397148e-08
0.4332237243652344, -3.1416450292684797, 1.5708268435455999, 0.9591096134319468, 0.5289553422973395, 1.4220678293984417, 0.0033017561087973495, -0.0016106127359911682, -0.00041409192583580223, 0.00042910353642374317, -4.781414665197843e-05, -4.238503726245438, -4.092897844811749, -3.4213355855337952, -0.22338016587944762, 1.7510414175514014e-08
0.48922109603881836, -3.1416340234147837, 1.57082147483648, 0.9591071683202299, 0.5289574215465944, 1.422067183126146, 0.0026414048870293527, -0.0012884901887950662, -0.0005868268120529097, 0.000499019821172108, -0.00015510535097977264, -3.390842821782688, -4.1612634102891635, -3.424583078228576, -0.22430733034089964, 1.7878052586894306e-08
0.5442216396331787, -3.1416252187318268, 1.570817179869184, 0.9591042541997282, 0.5289596689290765, 1.4220662281539835, 0.002113123909623483, -0.0010307921510381846, -0.0006993889204134074, 0.0005393717957041916, -0.00022919331899538267, -2.7127031094551564, -4.21617395334976, -3.42737972644761, -0.2251175211151576, 1.7783027660209954e-08
0.6012189388275146, -3.1416181749854615, 1.5708137438953471, 0.9591010609395081, 0.5289619923922164, 1.4220650702411135, 0.0016904991276902592, -0.000824633720828416, -0.0007663824528426066, 0.0005576311535630987, -0.0002778990888079047, -2.1701833667774535, -4.2602986011523, -3.429795856862486, -0.22582729525571127, 1.735699459171452e-08
0.6562201976776123, -3.141612539988369, 1.5708109951162776, 0.9590977308016133, 0.5289643241392917, 1.4220637895707, 0.0013523993021564706, -0.0006597069766627051, -0.0007992330947585724, 0.000559619298066415, -0.0003073608992174346, -1.7361617935042946, -4.295774863474152, -3.4318896883282037, -0.2264505721318405, 1.6701347428071248e-08
0.7162234783172607, -3.141608031990695, 1.5708087960930222, 0.9590943689284488, 0.5289666151934612, 1.422062446309665, 0.00108191944171665, -0.0005277655813280546, -0.0008068495594769076, 0.0005498530006724199, -0.00032238264843766426, -1.3889403492849632, -4.324314725802042, -3.433709569208936, -0.22699909793483147, 1.5893664941037023e-08
0.7666523456573486, -3.141604425592556, 1.5708070368744178, 0.9590910516358191, 0.5289688311074935, 1.4220610850118591, 0.00086553555337332, -0.0004222124650645753, -0.0007961502311262247, 0.00053181936773928, -0.0003267114734034539, -1.1111601646801803, -4.347289551274692, -3.435295781316008, -0.22748282194734507, 1.499282831093317e-08
0.8984405994415283, -3.1416015404740447, 1.5708056294995343, 0.9590878329602064, 0.5289709485842009, 1.4220597381004354, 0.0006924284426901294, -0.00033776997205589576, -0.0007724821470487808, 0.0005081944097796756, -0.0003232587417046275, -0.8889338260369444, -4.365798025056721, -3.43668199730818, -0.22791020235252832, 1.4043079997459185e-08
0.9521493911743164, -3.1415992323792357, 1.5708045035996274, 0.9590847498181818, 0.5289729528201716, 1.4220584286176048, 0.0005539427541521036, -0.0002702159776468427, -0.0007399540859026055, 0.0004810166329668144, -0.00031427587935875176, -0.7111511713798553, -4.380720529240252, -3.437896460457961, -0.22828845557988842, 1.307723895203784e-08
1.0046682357788086, -3.1415973859033883, 1.5708036028797019, 0.9590818260633862, 0.5289748354233998, 1.4220571723919253, 0.0004431542033174197, -0.0002161727821174686, -0.0007017011509354021, 0.00045182477477062827, -0.0003014941630561336, -0.5689239033871354, -4.3927626595749745, -3.4389629415729788, -0.2286237602549623, 1.2119244033248618e-08
1.0575978755950928, -3.1415959087227106, 1.5708028823037614, 0.9590790756686415, 0.5289765927857691, 1.4220559797428807, 0.0003545233626454092, -0.00017293822569186545, -0.0006600947387285783, 0.0004217669686427897, -0.00028623577069788087, -0.455141262618055, -4.402490053604377, -3.439901516739276, -0.22892142453874884, 1.1186162816173114e-08
1.1121025085449219, -3.1415947269781683, 1.5708023058430092, 0.9590765052145305, 0.5289782248155788, 1.4220548568182272, 0.0002836186901120641, -0.00013835058054920135, -0.0006169089866345234, 0.0003916871542984891, -0.00026950191683886596, -0.3641145534466075, -4.410356266247529, -3.440729200767773, -0.22918602386158615, 1.0289775280280232e-08
1.1648328304290771, -3.1415937815825346, 1.5708018446744074, 0.959074115828879, 0.5289797339546481, 1.4220538066401998, 0.00022689495208538807, -0.00011068046444154267, -0.0005734525563450554, 0.0003621933766498989, -0.00025204272660452303, -0.2912927555967962, -4.416725081915412, -3.441460464239185, -0.22942151464698032, 9.437819744401646e-09
1.2168450355529785, -3.141593025266028, 1.5708014757395259, 0.9590719046921113, 0.5289811244199758, 1.422052829921183, 0.00018151596166404715, -8.854437155744743e-05, -0.0005306728242355507, 0.0003337116786288289, -0.0002344125640313323, -0.23303500672756047, -4.4218883746453574, -3.4421076565041284, -0.22963132851376872, 8.634970684139541e-09
1.2707085609436035, -3.141592420212822, 1.5708011805916207, 0.9590698661999403, 0.5289824016222413, 1.4220519256970947, 0.00014521276933976426, -7.083549724384852e-05, -0.000489238121065827, 0.0003065285437250286, -0.00021701378118143617, -0.18642858363538994, -4.4260804055769345, -3.4426813525812094, -0.22981845056502712, 7.883603951733028e-09
1.3297019004821777, -3.141591936170258, 1.5708009444732964, 0.9590679928560955, 0.5289835717232644, 1.4220510918168636, 0.00011617021546328488, -5.666839779294719e-05, -0.0004496025227567757, 0.0002808242455404848, -0.00020013125546623984, -0.14914328361389814, -4.4294892693566865, -3.44319063835931, -0.2299854846669901, 7.184393631230116e-09
1.3807072639465332, -3.1415915489362063, 1.5708007555786372, 0.9590662759528354, 0.5289846413023619, 1.422050325318514, 9.293617237915441e-05, -4.5334718230094495e-05, -0.0004120567824047183, 0.0002566989834127681, -0.00018395960392973994, -0.11931492716439569, -4.432266058853329, -3.4436433456984106, -0.2301347080646971, 6.536775740793031e-09
1.441213846206665, -3.141591239148965, 1.5708006044629097, 0.9590647060850622, 0.528985617107784, 1.4220496227160937, 7.434893790758679e-05, -3.6267774586207224e-05, -0.00037676826557139775, 0.00023419330131594566, -0.00016862458083724747, -0.09545215806538879, -4.434532203762286, -3.4440462467801076, -0.23026811723632887, 5.9393067869558494e-09
1.4972138404846191, -3.141590991319172, 1.5708004835703278, 0.959063273534356, 0.5289865058743772, 1.4220489802166791, 5.947915033033269e-05, -2.901421966683415e-05, -0.0003438121694677998, 0.00021330398237629153, -0.00015419985950702246, -0.07636188229543851, -4.436385347647069, -3.444405215226512, -0.23038746652150638, 5.389939458736042e-09
1.56221604347229, -3.1415907930553377, 1.570800386856262, 0.9590619685516798, 0.5289873141925769, 1.4220483938826987, 4.75833202600029e-05, -2.321137573346732e-05, -0.0003131958423035208, 0.00019399636793638458, -0.00014072015529517182, -0.06108961808242808, -4.437904055115175, -3.4447253600905725, -0.2304943007811387, 4.8862331408762795e-09
1.617213249206543, -3.1415906344442703, 1.5708003094850096, 0.9590607815614772, 0.5289880484169768, 1.422047859751649, 3.8066656216528834e-05, -1.85691005825106e-05, -0.0002848776486302218, 0.00017621385596486836, -0.00012819145191207454, -0.048871775322689694, -4.4391515825601555, -3.445011137621253, -0.23058998310303472, 4.425513310062195e-09
1.6712136268615723, -3.1415905075554162, 1.5708002475880076, 0.9590597033050999, 0.528988714605221, 1.4220473739227417, 3.0453324981749574e-05, -1.485528046177298e-05, -0.0002587815305591379, 0.00015988517860938593, -0.00011659893777694595, -0.039097478493659445, -4.440178899251851, -3.4452664448050396, -0.2306757183904755, 4.004990920697886e-09
1.7282137870788574, -3.141590406044333, 1.570800198070406, 0.9590587249376874, 0.5289893184799511, 1.4220469326180127, 2.4362659985399663e-05, -1.1884224367264551e-05, -0.00023480817900939366, 0.00014492993522553072, -0.00010591313495146722, -0.031278024725252714, -4.4410271082664075, -3.4454946979079657, -0.23075257351272685, 3.6218506247286997e-09
1.786214828491211, -3.1415903248354664, 1.570800158456325, 0.9590578380896005, 0.5289898654081123, 1.422046532223828, 1.949012799684624e-05, -9.507379491680013e-06, -0.0002128435408424445, 0.0001312627586892155, -9.609460430438308e-05, -0.02502244998288446, -4.441729386880615, -3.4456988986513966, -0.23082149457820128, 3.273314770598704e-09
1.8350183963775635, -3.141590259868373, 1.57080012676506, 0.9590570349011097, 0.5289903603931722, 1.4220461693174467, 1.5592102393213736e-05, -7.605903597635022e-06, -0.0001927652378044542, 0.00011879641434603655, -8.709753154456e-05, -0.020017981722421963, -4.442312542172485, -3.445881690159316, -0.2308833217901662, 2.9566886961112234e-09
1.8870213031768799, -3.1415902078946982, 1.570800101412048, 0.9590563080371358, 0.528990808076791, 1.4220458406822973, 1.2473681906044476e-05, -6.084722880189686e-06, -0.00017444735373775555, 0.00010744406852421965, -7.887243586065939e-05, -0.016014401020782096, -4.442798258465108, -3.446045404417977, -0.2309388022632943, 2.669391654662753e-09
1.9356985092163086, -3.1415901663157584, 1.5708000811296385, 0.959055650687339, 0.5289912127472649, 1.4220455433148278, 9.978945520572326e-06, -4.8677783084372095e-06, -0.00015776395122948927, 9.712091373851618e-05, -7.136819270639122e-05, -0.012811532080748762, -4.443204097940597, -3.446192102681926, -0.23098860111777209, 2.40897677552597e-09
1.9848356246948242, -3.1415901330526066, 1.5708000649037108, 0.9590550565556586, 0.5289915783526742, 1.4220452744251508, 7.983156407931347e-06, -3.894222651013024e-06, -0.0001425916032865293, 8.774529823637611e-05, -6.453352245439663e-05, -0.010249233768068206, -4.443544303534602, -3.446323609984597, -0.2310333111088251, 2.1731427282194418e-09
2.035008192062378, -3.1415901064420853, 1.5708000519229686, 0.9590545198424701, 0.5289919085171579, 1.4220450314332145, 6.386525122081821e-06, -3.1153781208381748e-06, -0.00012881116521895608, 7.923947608897744e-05, -5.831806472154044e-05, -0.008199392849961564, -4.443830443407541, -3.4464415447188084, -0.23107346101014042, 1.959739195322279e-09
2.085669755935669, -3.141590085153668, 1.570800041538375, 0.9590540352217863, 0.5289922065591124, 1.4220448119618272, 5.109220097665457e-06, -2.492302492385079e-06, -0.0001163089641172399, 7.153006906125509e-05, -5.2673132971138436e-05, -0.0065595184847054505, -4.444071928464207, -3.4465473440739887, -0.23110952293223994, 1.7667677665764892e-09
2.1397485733032227, -3.1415900681229343, 1.5708000332307, 0.9590535978153477, 0.5289924755104114, 1.422044613827561, 4.087376069605854e-06, -1.9938419981713196e-06, -0.00010497754527621916, 6.454831175923635e-05, -4.755222385148324e-05, -0.00524761780511419, -4.444276428115599, -3.446642285979384, -0.2311419187265547, 1.592379535631406e-09
2.1929843425750732, -3.1415900544983475, 1.5708000265845599, 0.9590532031649944, 0.5289927181359774, 1.4220444350303116, 3.2699008514214265e-06, -1.5950735985370557e-06, -9.471608477820692e-05, 5.823013582687147e-05, -4.291133984833034e-05, -0.004198096417486871, -4.44445020446867, -3.4467275080912567, -0.23117102560299693, 1.434870357590772e-09
2.2472519874572754, -3.141590043598678, 1.5708000212676478, 0.9590528472043551, 0.528992936953213, 1.4220442737420989, 2.615920685400397e-06, -1.2760588745663881e-06, -8.543055342707939e-05, 5.251613656052181e-05, -3.8709171077649834e-05, -0.0033584787071851484, -4.444598381085848, -3.4468040242802687, -0.23119718107113116, 1.2926745213781926e-09
2.3017263412475586, -3.1415900348789423, 1.5708000170141183, 0.9590525262306113, 0.5289931342509446, 1.4220441282955485, 2.092736544057061e-06, -1.0208470975214823e-06, -7.703369851225217e-05, 4.735145557145354e-05, -3.4907172072166164e-05, -0.0026867840904367456, -4.444725159268074, -3.446872738976026, -0.23122068729151166, 1.164357420991438e-09
2.3585047721862793, -3.141590027903154, 1.5708000136112947, 0.9590522368768831, 0.5289933121076336, 1.4220439971723757, 1.6741892352456493e-06, -8.16677680148814e-07, -6.944489477059279e-05, 4.2685605333004177e-05, -3.146956146356701e-05, -0.002149428084741041, -4.444833992228968, -3.4469344596883524, -0.23124181491727566, 1.048607642847245e-09
2.4147112369537354, -3.1415900223225233, 1.5708000108890359, 0.9590519760856157, 0.5289934724086978, 1.4220438789921, 1.3393513924597755e-06, -6.533421483823076e-07, -6.258990419696908e-05, 3.847225540854906e-05, -2.8363266210137612e-05, -0.001719543057807491, -4.444927725465607, -3.446989907966202, -0.23126080649202066, 9.442287891579636e-10
2.4614341259002686, -3.1415900178580185, 1.5708000087112286, 0.9590517410832196, 0.5289936168628451, 1.422043772501154, 1.0714811224943332e-06, -5.226737229691025e-07, -5.6400575056125835e-05, 3.46689953518727e-05, -2.555782699132212e-05, -0.0013756348776889523, -4.445008709981381, -3.447039729009903, -0.23127787945965986, 8.501312877080877e-10
2.5194594860076904, -3.1415900142864146, 1.570800006968983, 0.9590515293561229, 0.5289937470173683, 1.4220436765624975, 8.571848937322103e-07, -4.1813897408427003e-07, -5.0814503186169535e-05, 3.123708557263945e-05, -2.302527760189624e-05, -0.0011005082012062394, -4.4450788936995576, -3.4470845001201984, -0.23129322883397535, 7.653243468789786e-10
2.582658529281616, -3.1415900114291317, 1.5708000055751863, 0.9590513386283191, 0.5289938642723871, 1.4220435901457973, 6.857479064592552e-07, -3.345111814212487e-07, -4.577467291841386e-05, 2.8141204508502005e-05, -2.0740008051164036e-05, -0.0008804067688529687, -4.44513989534164, -3.4471247381452517, -0.23130702957130053, 6.889081759323207e-10
2.6376571655273438, -3.1415900091433056, 1.5708000044601491, 0.9590511668404417, 0.5289939698940465, 1.4220435123182193, 5.485983294306607e-07, -2.6760894297761517e-07, -4.1229090604666396e-05, 2.534919823271397e-05, -1.86786186788888e-05, -0.0007043255762099872, -4.445193064213307, -3.4471609060464736, -0.23131943867855564, 6.200665708585127e-10
2.6852831840515137, -3.1415900073146443, 1.5708000035681193, 0.9590510121303581, 0.5289940650266997, 1.4220434422358412, 4.388786720710414e-07, -2.14087158667553e-07, -3.7130420047187807e-05, 2.283183675852912e-05, -1.681977074672796e-05, -0.0005634605843106413, -4.445239528633076, -3.4471934187153654, -0.2313305970938329, 5.580598791193739e-10
2.734248638153076, -3.1415900058517154, 1.5708000028544955, 0.9590508728152467, 0.5289941507041168, 1.422043379135685, 3.511029333935767e-07, -1.7126972906567062e-07, -3.343562675600653e-05, 2.056258011737854e-05, -1.5144037511025383e-05, -0.0004507685447321953, -4.445280235229268, -3.4472226481158468, -0.23134063135974745, 5.022184125276027e-10
2.789250135421753, -3.1415900046813725, 1.5708000022835964, 0.9590507473750985, 0.5289942278597672, 1.4220433223283575, 2.8088234671486145e-07, -1.370157853841647e-07, -3.0105635564298128e-05, 1.851735609457238e-05, -1.3633758587722359e-05, -0.0003606148939178977, -4.445315980863706, -3.447248927853779, -0.2313496551187786, 4.519362951415605e-10
2.8419294357299805, -3.141590003745098, 1.570800001826877, 0.9590506344375785, 0.528994297336229, 1.4220432711912756, 2.247058858984019e-07, -1.0961262830733176e-07, -2.71050048118171e-05, 1.667435083784255e-05, -1.2272899669691354e-05, -0.00028849196715812945, -4.445347438616069, -3.4472725572304443, -0.23135777044700492, 4.0666575276209016e-10
2.8959295749664307, -3.1415900029960784, 1.5708000014615016, 0.9590505327641663, 0.5289943598937829, 1.4220432251624469, 1.7976470445546513e-07, -8.76901005142372e-08, -2.440161894778914e-05, 1.5013812916096393e-05, -1.1046918902597802e-05, -0.00023079359998564916, -4.445375178969376, -3.4472938048515718, -0.23136506904709003, 3.659118329557489e-10
2.9529292583465576, -3.1415900023968626, 1.5708000011692012, 0.9590504412374973, 0.5289944162182453, 1.4220431837347773, 1.438117678276285e-07, -7.015207612037777e-08, -2.1966400570117006e-05, 1.3517870975115987e-05, -9.942640696379455e-06, -0.0001846349063317116, -4.44539968711653, -3.4473129118394787, -0.23137163331479255, 3.292275511250266e-10
3.0024526119232178, -3.14159000191749, 1.5708000009353609, 0.9590503588498214, 0.5289944669280988, 1.4220431464508712, 1.1504940999884639e-07, -5.612165668300584e-08, -1.9773042223586446e-05, 1.2170364841881958e-05, -8.948137486120987e-06, -0.00014770793627372355, -4.445421377127574, -3.4473300946968966, -0.23137753729342786, 2.9620942387309626e-10
3.055449962615967, -3.141590001533992, 1.5708000007482887, 0.9590502846924972, 0.5289945125809725, 1.4220431128982898, 9.203952799907711e-08, -4.489732322032758e-08, -1.779775780799686e-05, 1.0956689688675873e-05, -8.052619541319593e-06, -0.00011816635990129051, -4.445440603574448, -3.4473455478622124, -0.23138284752852067, 2.6649338747857067e-10
3.1094510555267334, -3.1415900012271933, 1.570800000598631, 0.9590502179464427, 0.5289945536795255, 1.4220430827052364, 7.36316181360053e-08, -3.591786068568581e-08, -1.601905307430096e-05, 9.863652709737455e-06, -7.246332813493866e-06, -9.45330911255071e-05, -4.445457671090681, -3.4473594459910064, -0.2313876238333264, 2.3975106300564667e-10
3.160449981689453, -3.1415900009817546, 1.5708000004789047, 0.9590501578734657, 0.5289945906767826, 1.422043055536634, 5.890528598229139e-08, -2.8734284285292233e-08, -1.4417514480474791e-05, 8.879341684795338e-06, -6.520464600188808e-06, -7.562646845703225e-05, -4.44547284225658, -3.447371945995145, -0.231391919974931, 2.1568635522445805e-10
3.2104525566101074, -3.1415900007854036, 1.5708000003831237, 0.9590501038084013, 0.5289946239809689, 1.422043031090564, 4.7124224522576696e-08, -2.298742529660558e-08, -1.2975615453714173e-05, 7.993004717958825e-06, -5.867056734918117e-06, -6.0501173187696235e-05, -4.445486344112449, -3.4473831888689204, -0.2313957842901244, 1.940323516439366e-10
3.2679603099823, -3.141590000628323, 1.570800000306499, 0.9590500551519882, 0.5289946539598874, 1.4220430090950393, 3.769937961806136e-08, -1.8389940237284463e-08, -1.1677539144161475e-05, 7.194940448177916e-06, -5.278925949989694e-06, -4.840094115637672e-05, -4.445498373565332, -3.4473933013180607, -0.23139926023634844, 1.7454850895191063e-10
3.3269593715667725, -3.1415900005026582, 1.5708000002451992, 0.9590500113644194, 0.528994680944879, 1.4220429893050768, 3.015951222096193e-08, -1.4711954293700202e-08, -1.0509016523607695e-05, 6.476397973309704e-06, -4.749590999266925e-06, -3.872076498365028e-05, -4.445509101883042, -3.447402397222821, -0.231402386887187, 1.5701809289847097e-10
3.385058641433716, -3.1415900004021267, 1.5708000001961593, 0.9590499719595076, 0.5289947052344032, 1.4220429715000515, 2.4127601250256703e-08, -1.176956135329199e-08, -9.457178829969104e-06, 5.829485795844627e-06, -4.273206076522632e-06, -3.097660454394979e-05, -4.4455186784436025, -3.4474105789465996, -0.2314051993765289, 1.412458664806266e-10
3.4387059211730957, -3.141590000321701, 1.5708000001569273, 0.9590499364994107, 0.5289947270972742, 1.4220429554813008, 1.9302085263461783e-08, -9.415646928800925e-09, -8.510423251395505e-06, 5.247089049597262e-06, -3.844500164783047e-06, -2.4781288845342645e-05, -4.445527233870804, -3.447417938510574, -0.23140772929784503, 1.2705597915740907e-10
3.4928817749023438, -3.141590000257361, 1.5708000001255418, 0.9590499045898653, 0.5289947467755842, 1.42204294106996, 1.5441663947513007e-08, -7.53251325202875e-09, -7.658290895135034e-06, 4.722794385820203e-06, -3.4587218025799102e-06, -1.9825027383113962e-05, -4.445534882670748, -3.447424558644299, -0.23141000506190812, 1.1429007547762034e-10
3.550504446029663, -3.141590000205889, 1.5708000001004334, 0.959049875875882, 0.528994764487342, 1.422042928105006, 1.2353339684523238e-08, -6.026006360571046e-09, -6.89135597958801e-06, 4.250821845684674e-06, -3.111588935244554e-06, -1.5860031937344876e-05, -4.445541725450292, -3.447430513730401, -0.23141205221868713, 1.0280556549827703e-10
3.602020025253296, -3.1415900001647112, 1.5708000000803468, 0.9590498500378596, 0.5289947804288551, 1.422042916441492, 9.882676010875006e-09, -4.820805116212412e-09, -6.201125379134975e-06, 3.8259631420372345e-06, -2.7992433437659948e-06, -1.268803176718234e-05, -4.445547850793992, -3.4474358706512827, -0.23141389374637178, 9.247407879431909e-11
3.652764081954956, -3.141590000131769, 1.5708000000642774, 0.9590498267880779, 0.5289947947768792, 1.422042905948953, 7.90614507195642e-09, -3.856648334021884e-09, -5.579947605638402e-06, 3.443525786080989e-06, -2.518209384213371e-06, -1.015043108357022e-05, -4.445553336856184, -3.4474406895479905, -0.23141555031053007, 8.318005196444987e-11
3.703026056289673, -3.141590000105415, 1.570800000051422, 0.9590498058675345, 0.5289948076905564, 1.4220428965099674, 6.324924584077964e-09, -3.085318667217507e-09, -5.020930416294034e-06, 3.099282540332832e-06, -2.2653565633908867e-06, -8.120355388486155e-06, -4.445558252716725, -3.447445024502682, -0.2314170404974582, 7.481946813392011e-11
3.7522084712982178, -3.141590000084332, 1.5708000000411375, 0.9590497870430917, 0.5289948193131635, 1.4220428880188605, 5.059931140749541e-09, -2.4682549337740056e-09, -4.517866269843074e-06, 2.7894257066010662e-06, -2.0378656858730813e-06, -6.496275452712523e-06, -4.445562659536394, -3.4474489241535364, -0.23141838102455745, 6.72987044211819e-11
3.8051021099090576, -3.1415900000674655, 1.57080000003291, 0.9590497701049043, 0.5289948297736878, 1.4220428803805345, 4.047940649343218e-09, -1.9746018153909972e-09, -4.06516496892495e-06, 2.5105258367601363e-06, -1.8331982419135688e-06, -5.197014680019549e-06, -4.4455666115499, -3.447452432242028, -0.23141958692778525, 6.053350350860886e-11
3.859121561050415, -3.1415900000539723, 1.570800000026328, 0.9590497548641012, 0.528994839188248, 1.4220428735094148, 3.2383482562181602e-09, -1.5796857155692123e-09, -3.657792762262746e-06, 2.2594944233673835e-06, -1.6490687247455235e-06, -4.157606459358254e-06, -4.445570156917069, -3.4474555881089803, -0.23142067173151695, 5.4448040932141466e-11
3.9078192710876465, -3.141590000043178, 1.5708000000210625, 0.9590497411506953, 0.528994847661374, 1.4220428673284997, 2.5906743417181133e-09, -1.2637464408271626e-09, -3.291217397560775e-06, 2.033550234633744e-06, -1.4834196458734746e-06, -3.3260798599903625e-06, -4.445573338462828, -3.4474584271362954, -0.23142164760010758, 4.897408559481605e-11
3.9578638076782227, -3.141590000034542, 1.57080000001685, 0.9590497288117018, 0.5289948552871611, 1.4220428617685041, 2.072539473374491e-09, -1.0109992842899373e-09, -2.9613584482113264e-06, 1.830188901240615e-06, -1.3343989401859314e-06, -2.6608635009771854e-06, -4.445576194308418, -3.4474609811499644, -0.2314225254759022, 4.405024149510321e-11
4.007504940032959, -3.1415900000276338, 1.57080000001348, 0.9590497177094411, 0.528994862150309, 1.422042856767089, 1.6580230521867638e-09, -8.088037184439401e-10, -2.6645425691695923e-06, 1.6471555046925153e-06, -1.2003396024699547e-06, -2.1286809573238913e-06, -4.445578758427835, -3.4474632787747836, -0.23142331520121237, 3.962126696891037e-11
4.057175874710083, -3.141590000022107, 1.570800000010784, 0.9590497077200116, 0.5289948683270583, 1.422042852268167, 1.32642696826224e-09, -6.470450841788988e-10, -2.397463077341566e-06, 1.4824198419957506e-06, -1.0797413091278112e-06, -1.7029538031108623e-06, -4.44558106112761, -3.4474653457579016, -0.23142402562913245, 3.5637459889130036e-11
4.106410264968872, -3.1415900000176857, 1.5708000000086273, 0.9590496987319136, 0.5289948738860338, 1.422042848221276, 1.0611458378662064e-09, -5.176339634704874e-10, -2.157143523390248e-06, 1.334154115248911e-06, -9.712538383516012e-07, -1.3623688535963017e-06, -4.445583129466634, -3.44746720525968, -0.23142466472354495, 3.205410184508485e-11
4.162527799606323, -3.1415900000141486, 1.5708000000069018, 0.95904969064481, 0.5289948788890039, 1.4220428445810172, 8.489209335493797e-10, -4.14111411828344e-10, -1.940904840430635e-06, 1.2007128203747597e-06, -8.736621122797015e-07, -1.0899004603483032e-06, -4.445584987621575, -3.44746887811406, -0.23142523964849201, 2.8830961517614548e-11
4.2118120193481445, -3.141590000011319, 1.5708000000055213, 0.959049683368411, 0.5289948833915649, 1.4220428413065473, 6.791367468395038e-10, -3.3128702559004353e-10, -1.7463357624702969e-06, 1.0806146399427563e-06, -7.858727507767081e-07, -8.719208056563147e-07, -4.445586657212719, -3.4474703830591777, -0.23142575684744643, 2.5931846158007757e-11
4.262287378311157, -3.141590000009055, 1.570800000004417, 0.9590496768214689, 0.5289948874437569, 1.4220428383611228, 5.43309397471603e-10, -2.6502533501115977e-10, -1.5712661128319816e-06, 9.725260835242214e-07, -7.069018995729575e-07, -6.97536650392181e-07, -4.445588157584623, -3.44747173695376, -0.23142622211761293, 2.3324194925333354e-11
4.312357425689697, -3.141590000007244, 1.5708000000035336, 0.959049670930874, 0.5289948910906185, 1.422042835711688, 4.346389914644533e-10, -2.120223996371351e-10, -1.4137427786220513e-06, 8.752467840845781e-07, -6.358643126847457e-07, -5.580194506979486e-07, -4.445589506054103, -3.4474729549621115, -0.23142664067350996, 2.0978715679142815e-11
4.364396095275879, -3.1415900000057952, 1.5708000000028268, 0.9590496656308404, 0.5289948943726862, 1.422042833328507, 3.4771119317156263e-10, -1.6961365645329352e-10, -1.2720080674322176e-06, 7.876962441156701e-07, -5.719634982521991e-07, -4.4641470514594177e-07, -4.44559071813499, -3.447474050723646, -0.23142701720530442, 1.886906112535638e-11
4.422910928726196, -3.141590000004636, 1.5708000000022615, 0.959049660862173, 0.528994897326444, 1.4220428311848283, 2.781774810500792e-10, -1.3568879353442753e-10, -1.1444801739368682e-06, 7.08901869708342e-07, -5.144828352383873e-07, -3.5714164014272484e-07, -4.445591807729355, -3.4474750365114137, -0.23142735593323258, 1.6971525185722587e-11
4.479913234710693, -3.141590000003709, 1.5708000000018092, 0.9590496565716079, 0.5289948999847283, 1.4220428292565883, 2.2254198484006338e-10, -1.0855319421132492e-10, -1.0297356347332975e-06, 6.379882306809776e-07, -4.6277758151192313e-07, -2.857141721400652e-07, -4.445592787300087, -3.447475923363946, -0.23142766065297862, 1.526478771481e-11
4.5479114055633545, -3.1415900000029673, 1.5708000000014473, 0.9590496527112183, 0.5289949023770922, 1.4220428275221395, 1.780335878720507e-10, -8.684253316459944e-11, -9.264935016128906e-07, 5.74167362670553e-07, -4.162676942140109e-07, -2.2857133884513136e-07, -4.445593668026331, -3.44747672121116, -0.231427934778974, 1.3729667849315199e-11
4.606913328170776, -3.141590000002374, 1.5708000000011577, 0.9590496492378805, 0.5289949045301341, 1.422042825962009, 1.4243539681046968e-10, -6.946979103084061e-11, -8.336010908494007e-07, 5.167300366410742e-07, -3.744313334669605e-07, -1.8286694573039223e-07, -4.445594459937949, -3.447477438987133, -0.2314281813831492, 1.2348912756416197e-11
4.659425497055054, -3.1415900000018993, 1.5708000000009261, 0.9590496461127923, 0.528994906467792, 1.4220428245586798, 1.1395684396120485e-10, -5.5571547363797436e-11, -7.500211567645909e-07, 4.650379008030491e-07, -3.3679903896052393e-07, -1.4630428946168224e-07, -4.445595172034956, -3.4474780847290463, -0.23142840322896316, 1.1107001947547381e-11
4.711449146270752, -3.1415900000015196, 1.570800000000741, 0.9590496433010408, 0.5289949082116104, 1.4220428232963944, 9.116973842537848e-11, -4.445507850725505e-11, -6.748203474349346e-07, 4.185164127383342e-07, -3.0294847086396837e-07, -1.1704922736284191e-07, -4.4455958123959824, -3.4474786656662006, -0.2314286028019936, 9.989978582788352e-12
4.761982440948486, -3.141590000001216, 1.5708000000005928, 0.9590496407712125, 0.528994909780979, 1.422042822160979, 7.294431725313189e-11, -3.55661888828962e-11, -6.071588143641282e-07, 3.766484586833171e-07, -2.7249969166728946e-07, -9.364968525904294e-08, -4.445596388275914, -3.4474791883031943, -0.23142878233867364, 8.985284916375321e-12
4.826318979263306, -3.1415900000009724, 1.5708000000004743, 0.9590496384950422, 0.5289949111933483, 1.4220428211396836, 5.836398031533463e-11, -2.8457264322767628e-11, -5.462808567446853e-07, 3.3896862781770535e-07, -2.4511093029570327e-07, -7.493048071662224e-08, -4.445596906190388, -3.4474796584908987, -0.2314289438505322, 8.08162505140673e-12
4.893322229385376, -3.141590000000778, 1.5708000000003794, 0.9590496364470985, 0.5289949124644234, 1.422042820221039, 4.6682657739438576e-11, -2.276578925375361e-11, -4.915064871213737e-07, 3.050580344851883e-07, -2.2047472565893864e-07, -5.993536934350184e-08, -4.445597371992707, -3.4474800814926807, -0.2314290891471032, 7.268842215687973e-12
4.953320741653442, -3.1415900000006225, 1.5708000000003035, 0.9590496346044991, 0.5289949136083387, 1.4220428193947285, 3.734612619155087e-11, -1.8214763031210168e-11, -4.422238534251832e-07, 2.7453967984986555e-07, -1.9831449508966673e-07, -4.794743713659144e-08, -4.445597790940571, -3.4474804620450876, -0.231429219856665, 6.537797775970635e-12
5.013840675354004, -3.141590000000498, 1.570800000000243, 0.9590496329466557, 0.5289949146378148, 1.4220428186514724, 2.988542746606982e-11, -1.456970655233647e-11, -3.978824277273141e-07, 2.4707426343932365e-07, -1.783814473245628e-07, -3.836782362986202e-08, -4.445598167759002, -3.447480804407489, -0.23142933744349128, 5.880271857512387e-12
5.067592620849609, -3.1415900000003987, 1.5708000000001943, 0.9590496314550438, 0.5289949155642998, 1.4220428179829234, 2.391686848568497e-11, -1.1660006293823244e-11, -3.579868438075007e-07, 2.2235640793443862e-07, -1.604517665022982e-07, -3.070499125323642e-08, -4.445598506692891, -3.447481112413655, -0.23142944322542758, 5.2888722008420476e-12
5.119593381881714, -3.1415900000003187, 1.5708000000001554, 0.9590496301129964, 0.5289949163980968, 1.422042817381573, 1.9142021301377102e-11, -9.325873406851315e-12, -3.220914002732833e-07, 2.0011128502749306e-07, -1.4432414310586933e-07, -2.4574725335504124e-08, -4.445598811559328, -3.4474813895098495, -0.23142953838713057, 4.756948683661326e-12
5.169593811035156, -3.141590000000255, 1.5708000000001243, 0.959049628905517, 0.5289949171484782, 1.4220428168406667, 1.5305090528272558e-11, -7.460726481056668e-12, -2.897950538427452e-07, 1.8009154255260821e-07, -1.2981747392803447e-07, -1.9650764911418234e-08, -4.445599085788293, -3.4474816387995513, -0.2314296239953088, 4.278520460890493e-12
5.222397089004517, -3.1415900000002037, 1.5708000000000995, 0.959049627819113, 0.5289949178237889, 1.4220428163541299, 1.2235545909788928e-11, -5.968586735960457e-12, -2.607369694873629e-07, 1.6207457387298687e-07, -1.1676885478282688e-07, -1.570987966039214e-08, -4.445599332463201, -3.447481863072576, -0.23142970100887306, 3.848208879286727e-12
5.2718729972839355, -3.141590000000163, 1.5708000000000795, 0.9590496268416443, 0.5289949184315391, 1.4220428159164975, 9.784173471416581e-12, -4.774819428732258e-12, -2.3459247755486246e-07, 1.4586003470647717e-07, -1.0503175948105813e-07, -1.2562108372938406e-08, -4.4455995543562405, -3.4474820648392877, -0.23142977029061443, 3.4611737054171242e-12
5.321596622467041, -3.1382830746232546, 1.5708000000000635, 0.9590496259621882, 0.5289949189784875, 1.4220428155228544, 0.7936620904580103, -3.815586735456122e-12, -2.1106946260229797e-07, 1.3126761820521859e-07, -9.447437243909024e-08, 79.91943245812699, -4.445599753961297, -3.4474822463586223, -0.2314298326169389, 3.1130639592424985e-12
5.373420238494873, -3.1286929673486124, 1.5708000000000508, 0.9590493563346472, 0.5289949467238025, 1.4220425836519839, 2.3016257459141656, -3.0482283364108298e-12, -6.471060985910326e-05, 6.65887561691024e-06, -5.564900890025733e-05, 151.86501356315426, -4.240004578389522, -3.2547471485624606, -0.15729501676735663, -1.8164242921314445e-08
5.428695917129517, -3.1134479963660096, 1.5708000000000406, 0.9590471133746045, 0.5289951744729781, 1.422040652350659, 3.6587930358247043, -2.4406865417603285e-12, -0.000538310410244186, 5.46598021207087e-05, -0.0004635123179440471, 136.7368331210968, -2.7102688002037927, -1.820682860281517, 0.39433386782778573, -1.3336395976560734e-07
5.4798424243927, -3.086499773610817, 1.5707999946785338, 0.9590415427337945, 0.5289950215062177, 1.4220368837761015, 6.467573461246143, -1.277161619156475e-06, -0.0013369537943893617, -3.671202248109462e-05, -0.00090445789381733, 282.9887763606859, -0.02925813456109483, 0.6912420872647316, 1.3597839647538181, -2.1327574130306312e-07
5.537275314331055, -3.052325561478007, 1.5707979737821993, 0.9590282320705235, 0.5289955118215688, 1.4220245789574022, 8.201810911874453, -0.0004850151202913655, -0.0031945591850617294, 0.0001176756842715676, -0.0029531564878200467, 175.02763361037256, 1.9343806948808813, 9.504341895156328, 4.753800998438356, -6.781585870285544e-07
5.590269565582275, -2.998420210034491, 1.5707941705459587, 0.9590072419332786, 0.5289959531053848, 1.4220050197855063, 12.937284346443848, -0.0009127766977680696, -0.005037632938769465, 0.0001059081158452102, -0.004694201255026578, 477.4697222729078, 9.946202861415891, 17.512486280273798, 7.833806469545503, -6.453823019097835e-07
5.644268035888672, -2.9432915192999016, 1.570783117027181, 0.9589537044360392, 0.5289963502608193, 1.4219547918717372, 13.230885776301418, -0.0026528445066438255, -0.012848999337454314, 9.531730426015628e-05, -0.012054699304590744, 30.94816330467801, 40.56717810735553, 48.34336299678114, 19.69884340290524, -2.71152051603845e-06
5.718270778656006, -2.893675697638771, 1.5707723243866694, 0.9589016926236994, 0.5289967077007103, 1.4219059835964256, 11.907797198671274, -0.002590233722839841, -0.012482834961565992, 8.57855738338742e-05, -0.011713986074798788, -131.73527509990245, 44.19730000265684, 51.6867703128954, 20.982587520855297, 1.1117177632567527e-07
5.77926778793335, -2.8291798348374795, 1.5707650965541864, 0.9588661713762435, 0.5289970293966122, 1.4218726877282173, 15.47900707231, -0.0017346797959143512, -0.008525099389401047, 7.720701644930994e-05, -0.007991008369992558, 360.96304523207147, 34.262482620357034, 41.625790884824866, 17.110496460630802, 1.3552393738620883e-06
5.8437886238098145, -2.7579058332873254, 1.5707512839484927, 0.9588010349356605, 0.5289973189229239, 1.421811492574698, 17.10576037203701, -0.0033150253664694374, -0.015632745739931675, 6.948631480330203e-05, -0.014686836844588214, 165.82048812440536, 63.40694035420012, 71.16026989553623, 28.48031056618846, -2.4706327822228677e-06
5.913574457168579, -2.6805314711004082, 1.5707345890341298, 0.9587230720592241, 0.5289975794966044, 1.421738209957336, 18.569846924860165, -0.004006779447092823, -0.018711090344726067, 6.253768332253884e-05, -0.01758782816692056, 149.93788540481964, 80.68905830644466, 88.30261547190332, 35.076470576510815, -1.084692132702534e-06
5.988574981689453, -2.6009737334790453, 1.5707154607405105, 0.9586343029318373, 0.5289978140129169, 1.421654745078628, 19.09385702912708, -0.004590790468633976, -0.021304590572839732, 5.62839149900185e-05, -0.020031570889865624, 55.675534705086, 97.20386051320298, 104.80277383174398, 41.427955972763044, -9.214026845115463e-07
6.0603601932525635, -2.512837083531257, 1.5706966037338572, 0.9585469843606996, 0.5289980250775981, 1.4215726403414535, 21.152795987469254, -0.004525681596764475, -0.020956457073042944, 5.065552349070579e-05, -0.019705136921935207, 210.54946087065935, 103.85562431911708, 111.3534275363313, 43.950291462014896, 9.286844098197998e-08
6.134475946426392, -2.4103655380542603, 1.5706732939118713, 0.9584396670686859, 0.5289982150358111, 1.4214717041458147, 24.59317091447917, -0.005594357276628381, -0.025756150083288354, 4.558997114223473e-05, -0.024224686953308372, 350.4318452249958, 129.1814042660941, 136.86452760809286, 53.77385551838656, -1.6895416034723834e-06
6.217578172683716, -2.298299535739618, 1.5706401581534097, 0.9582879810680026, 0.5289983859982029, 1.4213290004568009, 26.895840555514162, -0.00795258203078153, -0.03640464016397793, 4.103097402907707e-05, -0.034248885363292514, 237.0657568370822, 177.8635062196504, 185.76123882786317, 72.60112305662122, -3.7235737481549853e-06
6.295729398727417, -2.1742915731324532, 1.5706008972621155, 0.9581087356173241, 0.5289985398643555, 1.4211603639583206, 29.761911025719584, -0.009422613910633926, -0.04301890816284626, 3.692787662590291e-05, -0.040472759635287625, 295.03981004381535, 215.79618373719902, 223.56368046779968, 87.15897102854386, -2.3484083014547192e-06
6.37330436706543, -2.049456657915155, 1.5705528695708375, 0.9578899818036106, 0.5289986783438929, 1.420954558558062, 29.960379652151538, -0.011526645906697386, -0.05250091529124212, 3.3235088963579074e-05, -0.049393296062029135, 27.423974014107394, 266.51164579913495, 274.3976954980242, 106.74192964348899, -3.3578322219733384e-06
6.450646162033081, -1.9172636109133123, 1.570508241243615, 0.9576868850260095, 0.5289988029754765, 1.4207635161136871, 31.72633128044224, -0.010710798533360322, -0.04874322662427577, 2.9911580066155352e-05, -0.04585018664999141, 185.917792129609, 272.22968149513525, 279.66281853775087, 108.77946593664836, 1.2045168954730053e-06
6.531384229660034, -1.7718343708699547, 1.570459681131143, 0.9574662174210421, 0.5289989151439017, 1.4205559657612108, 34.903017610405826, -0.011654426993293665, -0.05296022519217125, 2.6920422059539817e-05, -0.04981208459430375, 329.1358011280322, 305.37610585326036, 313.1097145033445, 121.67894846817543, -1.5519561790859223e-06
6.626753091812134, -1.6211064315246584, 1.5703994899263087, 0.9571931545798219, 0.5289990160954845, 1.420299151383896, 36.1747054428711, -0.01444588916023326, -0.06553508189283619, 2.4228379854385196e-05, -0.061635450555526106, 138.59230673923886, 370.8224542216492, 378.88489049506313, 147.03572535116163, -4.4603088320879866e-06
6.719863176345825, -1.462302725589905, 1.5703377345949556, 0.9569133352303871, 0.528999106951909, 1.4200360341368687, 38.11288942434082, -0.014821279524741549, -0.06715664386434028, 2.1805541868147316e-05, -0.06314813928657381, 207.03428795691167, 400.95645138517756, 408.664402345259, 158.53053858716976, -7.022952166593097e-07
6.809427738189697, -1.2730822692006534, 1.5702707637013913, 0.9566102652940516, 0.528999188722691, 1.4197511059511727, 45.41290953342042, -0.01607301445545195, -0.07273678472054357, 1.962498767937859e-05, -0.06838276456703074, 750.312508409926, 445.77252351273137, 453.66122245961554, 175.90085148510627, -2.082335371936766e-06
6.913827896118164, -1.0829422351440523, 1.5701632821165679, 0.9561245321233746, 0.5289992623163948, 1.419294466504871, 45.633608173584236, -0.025795580357636183, -0.11657596096248568, 1.7662488911440732e-05, -0.10959346711240858, 39.478516329205114, 632.2454736456907, 641.6037452638063, 248.3882093626315, -1.535843570940209e-05
7.0123419761657715, -0.891974605028695, 1.5700629846817131, 0.9556720119315301, 0.5289993285507283, 1.418869229204681, 45.832231227685774, -0.024071384365134563, -0.10860484604268095, 1.589624002029666e-05, -0.10205695204560605, 38.97719980219483, 646.3813676577222, 653.980852152523, 253.21760086793398, 2.4434925227173227e-06
7.1118550300598145, -0.7002621146185989, 1.5699708428909704, 0.9552569831757296, 0.5289993881616284, 1.4184793920364398, 46.01099769842307, -0.022114029778245836, -0.09960690139212147, 1.4306616016313e-05, -0.09356092037788422, 36.86563733587206, 652.3909329514025, 660.0132521434923, 255.62207820567227, 2.8188259371270503e-06
7.204802989959717, -0.5045722888836677, 1.5698862575035382, 0.9548766278299404, 0.5289994418114384, 1.4181222791221901, 46.96555817638349, -0.020300492983768237, -0.09128528298940708, 1.28759544146817e-05, -0.08570709941990984, 115.37110672700814, 657.5878624859848, 665.2890585044462, 257.730409786567, 2.6081392726747894e-06
7.298464298248291, -0.3119167834755255, 1.5698029166977738, 0.9545024222693266, 0.5289994900962675, 1.4177710659892104, 46.237321297954125, -0.02000179338346353, -0.08980933454732565, 1.1588358976410973e-05, -0.08429115191510972, -54.90330744448364, 684.6638784787125, 692.6778768109247, 268.3695277702907, 2.579498904281091e-07
7.3916308879852295, -0.11207133086649831, 1.5697325960514303, 0.9541873239871923, 0.5289995335526136, 1.417475495903871, 47.962908626166524, -0.016876955122448578, -0.07562358771223643, 1.0429523076282976e-05, -0.07093682048151084, 193.64016004669116, 665.2621887230682, 672.8562517999196, 260.78128976019786, 4.661710478593738e-06
7.475804090499878, 0.08101737303619158, 1.5696566207062554, 0.953847197192205, 0.5289995726633252, 1.4171565055388136, 46.341288936645576, -0.01823408284199246, -0.08163043079694177, 9.386570768654678e-06, -0.07655768761373771, -145.57635148238398, 713.6196283332574, 722.0178204477713, 279.8272941419772, -2.2911250315407465e-06
7.568459749221802, 0.27794569554702553, 1.5695993714581864, 0.9535916528731797, 0.5289996078629656, 1.4169170427849949, 47.26279740260015, -0.013739819536596976, -0.06133063656607973, 8.447913691256304e-06, -0.05747106091650078, 111.92267903805005, 669.3989783335803, 676.8623908940195, 262.4418887224766, 6.798048116706811e-06
7.656238794326782, 0.4717158957371961, 1.5695413261163225, 0.9533327884612124, 0.528999639542642, 1.41667451694867, 46.50484804564093, -0.013930882047325177, -0.062127458872158314, 7.603122320176681e-06, -0.05820620071795091, -58.911924035316396, 693.5520696566277, 701.8248303302764, 272.1406152381242, -4.4639086948578726e-07
7.738455533981323, 0.665950699214624, 1.569494168400896, 0.95312304795634, 0.5289996680543506, 1.4164781636810653, 46.6163528345827, -0.011317851702321136, -0.050337721169391614, 6.842810089224827e-06, -0.0471247842251552, 29.031305958948526, 673.0794798879535, 680.9151222383973, 264.1049435439144, 3.907271040816976e-06
7.82341456413269, 0.8506828101555883, 1.5694509248293826, 0.9529310206993763, 0.5289996937148884, 1.4162984681434336, 44.33570662583145, -0.010378457163211507, -0.046086541671279235, 6.1585290822563366e-06, -0.04312692903158144, -214.80127261033545, 675.2985433932348, 683.4324802840516, 265.12005757784397, 1.3319215460135524e-06
7.913763046264648, 1.0367833333087306, 1.5694280015713657, 0.9528302299504837, 0.5289997168093725, 1.416204425919918, 44.66412555675416, -0.005501581924076682, -0.024189779734211214, 5.542676174030703e-06, -0.02257013364375071, 49.118449909227365, 612.5299917065986, 619.9827516188944, 240.62921630635495, 7.452375946845194e-06
8.00617265701294, 1.2274223885124034, 1.569405580378283, 0.9527316391319665, 0.5289997375944082, 1.4161124297739751, 45.75337324888148, -0.00538108633986667, -0.023661796444134353, 4.988408557338175e-06, -0.022079075026280925, 126.07622250810427, 618.6060563883043, 626.8408747576516, 243.308995678346, 1.1860467784451296e-07
8.099610090255737, 1.4188391496611632, 1.5693775724497867, 0.9526079624398821, 0.5289997563009403, 1.415996875232381, 45.94002267570233, -0.006721902839110783, -0.029682406100256742, 4.4895676989398225e-06, -0.02773308998256674, 34.8471018844109, 648.7362997957194, 657.2548377541241, 255.08226644209816, -2.1462808499011655e-06
8.187388181686401, 1.5911142346950469, 1.5693506529413175, 0.9524891712288521, 0.5289997731368192, 1.4158859023649106, 41.346020408132084, -0.00646068203259631, -0.02850989064718945, 4.040610928512933e-06, -0.026633488192889576, -451.89318503305003, 655.2401360464337, 663.5258931901261, 257.52304632137214, 3.249848408526161e-07
8.27371859550476, 1.7461618112255421, 1.5693576261872737, 0.9525222213218226, 0.5289997882891102, 1.4159174027015466, 37.21141836731888, 0.001673579029467298, 0.007932022312932219, 3.6365498337076474e-06, 0.0075600807926288205, -408.1189443233023, 533.9729418605258, 540.8552220275776, 210.11130851533832, 1.2533533738566738e-05
8.362701654434204, 1.8857046301029878, 1.5693904223900126, 0.9526707409744758, 0.5289998019261721, 1.416057193667667, 33.49027653058698, 0.007871088657349201, 0.03564471663674951, 3.2728948511362432e-06, 0.0335498318688634, -369.37926411109044, 430.1678982487406, 437.2252050304592, 170.061368887076, 9.60142966160914e-06
8.454146385192871, 2.0112931670926892, 1.5694415049967634, 0.9529009060666905, 0.5289998141995278, 1.4162735225035814, 30.14124887752829, 0.012259825620180909, 0.055239622131527, 2.9456053658449832e-06, 0.05191892061947567, -333.9171860541039, 345.9097438903091, 353.1404494762841, 137.5557443930185, 6.847268221521166e-06
8.53652024269104, 2.1243228503834204, 1.5695049591269241, 0.9531862381144132, 0.5289998252455479, 1.4165415490219087, 27.127123989775463, 0.015228991238565914, 0.06847969145344379, 2.6510448289940314e-06, 0.06432636439852835, -301.54359863568453, 277.68518771866917, 285.0469101028653, 111.22837977965965, 4.677793652847263e-06
8.621518611907959, 2.2260495653450785, 1.5695762185240059, 0.953506331093416, 0.528999835186966, 1.416842138569051, 24.414411590797908, 0.017102255299600078, 0.07682231496068415, 2.3859403466275353e-06, 0.07214149131419423, -272.0828143205259, 222.45892890170455, 229.9183678531858, 89.91352228545861, 2.995958151236052e-06
8.70452070236206, 2.3176036088105705, 1.569651797830396, 0.9538456263940814, 0.5289998441342423, 1.4171607061738398, 21.972970431718117, 0.018139033533658422, 0.08143087215970457, 2.1473463114318747e-06, 0.07645622514932793, -245.34022870751625, 177.7621549110458, 185.2938983952153, 72.66140309097342, 1.7061229232870534e-06
8.774518251419067, 2.4000022479295136, 1.5697290713765126, 0.9541924101398813, 0.5289998521867909, 1.4174862728127025, 19.77567338854631, 0.018545651067950253, 0.08322809899196848, 1.9326116811324567e-06, 0.07813599332704957, -221.11312707832388, 141.59285032630288, 149.1773366658779, 58.70060685235322, 7.291840883134382e-07
8.84451961517334, 2.474161023136562, 1.5698060929947628, 0.9545380018833928, 0.5289998594340847, 1.417810703130623, 17.798106049691672, 0.018485188380027218, 0.08294201844274429, 1.7393505142848653e-06, 0.07786327630096335, -199.19907779078446, 112.3283549642928, 119.950422553004, 47.40521242553227, 5.656592870396536e-10
8.91952109336853, 2.5409039208229056, 1.5698814502567286, 0.9548761013521759, 0.5289998659566492, 1.4181280924155015, 16.018295444722504, 0.018085742871791877, 0.08114387250795652, 1.5654154641442375e-06, 0.07617342837081742, -179.4014922139453, 88.6538998369905, 96.30175968244163, 38.26771853710231, -5.321377014461854e-07
8.98851990699768, 2.600972528740615, 1.5699541472206873, 0.9552022646286958, 0.5289998718269572, 1.4184342754480137, 14.416465900250262, 0.01744727135005575, 0.07827918636478381, 1.4088739159756614e-06, 0.07348392780289781, -161.53311399211722, 69.5044525840416, 77.16894172015161, 30.876867584260037, -9.112435414581874e-07
9.050666570663452, 2.6550342758665533, 1.5700235105802183, 0.9555134857256784, 0.5289998771102343, 1.4187264343860004, 12.974819310225241, 0.016647206287460636, 0.07469306327581693, 1.2679865237785748e-06, 0.07011814511683828, -145.41804030259397, 54.01745313090541, 61.69147755743457, 24.89953529041577, -1.1707694538595927e-06
9.108476638793945, 2.703689848279898, 1.5700891148851488, 0.9558078635863425, 0.5289998818651838, 1.4190027868011075, 11.67733737920272, 0.015745033183323542, 0.0706506865593739, 1.1411878720890556e-06, 0.06632457962571303, -130.89272006553088, 41.4944346546899, 49.17254345664894, 20.065973786138226, -1.337944549971599e-06
9.161390542984009, 2.7474798634519084, 1.5701507232187513, 0.9560843380549545, 0.5289998861446383, 1.419262338364647, 10.509603641282444, 0.01478600006459907, 0.06635387246687308, 1.0270690857794307e-06, 0.06229237524946421, -117.80625330191461, 31.36988130960096, 39.04793427352125, 16.157807952167897, -1.4344730810828348e-06
9.21014404296875, 2.7868908771067176, 1.570208240342096, 0.9563424813465826, 0.5289998899961474, 1.4195046875223687, 9.458643277154195, 0.013804109602757686, 0.06195438999073688, 9.243621761356735e-07, 0.05816379785320236, -106.02022539817577, 23.18597202460673, 30.86087597703235, 12.998284385318932, -1.4775818068994604e-06
9.260412216186523, 2.8223607893960456, 1.5702616758544745, 0.956582334042913, 0.5289998934625056, 1.4197298718635238, 8.512778949438774, 0.012824522970842522, 0.05756464711930509, 8.319259574562921e-07, 0.05404424187723805, -95.40824308074883, 16.572106679312707, 24.24160385754976, 10.444358411780433, -1.4808822761380504e-06
9.310156345367432, 2.854283710456441, 1.5703111153724612, 0.9568042767118605, 0.528999896582228, 1.4199382478423457, 7.661501054494902, 0.01186548431681439, 0.05326624054738727, 7.487333606448487e-07, 0.05001023491722356, -85.85528979429357, 11.228314665937694, 18.890811531503722, 8.380277744159944, -1.4550768981685599e-06
9.360151290893555, 2.883014339410797, 1.570356698107854, 0.9570089299526225, 0.5289998993899782, 1.4201303971119061, 6.895350949045416, 0.010939856494276645, 0.04911677778287571, 6.738600237810033e-07, 0.046115824694530266, -77.25698245179971, 6.9118131470046, 14.56624131314171, 6.712382830192419, -1.4085345549556354e-06
9.413901090621948, 2.9088719054697174, 1.5703985995361884, 0.9571970770617346, 0.5289999019169532, 1.4203070540379268, 6.20581585414087, 0.01005634280027523, 0.04515530618690966, 6.064740203370889e-07, 0.04239766224493935, -69.51878573389605, 3.426119283007116, 11.071822356296567, 5.364895082051711, -1.3477581291898172e-06
9.468459129333496, 2.932143714922746, 1.570437018102544, 0.9573696046508552, 0.5289999041912308, 1.420469050023485, 5.58523426872678, 0.009220455925340987, 0.041406621388933196, 5.458266185975891e-07, 0.03887903653392061, -62.55522163656333, 0.6122325518330055, 8.248874118319115, 4.276506445128703, -1.2777630449678682e-06
9.521355628967285, 2.9530883434304713, 1.5704721651190288, 0.9575274574681893, 0.5289999062380806, 1.4206172711376694, 5.026710841854097, 0.008435283956345074, 0.037884676160198416, 4.912439574983329e-07, 0.035573067404315, -56.289098833272924, -1.6585055610251327, 5.968983421775699, 3.3976185214687966, -1.202382905618051e-06
9.572356939315796, 2.9719385090874244, 1.5705042571767192, 0.9576716044208636, 0.5289999080802454, 1.420752626238447, 4.524039757668686, 0.007702093845693675, 0.034595268641827215, 4.421195622938967e-07, 0.03248522418657504, -50.65077716691487, -3.4901930423192202, 4.128237296135193, 2.688107927856153, -1.1245156440998798e-06
9.637781620025635, 2.988903658178682, 1.57053351053091, 0.9578030133973188, 0.5289999097381938, 1.420876023342691, 4.071635781901812, 0.007020805005768765, 0.03153815434922025, 3.979076055316e-07, 0.029615305018550107, -45.57747614028147, -4.967048250020578, 2.6425538968331663, 2.1155178095466796, -1.0463212917545322e-06
9.687735795974731, 3.004172292360814, 1.5705601541563163, 0.9579225447968863, 0.5289989286626297, 1.420988868787263, 3.6644722037116324, 0.006394470097516702, 0.02868753589621209, -0.00023545813539255223, 0.027082906697283853, -41.01263184091539, -6.167399613133505, 1.434203584449657, 1.648565143195607, -9.900120105644744e-07
9.736735820770264, 3.0179140631247323, 1.5705841334191821, 0.9580317316579333, 0.5289993602503802, 1.421089821466649, 3.298024983340465, 0.005755023087763461, 0.026204846651272595, 0.00010358106011622292, 0.024228643052671413, -36.905079608568535, -7.099670516484864, 0.49403729948824215, 1.2898071949138623, -8.942736961153079e-07
9.786737442016602, 3.0302816568122592, 1.570606133030615, 0.9581304523560543, 0.5289994166913151, 1.4211826275995465, 2.9682224850064216, 0.005279906743891782, 0.023692967549042987, 1.3545824371519188e-05, 0.02227347189538832, -33.20982421231513, -7.892475217371869, -0.3085870623874281, 0.9773985503578562, -7.986997112854198e-07
9.836736679077148, 3.0414124911310334, 1.5706260867798472, 0.9582199997971286, 0.5289994674881565, 1.4212668109400877, 2.671400236505775, 0.0047888998157451235, 0.021491385857829004, 1.2191241933301455e-05, 0.020204001729873418, -29.884344693361736, -8.508124459382243, -0.929916384071518, 0.7389086051242184, -7.56721249747019e-07
9.892735958099365, 3.05143024201793, 1.5706441702112919, 0.9583011598784708, 0.5289995132053138, 1.4213431101155318, 2.404260212855195, 0.004340023546714811, 0.019478419522116236, 1.0972117739704856e-05, 0.018311802106589233, -26.892275503721283, -9.00653566797677, -1.4351253804961637, 0.5442576526739894, -6.922891232381882e-07
9.952265739440918, 3.060446217816137, 1.5706605458025524, 0.9583746601546758, 0.5289995543507553, 1.4214122089242123, 2.163834191569677, 0.003930141902521861, 0.017640066289207695, 9.87490596493501e-06, 0.016583714083314785, -24.200018858186837, -9.406905648905953, -1.8417619641204763, 0.3875882709106629, -6.325612118497218e-07
10.008746862411499, 3.0685605960345232, 1.5706753645049785, 0.9584411767613461, 0.5289995913816526, 1.421474742851064, 1.9474507724127115, 0.0035564885822533254, 0.0159639856008697, 8.887415368977886e-06, 0.015008142444407447, -21.7774997117876, -9.728024807556643, -2.1686847071538327, 0.2616307795658009, -5.769867216517845e-07
10.070234775543213, 3.075863536431071, 1.5706887660247515, 0.9585013356286218, 0.5289996247094603, 1.4215313002069307, 1.7527056951714393, 0.003216364745507738, 0.014438128146180645, 7.998673832608147e-06, 0.013573765408045505, -19.59766451849464, -9.985267343463464, -2.4312852186803973, 0.16045346099155805, -5.254846466346164e-07
10.12648344039917, 3.082436182787964, 1.5707008792065338, 0.9585557141590874, 0.5289996547044872, 1.4215824237036228, 1.5774351256542898, 0.0029071636277475943, 0.013050847311722152, 7.198806449617082e-06, 0.012269639206107269, -17.63617552887714, -10.191059656830403, -2.64200939980212, 0.07926046625239774, -4.779321390671741e-07
10.178877353668213, 3.0883515645091673, 1.570711822519918, 0.9586048433729984, 0.5289996817000113, 1.4216286124680801, 1.4196916130888655, 0.0026263952121940715, 0.011791011338656066, 6.4789258038561864e-06, 0.011085303469757356, -15.871138455678016, -10.355437577776534, -2.8109151715893366, 0.014176555649467007, -4.3416478425994494e-07
10.233689785003662, 3.0936754080582505, 1.5707217046124913, 0.9586492103580393, 0.5289997059959831, 1.421670324342828, 1.2777224517799828, 0.0023717022176099334, 0.010648076409802282, 5.831033224268367e-06, 0.010010849939450426, -14.28285723962025, -10.486503512826234, -2.9461285967196815, -0.03792887443937386, -3.9399055635072956e-07
10.281721591949463, 3.0984668672524256, 1.5707306249007444, 0.9586892608939184, 0.5289997278623577, 1.421707978350932, 1.1499502066019858, 0.002140869180784849, 0.00961212861096919, 5.247929901309491e-06, 0.009036961944998548, -12.853613249105221, -10.59079658849406, -3.054213187107622, -0.07958423577641975, -3.5720096418757206e-07
10.336909055709839, 3.102779180527183, 1.5707386741771432, 0.958725402153912, 0.5289997475420949, 1.4217419572334997, 1.034955185941783, 0.0019318263357099297, 0.008673902398475264, 4.7231369109113075e-06, 0.008154931816221575, -11.56746655609102, -10.673592161077844, -3.1404687790930117, -0.11283100027220908, -3.2357950150085877e-07
10.390104055404663, 3.1066602624744646, 1.5707459352172919, 0.9587580054106534, 0.5289997652538583, 1.4217726099914074, 0.9314596673476068, 0.0017426496356610366, 0.00782478161792688, 4.250823218754363e-06, 0.007356661897837872, -10.410077132909022, -10.739144145605158, -3.2091733907022357, -0.13931694563024244, -2.9290795653006484e-07
10.443409204483032, 3.110153236227018, 1.5707524833755038, 0.9587874086931838, 0.5289997811944454, 1.4218002543814579, 0.838313700612847, 0.0015715579708619476, 0.007056787807297266, 3.8257408974118334e-06, 0.006634653612121568, -9.368544006350902, -10.790881061813998, -3.2637789256199947, -0.16037159297156794, -2.649710411751871e-07
10.497726440429688, 3.113296912604316, 1.5707583871605062, 0.9588139193576469, 0.5289997955409738, 1.4218251793315895, 0.7544823305515679, 0.001416908400589223, 0.006362559471150386, 3.44316680767065e-06, 0.005981988031592433, -8.431260586033293, -10.831564619759629, -3.3070695192303354, -0.1770672338610249, -2.3955970749108536e-07
10.562526941299438, 3.1161262213438845, 1.5707637087856436, 0.9588378165459019, 0.5289998084528493, 1.4218476472509387, 0.6790340974964089, 0.0012771900330018904, 0.005735325181204481, 3.098850125837771e-06, 0.005392300643791775, -7.587784552504316, -10.86341798729134, -3.3412896468032547, -0.19026829605822543, -2.164734445918497e-07
10.618526458740234, 3.118672599209496, 1.5707685046899733, 0.9588593535154807, 0.5289998200735373, 1.4218678962191522, 0.6111306877467692, 0.0011510170390994778, 0.005168872698910476, 2.7889651121886135e-06, 0.0048597523712536755, -6.828720845982976, -10.888229521213422, -3.3682477576937524, -0.20067127290324752, -1.9552178892229619e-07
10.682527303695679, 3.1209643392885464, 1.5707728260281855, 0.9588787598312887, 0.5289998305321565, 1.4218861420459017, 0.5500176189720952, 0.001037121170938432, 0.004657515793909106, 2.510068600969362e-06, 0.004378998419853502, -6.145616439229933, -10.907436642620715, -3.389400101557753, -0.20883701691387793, -1.765252326673118e-07
10.739527702331543, 3.123026905359692, 1.5707767191284474, 0.9588962434147076, 0.5289998399449137, 1.421902580196494, 0.4950158570748825, 0.0009343440628531707, 0.004196060020546066, 2.2590617403395186e-06, 0.003945156142150531, -5.530865707997925, -10.922193645200554, -3.4059185237712875, -0.21521685477959754, -1.593156763607514e-07
10.794623851776123, 3.124883214823723, 1.5707802259181243, 0.9589119924496701, 0.5289998484163952, 1.4219173875831541, 0.4455142713673901, 0.000841629522433246, 0.0037797683910042734, 2.033155566571478e-06, 0.0035537727984160648, -4.977625330658767, -10.933426503452537, -3.4187452877300366, -0.22017370305953918, -1.4373654080527987e-07
10.842890739440918, 3.1265538933413506, 1.570783384317966, 0.9589261771481287, 0.5289998560407286, 1.4219307242242363, 0.40096284423064793, 0.0007580159619787197, 0.0034043276300654013, 1.8298400101813802e-06, 0.0032007938597109846, -4.479737755556369, -10.941877163315883, -3.4286373991785943, -0.22399913899871723, -1.2964262868537694e-07
10.893996477127075, 3.1280575040072156, 1.5707862286057876, 0.9589389513793747, 0.5289998629026287, 1.421942734775536, 0.36086655980758314, 0.0006826290771952959, 0.0030658154990501896, 1.6468560088963658e-06, 0.002882532311915516, -4.031662371283939, -10.948139324598694, -3.4362024361602796, -0.22692719887896917, -1.168998064573332e-07
10.94302248954773, 3.129410753606494, 1.57078878975098, 0.9589504541690551, 0.5289998690783387, 1.421953549939184, 0.32477990382682265, 0.0006146748461900442, 0.0027606695233108325, 1.4821704077405684e-06, 0.0025956392755107673, -3.628413602302545, -10.952687341518574, -3.441927506376199, -0.2291455290128848, -1.053845614028322e-07
10.995420932769775, 3.1306286782458446, 1.5707910957213789, 0.9589608110746378, 0.5289998746364778, 1.421963287756456, 0.29230191344413825, 0.0005534328957059464, 0.002485657339858005, 1.3339533664339298e-06, 0.0023370761452804513, -3.265505230863476, -10.95589955759833, -3.446202644679675, -0.23080439527333577, -9.498347618114258e-08
11.045764684677124, 3.13172481042126, 1.5675093851405735, 0.9590752371506099, 0.5289998796388029, 1.4220710214798955, 0.2630717220997276, -0.7876105393932871, 0.027462258233316328, 1.2005580289985271e-06, 0.025856093625443964, -2.93890031692417, -146.35983494694887, -87.60282775017183, -28.07456288553102, -0.00011834677264651889
11.096097946166992, 3.132711329379134, 1.5645311646962532, 0.959066171050718, 0.5289998841408955, 1.4220624727521323, 0.23676454988975593, -0.7147729066368914, -0.0021758639740644403, 1.0805022263582487e-06, -0.0020516946631544825, -2.530004700785662, -1.4547957621822203, 1.99243971682576, 1.442662132259522, 2.411802133716748e-06
11.146546363830566, 3.133599196441221, 1.5618501520755625, 0.9590552224011621, 0.5289998881927789, 1.4220521524040464, 0.2130880949007761, -0.6434430289657602, -0.002627675893403625, 9.724520042550327e-07, -0.002476883540597483, -2.294298562630447, 1.4488859376979044, 4.378410958553352, 2.3915032780909624, 1.1238755892840618e-05
11.196989059448242, 3.1343982767970986, 1.5577955259162133, 0.9590987945417171, 0.5289998918394739, 1.4220931740253229, 0.19177928541069633, -0.9731102782437989, 0.010457313733180817, 8.752068030323887e-07, 0.00984518910635572, -2.0832008301657425, -67.38373137435426, -38.414066189208754, -11.768306101329712, -4.871074630253357e-05
11.245153188705444, 3.1351174491173888, 1.5541342198141168, 0.959082872015338, 0.5289998951214995, 1.4220781717352329, 0.172601356869631, -0.8787134645031357, -0.0038214063309675583, 7.876861216613625e-07, -0.0036005496215927926, -1.8479959307622047, 3.9119049701403674, 5.693118536676174, 2.7700048861669324, 1.0617459990600794e-05
11.293806552886963, 3.13576470420565, 1.5508389210613467, 0.9590679821738232, 0.5289998980753224, 1.4220641427838296, 0.1553412211826668, -0.7908717006648122, -0.003573561963574251, 7.089175086960608e-07, -0.0033669483367894104, -1.681626322841996, 4.326759699905718, 6.208477372914625, 3.012394614538121, 1.4086737551967902e-05
11.349131345748901, 3.136347233785085, 1.5429477040343322, 0.959213375672346, 0.5289999007337631, 1.4222010506416578, 0.13980709906440228, -1.8938920864834614, 0.03489443964548944, 6.380257575487255e-07, 0.03285788587878252, -1.5299489748875352, -200.2679258085231, -120.98530460730413, -39.07773393928204, -0.0001645709864849859
11.40285325050354, 3.1368715104065763, 1.532524944966241, 0.9592820341248991, 0.5289999031263597, 1.4222657057932608, 0.12582638915796093, -2.5014621763418625, 0.016478028612744416, 5.742231809994364e-07, 0.015517236384734932, -1.299423059981379, -119.75153915628036, -71.29247543985228, -22.733932625816884, -0.00010307023911904134
11.46204686164856, 3.137343359365919, 1.5231190384890771, 0.9592283430558788, 0.5289999052796966, 1.4222151370129217, 0.11324375024216593, -2.2574175545193076, -0.012885856564867404, 5.168008634379509e-07, -0.01213650728139025, -1.1400244102970312, 28.182525996766707, 21.456617497011273, 8.169946331640139, 2.9695625925188903e-05
11.519728899002075, 3.137768023429327, 1.5146536285218104, 0.9591795962605109, 0.5289999072176998, 1.4221692257161522, 0.10191937521794614, -2.0316983921440017, -0.011699230888292528, 4.651207765609018e-07, -0.01101871122465505, -1.057840188157795, 28.2523975704567, 21.89801542758492, 8.430874626214258, 3.628380846888447e-05
11.5732102394104, 3.138150221086394, 1.5070354611914005, 0.9591389136086736, 0.5289999089619027, 1.4221309098376953, 0.09172743769615367, -1.8283601592983696, -0.009763836440938839, 4.186086997011798e-07, -0.009195810829673563, -0.9798909886865323, 24.37842482197177, 19.286450459548757, 7.516754031568019, 3.296796416467822e-05
11.622344970703125, 3.138494198977755, 1.50017976648587, 0.9591052799456387, 0.5289999105316854, 1.422099233021941, 0.08255469392653934, -1.6453667293273235, -0.008072079128408072, 3.7674783026631076e-07, -0.007602435781009927, -0.9043850769740546, 20.75547191944862, 16.847530297414345, 6.663555503614215, 2.9664186940408367e-05
11.671073198318481, 3.1388037790799794, 1.4890845117106313, 0.959235264326075, 0.5289999119444897, 1.422221636299043, 0.07429922453388116, -2.6628611460573293, 0.03119625130472306, 3.3907304696195045e-07, 0.029376786504448, -0.8320542419537075, -185.60093035898123, -111.56294042670383, -35.859703157789056, -0.00015071746435163394
11.720752954483032, 3.1390824011719816, 1.477420263932602, 0.9592385533906502, 0.5289999132160136, 1.422224732505014, 0.06686930208049091, -2.799419466727013, 0.0007893754980475842, 3.0516574334345237e-07, 0.0007430894330084648, -0.71673569342246, -38.943835315518946, -20.52697101337313, -5.7757596945058145, -3.1545880361303677e-05
11.769307613372803, 3.1393331610547834, 1.46690963280704, 0.9591833324501045, 0.5289999143603851, 1.4221727259496735, 0.06018237187243969, -2.522551470134878, -0.013253025730976198, 2.746491700724926e-07, -0.012481573281685109, -0.6502639050761413, 35.196182377999804, 26.287761099619402, 9.916651986151349, 3.9652723224859014e-05
11.825308084487915, 3.1395588449493053, 1.4574505042704797, 0.9591356332862272, 0.5289999153903194, 1.4221278041175276, 0.05416413468519466, -2.270190848774426, -0.011447799330549235, 2.4718425439482217e-07, -0.010781239715018574, -0.604610955634828, 32.59066625871284, 24.68635928244037, 9.399176762073527, 4.06974151036398e-05
11.874306440353394, 3.1397619604543747, 1.4489380946456636, 0.9590963677249428, 0.5289999163172604, 1.4220908253389917, 0.04874772121667092, -2.042978309955885, -0.009423734708256165, 2.224658297560883e-07, -0.008874906848622492, -0.5603101018335602, 28.179173804280698, 21.67867004925893, 8.337924640155306, 3.678155721546879e-05
11.921306610107422, 3.1399447644089373, 1.4412776621028907, 0.9590643736908274, 0.5289999171515073, 1.4220606949023953, 0.04387294909500383, -1.8385038102654858, -0.007678568187682089, 2.002192465155872e-07, -0.007231304783115702, -0.5172623131069592, 24.137215350049523, 18.937008103300226, 7.373737363298828, 3.308981732889638e-05
11.973575115203857, 3.1401092879680434, 1.4343839327455672, 0.9590385772346868, 0.5289999179023295, 1.422036401197416, 0.03948565418550131, -1.6544950457576562, -0.006191149473752738, 1.8019732106640263e-07, -0.005830489194994245, -0.47595467554866994, 20.497192178580132, 16.48424918025723, 6.515061416152685, 2.9762462814423078e-05
12.018641233444214, 3.140257359171239, 1.428180167739672, 0.9590180468841156, 0.5289999185780694, 1.4220170668697385, 0.03553708876695438, -1.4889036014148558, -0.004927284137063975, 1.6217758869001286e-07, -0.004640238642588663, -0.43672225449934343, 17.221412734143485, 14.290280750469297, 5.750219535659215, 2.6768764804270728e-05
12.066058158874512, 3.140390623254115, 1.4225973094108866, 0.9590019775329872, 0.5289999191862353, 1.4220019336260143, 0.03198337989026001, -1.3398859989084653, -0.0038566442708271864, 1.4595983089012166e-07, -0.003631978493810785, -0.3997658154914601, 14.2735999870464, 12.326792080263647, 5.068364399159378, 2.407558400975937e-05
12.111338138580322, 3.1405105609287034, 1.4175732123392755, 0.958989674173364, 0.5289999197335847, 1.4219903468964883, 0.028785041901237207, -1.205783297186682, -0.002952806309558881, 1.3136384779781352e-07, -0.002780815086268524, -0.3651846204515476, 11.62099704610656, 10.568706884326222, 4.45998954282038, 2.1652875391695664e-05
12.153599500656128, 3.140618504835833, 1.4130519514216302, 0.9589805376161228, 0.5289999202261991, 1.4219817423750325, 0.025906537711115615, -1.0851026202348402, -0.002192773737886039, 1.1822746248668636e-07, -0.0020650851494154188, -0.3330027624397219, 9.234099948662282, 8.99383217683529, 3.916765270543637, 1.9473569441599835e-05
12.198404312133789, 3.14071565435225, 1.4089831992096176, 0.95897405202091, 0.5289999206695521, 1.4219756342665153, 0.023315883940004056, -0.9765005308830537, -0.0015565428510535273, 1.064047170373783e-07, -0.0014659460441265862, -0.30318972020372625, 7.086340536677619, 7.582501113723158, 3.4313789252163667, 1.7513287554510896e-05
12.241405248641968, 3.140803088917025, 1.4053216655864598, 0.9589697740083802, 0.5289999210685699, 1.4219716050268203, 0.020984295546000457, -0.8787680695578534, -0.0010267230071511202, 9.576424453081045e-08, -0.0009670175267864423, -0.275676278102734, 5.153797151505997, 6.3172629149241954, 2.997398478510475, 1.575007825309973e-05
12.284125566482544, 3.1408817800253224, 1.4020265935394267, 0.9589673231545699, 0.5289999214276858, 1.421969296406374, 0.018885865991400408, -0.7908172912879136, -0.0005882049144885493, 8.618781954794486e-08, -0.0005540689071198805, -0.2503667674332094, 3.4149331670375953, 5.182614563766864, 2.60915630849868, 1.4164178384566586e-05
12.32576847076416, 3.1409526020227903, 1.3990613054108423, 0.9589663736929261, 0.5289999217508902, 1.4219684016323715, 0.01699727939226037, -0.711669150860246, -0.00022787079449027026, 7.756903652733627e-08, -0.00021474576060556607, -0.2271484043101833, 1.8503608901259945, 4.164768126100406, 2.261649926235826, 1.2737797250034953e-05
12.368391036987305, 3.141016341820511, 1.3963927945730543, 0.9589666472718421, 0.528999922041774, 1.4219686585860443, 0.015297551453031133, -0.6404426010690973, 6.56589398420615e-05, 6.981213207524206e-08, 6.166888146079755e-05, -0.20589834702456483, 0.4426284704074774, 3.2514484696949473, 1.9504569477660747, 1.1454921581580396e-05
12.411927938461304, 3.14107370763846, 1.3939913579791385, 0.9589679066349364, 0.5289999223035695, 1.4219698438496617, 0.013767796307732283, -0.576344782539806, 0.00030224714262411245, 6.283091913417138e-08, 0.0002844632681818062, -0.18648897031766065, -0.8239723443562001, 2.4317169978059283, 1.671662068887686, 1.0301139442531491e-05
12.458445310592651, 3.1411253368746137, 1.3918302654966772, 0.9589699501081588, 0.5289999225391855, 1.4219717675138925, 0.012391016676961185, -0.5186621957907287, 0.0004904335733746101, 5.654782775019185e-08, 0.0004616794153647335, -0.16879175179732958, -1.9635795852191438, 1.6958177037518642, 1.4217941793677613, 9.26348128604447e-06
12.50417947769165, 3.1411718031871523, 1.3898855387936586, 0.958971647260039, 0.5289995788967189, 1.4219747649774495, 0.011151915009268265, -0.46673440872445227, 0.0004073164512701233, -8.247419197866465e-05, 0.0007193912536416587, -0.1526800831952849, -3.013954019190137, 1.01367951229943, 1.1888140894685855, 8.302221221819337e-06
12.56317663192749, 3.141213622868437, 1.3881352847609418, 0.9589758703304838, 0.5289998941291285, 1.421977151813788, 0.010036723508342504, -0.420060967852006, 0.001013536906744772, 7.56557783054973e-05, 0.000572840721259741, -0.13802957912972041, -3.85873856569645, 0.48658964285272116, 1.015661557969665, 7.548395331253443e-06
12.609177112579346, 3.141251260581593, 1.3865600561314968, 0.9589796308472239, 0.529000209999461, 1.4219792859881133, 0.009033051157512517, -0.37805487106680324, 0.0009025240176388505, 7.580887978162268e-05, 0.0005122018380829107, -0.12472962814705119, -4.7684211339229075, -0.11227762248841745, 0.8086060208612545, 6.677708846298308e-06
12.65117621421814, 3.141285134523434, 1.3851427124385594, 0.9589833104018527, 0.5290001814654878, 1.4219829100224604, 0.0081297460417602, -0.3401624863049607, 0.0008830931109103657, -6.848153566885173e-06, 0.0008697682433187418, -0.11265863446160261, -5.489104174633286, -0.573458181084844, 0.6527951525810309, 6.089833961219406e-06
12.695176839828491, 3.1413156210710906, 1.3838672198714796, 0.9589871521040991, 0.5290001557849119, 1.421986670822305, 0.0073167714375799164, -0.3061182160991497, 0.0009220085391428712, -6.163338210466579e-06, 0.0009025919627060229, -0.10171809815690411, -6.160167427529318, -1.0005797602614501, 0.5096910112890958, 5.44659172796953e-06
12.740647077560425, 3.1413430589639817, 1.382719382087796, 0.9589910887628613, 0.5290001326723937, 1.4219905067119, 0.006585094293821926, -0.2754810680840553, 0.0009447981029222507, -5.547004389150345e-06, 0.0009206135028163309, -0.09180929819540351, -6.76453829911016, -1.387119570122342, 0.3793905601015054, 4.8979874087361026e-06
12.788953304290771, 3.1413677530675836, 1.3816864229612378, 0.958995062546836, 0.5290001118711272, 1.4219943646693707, 0.005926584864436536, -0.2479101903739819, 0.0009537081539266745, -4.992303951564109e-06, 0.0009259097929278839, -0.08284082763536772, -7.308392159257704, -1.7345795452870412, 0.2623594802938856, 4.404408561932735e-06
12.831676244735718, 3.1413899777608254, 1.3807568450411423, 0.9589990262327145, 0.5290000931499873, 1.4219982015180064, 0.005333926377989685, -0.22309870082292974, 0.0009512846108467587, -4.493073555877913e-06, 0.0009208436725831083, -0.07472840068100019, -7.797699631319859, -2.0468752913963515, 0.15725325287993863, 3.9605442157731255e-06
12.874432563781738, 3.1381030784497086, 1.379920301594541, 0.9590029417341773, 0.5290000763009615, 1.4220019825554828, -0.7888558346680128, -0.20077042718432928, 0.0009397203510704277, -4.0437661992208385e-06, 0.0009074489943231862, -101.49427819667198, -8.237927256585188, -2.327588600676991, 0.06284258922689819, 3.561397215473117e-06
12.920505046844482, 3.1186101591392834, 1.3791674340587492, 0.959006563622074, 0.5290000611368382, 1.4220054777187703, -4.678300634501991, -0.1806882085900357, 0.0008692530952179034, -3.6393895790354236e-06, 0.0008388391889983622, -497.5904618892575, -8.47413029071941, -2.3818396350740816, 0.06309113720260147, 3.181346949721052e-06
12.96289348602295, 3.094452657324476, 1.3784882870708361, 0.9590027118250896, 0.5290000474891272, 1.422001926824959, -5.797800435553739, -0.1629952770991374, -0.0009244312762844431, -3.275450620066067e-06, -0.000852214514700668, -144.07222643324826, -3.320134110231649, 4.195789992995278, 2.907151600808665, 2.2462508798828165e-06
13.003288507461548, 3.0594831568203, 1.3778761572355906, 0.9589951698646617, 0.5290000352061874, 1.4219948934834825, -8.392680121002272, -0.14691116045892136, -0.001810070502676342, -2.9479055569797685e-06, -0.0016880019543663999, -333.35685045282435, -0.33000437861676113, 7.957099261871472, 4.531916488653164, 2.2682029462770882e-06
13.047883749008179, 3.021396731931117, 1.377322440458655, 0.9589756691694516, 0.5290000241515416, 1.421976592432769, -9.140741973404, -0.13289202646455417, -0.0046801668504109495, -2.6531150023600958e-06, -0.004392252171265015, -97.43692326903073, 9.06039208205236, 19.676251083571128, 9.577801290476483, 1.3135337903644348e-06
13.089305639266968, 2.987118949530852, 1.376823039596632, 0.9589533258644927, 0.5290000142023603, 1.421955608729764, -8.2266677760636, -0.11985620688550463, -0.005362393190167514, -2.3878035015634236e-06, -0.005036088721167814, 115.51840474344148, 12.665645004802697, 24.078635399791796, 11.469709120543738, 1.8352086351433958e-06
13.132687330245972, 2.9529620319947587, 1.376374798053562, 0.958938753466806, 0.5290000052480972, 1.4219419370526853, -8.197660208662318, -0.10757797033677369, -0.0034973754447897853, -2.1490231514320612e-06, -0.0032812024989054556, 2.3117147430036047, 8.500180949724063, 18.990629266105948, 9.293820009163387, 2.5116880725720005e-06
13.175931453704834, 2.9189138451527046, 1.37597149591863, 0.9589261621194498, 0.5289999971892604, 1.4219301259149963, -8.17156484209296, -0.09679251238368292, -0.003021923365490009, -1.934120836821762e-06, -0.0028346730453778224, 2.01120561928198, 7.946612161765466, 18.543775669188683, 9.124602648148233, 1.845173405283674e-06
13.223728895187378, 2.888270476994856, 1.3756085934991842, 0.958915145912596, 0.5289999899363073, 1.421919793565496, -7.35440835788366, -0.08709658066700499, -0.0026438896449098026, -1.740708753139586e-06, -0.002479763880110092, 103.66624717166899, 7.6196834646377525, 18.272477985095197, 9.022190890059461, 1.6435432328220742e-06
13.269777059555054, 2.8540775712173674, 1.3752829841614949, 0.9589097843703132, 0.5289999834086494, 1.4219147817207651, -8.206297386597248, -0.07814624104544865, -0.0012867701478714855, -1.5666378780920809e-06, -0.0012028427353955318, -110.50552498464221, 4.158464057910514, 14.09740970994886, 7.239343728005922, 1.8329816709916779e-06
13.316073417663574, 2.8199969949580574, 1.3749889823888257, 0.9589006311231112, 0.5289999775337574, 1.4219061959787171, -8.179338302234395, -0.07056042544058294, -0.0021967793284803916, -1.4099740894835122e-06, -0.0020605780915362026, 2.265636859454989, 7.245856485704707, 18.109822713499963, 8.982180108976154, 9.111189969970123e-07
13.36077618598938, 2.7893244763246785, 1.3747244054359498, 0.9588925054109227, 0.5289999722463545, 1.4218985745526114, -7.361404472010959, -0.06349846869023129, -0.0019501709252383037, -1.268976681068068e-06, -0.0018291422653676503, 103.99142672675276, 7.154172225024223, 18.00789433818729, 8.94200012987435, 1.1881076158236458e-06
13.407618045806885, 2.7617192095546375, 1.3744872812615951, 0.9588897097767325, 0.528999967487692, 1.4218959689963444, -6.625264024809862, -0.05690980184508393, -0.0006709522056715933, -1.1420790126948077e-06, -0.0006253335040512231, 93.7074808038556, 3.7459189540605458, 13.860145832451398, 7.166449078510781, 1.4364895817013834e-06
13.454760074615479, 2.726953681650321, 1.3742747109598599, 0.9588910135616483, 0.5289999632048956, 1.4218972207586023, -8.343726697035908, -0.051016872416454195, 0.00031290837980024744, -1.0278711108924199e-06, 0.00030042294186476137, -221.83153478031088, 0.8077968070164996, 10.365598653215931, 5.67685755372074, 1.236589430409872e-06
13.507633447647095, 2.6956647065364363, 1.3740814754472683, 0.9588834608896373, 0.5289999593503789, 1.4218901309311607, -7.509354027332314, -0.04637652302197365, -0.0018126412826402483, -9.250839987373638e-07, -0.0017015585859669058, 106.24745881141698, 7.185641112716973, 18.421947852926436, 9.156188886180026, 6.950804714302617e-08
13.554207563400269, 2.66750462893394, 1.3739085246996654, 0.9588810271563694, 0.5289999558813139, 1.4218878589396255, -6.758418624599082, -0.04150817942469098, -0.000584095984292432, -8.325755978255689e-07, -0.0005452779684421982, 95.71295548587314, 4.019384066129429, 14.387824228915422, 7.413848322886171, 1.1492004846487766e-06
13.59860634803772, 2.6355466846562687, 1.373753736104153, 0.9588827728876439, 0.5289999527591553, 1.421889520337279, -7.669906626641126, -0.03714926292299492, 0.00041897550589042876, -7.493180369383401e-07, 0.00039873543680948864, -118.06859677656715, 1.0118522726120536, 10.782648261024363, 5.8739111626547755, 1.0001518867463082e-06
13.64135217666626, 2.60347762143051, 1.3736134624627467, 0.9588799684114803, 0.5289999499492127, 1.4218868955415631, -7.696575174182091, -0.033665673937476326, -0.0006730742792770972, -6.743862321634264e-07, -0.000629950971790777, -4.335767794881004, 4.1729407093543704, 14.830535431043206, 7.627052236976705, 2.096684149894707e-07
13.689328670501709, 2.574615464527327, 1.3734871627154415, 0.9588772017472176, 0.5289999474202643, 1.4218843047836753, -6.926917656763881, -0.03031193935325277, -0.0006639994230462909, -6.069476095049708e-07, -0.0006217818930467633, 98.19006699353076, 4.378196752072264, 15.04828083075835, 7.719097557986282, 5.31257578390051e-07
13.73939037322998, 2.5486395233144625, 1.373374362439772, 0.9588786588135813, 0.5289999451442108, 1.4218856896192982, -6.234225891087487, -0.02707206616063651, 0.0003496959272882849, -5.46252848301898e-07, 0.00033236054949017935, 88.44833533246045, 1.4311453691056404, 11.417911006480212, 6.1598281475504315, 8.265640124983353e-07
13.781378030776978, 2.5219542151633143, 1.3732735787820707, 0.9588833138115445, 0.5289999430957626, 1.4218900842857713, -6.404473956275615, -0.02418807784835586, 0.0011171995111767252, -4.916275626598576e-07, 0.0010547199535547586, -22.535058377701787, -1.117722651337076, 8.354206061213539, 4.8499238301979455, 6.94733835739528e-07
13.82637619972229, 2.4946304767677105, 1.3731827422043907, 0.9588869072670848, 0.5289999412521592, 1.4218934782411043, -6.557697214944935, -0.021800778643212337, 0.000862429329675285, -4.4246480612741834e-07, 0.0008145492798998233, -20.359002948947428, -0.7383267727058838, 8.916964043397396, 5.100178138342886, 2.9843793427465926e-07
13.871376276016235, 2.470039112211667, 1.3731008398252933, 0.9588894628494059, 0.5289999395929161, 1.421895893891183, -5.901927493450444, -0.019656570983409727, 0.0006133397570653454, -3.9821832498176946e-07, 0.0005797560188866013, 83.81929456041242, -0.2464996839111694, 9.54438130965473, 5.372305738863361, 2.6160322363927515e-07
13.919378995895386, 2.441293057359519, 1.373027753946348, 0.9588946057447345, 0.5289999380995974, 1.4219007447878607, -6.899053164515554, -0.017540610946877866, 0.0012342948788551245, -3.583964911513249e-07, 0.0011642152026606484, -128.97386870626357, -2.359293527529554, 6.927481597665768, 4.24690874099957, 5.28027950334052e-07
13.970789670944214, 2.4088077335571607, 1.3729610274771475, 0.9588949254411888, 0.5289999367556106, 1.4219010533361929, -7.796477712565952, -0.016014352608134275, 7.672714903361744e-05, -3.2255684255522166e-07, 7.405159971310415e-05, -116.28754012897029, 0.7808819416909069, 10.907804703149033, 5.967413474032459, -1.1861958042591156e-07
14.018945932388306, 2.379570942135038, 1.3728999371606163, 0.9588905079451738, 0.5289999355460224, 1.4218969006176907, -7.016829941309358, -0.014661675967504006, -0.001060199043602883, -2.9030115913930565e-07, -0.0009966524405467803, 99.5981775227998, 4.3048143172292415, 15.23324054913294, 7.826175131238091, -1.4050865823111e-07
14.071615934371948, 2.353257829855128, 1.3728458084789277, 0.9588904027415629, 0.5289999344573931, 1.4218968076764489, -6.315146947178417, -0.012990883605247527, -2.5248866615923404e-05, -2.612710421068254e-07, -2.230589802917904e-05, 89.6988232602863, 1.4855500884518416, 11.657469881586875, 6.281350804507941, 5.852447046006868e-07
14.119614601135254, 2.329576028803209, 1.3727978421869946, 0.9588937105154706, 0.5289999334776267, 1.421899927755857, -5.683632252460568, -0.011511910063951747, 0.0007938657378323555, -2.3514393898693697e-07, 0.0007488190579668097, 80.78757725899146, -1.092854735230324, 8.536338364073213, 4.944394229993818, 4.885348052215895e-07
14.161983489990234, 2.3049554467969116, 1.372755281808819, 0.9588994533267415, 0.528999932595837, 1.421905340087713, -5.908939681511392, -0.010214490762195383, 0.0013782747050402055, -2.1162954588760385e-07, 0.0012989596454620889, -29.507422178699397, -3.1923182594838253, 6.000022159344027, 3.8583479458783203, 3.873419181943501e-07
14.204108715057373, 2.2728761351799647, 1.372716801880489, 0.9589038246961472, 0.5289999318022262, 1.4219094605683267, -7.699034788067284, -0.009235182799183228, 0.001049128657352627, -1.9046659181787273e-07, 0.000988915347239161, -231.16126112310116, -2.6451247224337027, 6.743888733462225, 4.184010658913946, 5.303351288574603e-08
14.250540256500244, 2.2373908802892877, 1.3726803033859074, 0.958899285378159, 0.5289999310879765, 1.4219051903040885, -8.516461173762515, -0.008759638699549988, -0.0010894363171529697, -1.7141993158276136e-07, -0.0010248634171662607, -106.12150610464634, 3.6292646359668117, 14.549565032524066, 7.546193464112468, -5.899544905637533e-07
14.293059349060059, 2.198840276452253, 1.3726463792042407, 0.9588903176360561, 0.5289999304451517, 1.4218967498903785, -9.252144920888218, -0.008141803600002051, -0.002152258104685445, -1.5427793975675286e-07, -0.002025699290365196, -95.75574619349007, 7.341312645777325, 19.025502149527675, 9.46315314954809, -2.3408841686796284e-07
14.335590362548828, 2.160837819623068, 1.3726148132697324, 0.9588775523974126, 0.5289999298666095, 1.4218847335182698, -9.12058963900447, -0.0075758242819742305, -0.003063657274470888, -1.3885014471526347e-07, -0.0028839293060590188, 15.845596119360778, 10.868573287304526, 23.33779030689548, 11.314893645714175, -1.959496611455077e-07
14.382560968399048, 2.1200216863576604, 1.3725865559474653, 0.9588667543867031, 0.5289999293459214, 1.4218745692947667, -9.795871983697774, -0.00678175734412273, -0.0025915225702675126, -1.2496513160376033e-07, -0.0024394136407459854, -88.10921223018215, 10.408056048192197, 22.689524827872727, 11.030120706413634, 2.700672193240788e-07
14.429419040679932, 2.0832871664187937, 1.3725601550717068, 0.9588526368222519, 0.5289999288773022, 1.4218612792770204, -8.816284785327992, -0.006336210182018687, -0.0033882154682987053, -1.1246861841840428e-07, -0.0031896042591155194, 125.0269866205832, 13.647294345800836, 26.744974721116403, 12.779263230216499, -1.796126107867523e-07
14.480935335159302, 2.050226098473814, 1.372537758122385, 0.9588461224974064, 0.5289999284555449, 1.4218551481895265, -7.9346563067951905, -0.005375267837215814, -0.0015634379629176909, -1.0122175631011032e-07, -0.0014714609985576887, 112.61299091886663, 9.113743207044392, 21.030132950289758, 10.312155800932269, 7.17239390052479e-07
14.533032417297363, 2.020471137323332, 1.3725187801333163, 0.9588456126797442, 0.5289999280759633, 1.4218546705719883, -7.1411906761156745, -0.004554717376509254, -0.0001223562389267574, -9.109958121200634e-08, -0.00011462820918042849, 101.43832192333794, 5.069499777022082, 16.117258560104922, 8.205566908661554, 5.769522049995804e-07
14.57679033279419, 1.9936916722878981, 1.3725026576153507, 0.9588495008135991, 0.5289999277343399, 1.4218583336922854, -6.427071608504108, -0.0038694043117589727, 0.0009331521251751962, -8.198962309080571e-08, 0.0008791488713234263, 91.36284294734536, 1.7818436003950224, 12.12882525667869, 6.495761700585515, 4.364969282446888e-07
14.63351821899414, 1.9662832403801533, 1.3724889229824895, 0.9588565207330555, 0.5289999274268788, 1.4218649453714771, -6.578023657858773, -0.003296311886674008, 0.001684780669537922, -7.379066158108571e-08, 0.0015868030060015165, -20.017044731926173, -0.8806045742999857, 8.898652836341737, 5.110980847309868, 3.2477389214972557e-07
14.67951774597168, 1.9316948161681877, 1.372476439263297, 0.9588622822629582, 0.5289999271501639, 1.42187037196415, -8.301221810871729, -0.002996092606188938, 0.0013827671766643013, -6.641159620845993e-08, 0.0013023822414741232, -222.68777567524037, -0.5153836434413576, 9.421561367977569, 5.341717858316803, -4.5798227660241933e-08
14.725518465042114, 1.893951359941994, 1.3724632388452291, 0.9588585475973163, 0.5289999269011204, 1.4218668569609063, -9.058429494286507, -0.003168100336334856, -0.0008963197540804435, -5.977043662785952e-08, -0.0008436007784603239, -98.47283466866645, 6.089407061115777, 17.637572266793434, 8.880741302037276, -7.35608506858702e-07
14.774516344070435, 1.8467545004675698, 1.372450285873905, 0.9588503178088181, 0.5289999266769813, 1.421859109346353, -11.32724627386176, -0.003108713117819517, -0.001975149239538343, -5.379339376720971e-08, -0.001859427492778093, -293.47884096982636, 9.800591011646897, 22.09818947832226, 10.789954257618485, -3.2695854970096687e-07
14.815791368484497, 1.7976635001888792, 1.3724350538357155, 0.9588266868675727, 0.5289999264752561, 1.4218368604089442, -11.781840066885739, -0.003655689165472986, -0.005671425898919447, -4.841405409905519e-08, -0.0053397449781373285, -60.156568640659756, 21.861205751345828, 37.030022000171314, 17.216311278464595, -1.2380528319532536e-06
14.85613465309143, 1.7501745911947715, 1.3724204189262361, 0.9588012175525019, 0.5289999262937034, 1.421812880899361, -11.397338158585837, -0.0035123782750774435, -0.006112635616977835, -4.35726495440214e-08, -0.005755082299971237, 47.856511807463704, 25.166310654676955, 40.8540375959512, 18.841238075127396, -1.1911621483819882e-07
14.898854732513428, 1.7008207463483656, 1.3724078990028967, 0.9587812543511274, 0.528999926130306, 1.4217940861041931, -11.844922763137406, -0.003004781601454898, -0.00479116832987958, -3.921538560547333e-08, -0.004510750840318489, -59.30967297634948, 23.022577388042166, 38.11545374781059, 17.656318296752968, 4.866593524502868e-07
14.941762924194336, 1.65309532492703, 1.3723958589755236, 0.9587597849607655, 0.5289999259832483, 1.4217738734554546, -11.45410114112054, -0.002889606569560055, -0.005152653686853581, -3.5293847899797726e-08, -0.004851035697242434, 48.66953054873352, 25.569820720938377, 41.34856874602159, 19.054435654417578, -9.807004700120685e-08
14.988838195800781, 1.6068355322719734, 1.3723856944201924, 0.9587435117559758, 0.5289999258508964, 1.4217585534889192, -11.102350237213566, -0.0024394932794798985, -0.0039055691495166744, -3.176446311536907e-08, -0.003676791968495796, 43.73361169814662, 23.35224507065446, 38.52944033869052, 17.835607952912774, 4.551492152511389e-07
15.03023386001587, 1.5552809310711433, 1.3723771780826972, 0.9587317342435102, 0.5289999257317797, 1.4217474664742096, -12.373104288199235, -0.002043920998856308, -0.002826602991744087, -2.8588017286779177e-08, -0.0026608835303190137, -165.34616868589598, 21.187510080573112, 35.895639002632294, 16.705943665013585, 3.952376506433694e-07
15.077229976654053, 1.505574828930826, 1.3723672527560604, 0.958710876633432, 0.5289999256245747, 1.4217278305095782, -11.929464513676187, -0.0023820783928256706, -0.00500582641876135, -2.572921609100831e-08, -0.004712631511511911, 55.36428664668289, 28.7335210881932, 45.34946407917067, 20.78395034255386, -7.337459828217439e-07
15.120831727981567, 1.4476115881336906, 1.372359067936479, 0.9586955010307328, 0.52899992552809, 1.4217133562157285, -13.911177791312479, -0.0019643566995337647, -0.003690144647818361, -2.3156295603232735e-08, -0.0034738305239114253, -257.2414483630412, 26.345181216057792, 42.19213781052112, 19.409458837302846, 4.7138102106980137e-07
15.168506860733032, 1.3855238359212736, 1.3723478079599223, 0.9586639962960491, 0.528999925441254, 1.42168369664242, -14.90106053098006, -0.0027023943736358413, -0.007561136324069517, -2.0840665193588848e-08, -0.007118297594010614, -129.9142626654518, 39.36120896554916, 58.46807712501528, 26.427935639868704, -1.3241887780810667e-06
15.211271047592163, 1.3197240711188192, 1.3723353558436788, 0.9586251278065934, 0.5289999253631015, 1.4216471051256725, -15.791943552589085, -0.0029885078984084323, -0.009328437469389605, -1.875659894068349e-08, -0.008781964019387245, -117.50940388654566, 47.34808426752838, 68.09622977879256, 30.552113667142557, -6.021030419638329e-07
15.251433849334717, 1.2538904083611853, 1.372321974895811, 0.9585802883188765, 0.5289999252927642, 1.4216048934639445, -15.800079061832133, -0.003211427488276186, -0.01076147705202768, -1.6880939424090968e-08, -0.010130798814748876, -4.005210797188881, 54.75588568622803, 77.13709789148614, 34.43409784770632, -4.90214529416844e-07
15.299478530883789, 1.188026213602032, 1.3723098369578934, 0.9585395090592568, 0.5289999252294607, 1.421566505947376, -15.807406742196768, -0.0029131051002539987, -0.009787022308750615, -1.5192844315947696e-08, -0.009213003976395795, -3.921026375723201, 55.178405702461035, 77.49245924358453, 34.574780152653155, 3.3969325617888955e-07
15.342476606369019, 1.1287484383187942, 1.3722988918239907, 0.9585027194851418, 0.5289999251724875, 1.4215318758338742, -14.226666067977092, -0.002626832136660706, -0.008829497787609775, -1.367356095016703e-08, -0.008311227240457963, 200.89734133860887, 55.23545642958053, 77.56579879866669, 34.60749268053859, 3.33470691936145e-07
15.384689569473267, 1.0720915033461678, 1.3722926784621223, 0.9584861133138295, 0.5289999251212116, 1.4215162474730199, -13.597664393430358, -0.001491206848405091, -0.003985481114941347, -1.2306204055789749e-08, -0.003750806605042567, 78.69143466505795, 43.02792478503419, 62.369832526996994, 28.060385587772863, 1.6783837151278683e-06
15.428540229797363, 1.0211002618708038, 1.3722885543651642, 0.9584778281257863, 0.5289999250750633, 1.4215084524827442, -12.237897954087323, -0.0009897832699845566, -0.0019884451303540107, -1.1075583117303722e-08, -0.0018707976661659353, 173.19076307194348, 37.893193641032596, 56.284141822727435, 25.46250785715943, 6.969631552163722e-07
15.472973585128784, 0.9752081445429763, 1.372287586252587, 0.9584828163389468, 0.5289999250335299, 1.421513152623456, -11.014108158678587, -0.0002323470185495724, 0.001197171158523691, -9.968023739759246e-09, 0.0011280337708073906, 156.0597983997723, 28.610772366523967, 44.84907047479864, 20.544660820878917, 1.1089898519197884e-06
15.517147779464722, 0.9272913883543648, 1.3722889909423643, 0.9584976284124194, 0.5289999249961498, 1.4215271002356618, -11.500021485266783, 0.00033712554659237615, 0.0035548976334152105, -8.971221099329796e-09, 0.0033474269293908843, -64.11580160243372, 20.826846353440807, 35.38429944099128, 16.48392167255277, 8.241254099712529e-07
15.561285495758057, 0.8841663077846144, 1.37228949543735, 0.9585075121510307, 0.5289999249625077, 1.4215364077114383, -10.350019336740107, 0.00012107879654255083, 0.0023720972667204965, -8.07409872294329e-09, 0.002233794186371707, 146.78177097669, 23.246723936894906, 38.58641700646738, 17.878571875100157, -3.9958348244295033e-07
15.603204488754272, 0.845353735271839, 1.3722918482815551, 0.9585250194936326, 0.5289999249322298, 1.4215528915215183, -9.315017403066099, 0.000564682609238143, 0.004201762224442129, -7.266688639706587e-09, 0.003956114419187806, 132.211753406071, 16.92778123829958, 30.65154395794449, 14.453890842767631, 6.407250661292866e-07
15.644184589385986, 0.8104224200103411, 1.3722955905713772, 0.9585481448532824, 0.5289999249049797, 1.421574663649197, -8.383515662759486, 0.0008981495573124332, 0.005550086315964098, -6.54001919286884e-09, 0.005225310642888642, 119.09766362417702, 11.3766447829326, 23.894203513653686, 11.554084359877892, 4.7455736663865904e-07
15.688647985458374, 0.7657565112460014, 1.372300276964146, 0.9585749368521066, 0.5289999248804547, 1.4215998871747457, -10.719818103441547, 0.0011247342644727931, 0.0064300797177997415, -5.8860169793728545e-09, 0.00605364613170542, -302.1558547041462, 6.868556336084771, 18.411869240485256, 9.201845144125704, 3.12507318627305e-07
15.73435378074646, 0.7123294206453881, 1.3723011201302113, 0.958583739636269, 0.5289999248583821, 1.4216081747758122, -12.822501744147196, 0.0002023598557112649, 0.002112668198959833, -5.297415839322639e-09, 0.0019890242559456595, -272.4958650615478, 18.11364943901081, 32.52195550703006, 15.290342524321032, -1.4844521217695135e-06
15.778889179229736, 0.6543242512935568, 1.372297969693095, 0.9585739265472492, 0.5289999248385168, 1.4215989365493826, -13.921240644439509, -0.0007561049079330973, -0.0023551413647673325, -4.767674255390375e-09, -0.0022171743431254054, -143.59576529448154, 31.417496476684494, 48.80614492526856, 22.28500748531224, -1.539609111495425e-06
15.822804689407349, 0.5955057005996259, 1.3722927480011529, 0.9585542702902439, 0.528999924820638, 1.4215804319121446, -14.116452166543407, -0.0012532060661455402, -0.004717501681260616, -4.290906296944286e-09, -0.004441112937135561, -27.440256935463587, 39.639061150646555, 58.72008062063881, 26.531646858660082, -8.154641139391171e-07
15.864989757537842, 0.5359551305396634, 1.3722875466978859, 0.9585343059462732, 0.528999924804547, 1.4215616378439038, -14.292136814391023, -0.0012483127840825503, -0.004791442552948055, -3.861814978911582e-09, -0.004510576377779296, -25.007850640733075, 41.45046031413498, 60.78059693635185, 27.40451087494406, -2.635875993976641e-08
15.911173820495605, 0.47574574305027223, 1.372282466048, 0.9585145286066408, 0.5289999247900652, 1.4215430204242314, -14.450252997453875, -0.0012193559726050296, -0.004746561511790315, -3.4756331146468256e-09, -0.0044681807213848845, -22.79784076339067, 42.81075068900702, 62.43726392684801, 28.115823367129416, 1.4295097566205438e-08
15.952785730361938, 0.41494341987439537, 1.372277531656044, 0.9584950905633932, 0.5289999247770316, 1.421524722990965, -14.592557562210443, -0.001184254069419799, -0.004665130379409632, -3.1280684709145135e-09, -0.004391383983892161, -20.808069354201702, 44.038736946302905, 63.93769118814228, 28.7604919694859, 2.663389806002311e-08
16.004241704940796, 0.35360745458068144, 1.3722727616800934, 0.9584761066730192, 0.5289999247653013, 1.4215068536322732, -14.720631670491347, -0.0011447942281832546, -0.0045561336897543825, -2.8152625786148633e-09, -0.004288646086051728, -19.01717494264402, 45.15458964410979, 65.30154906705859, 29.3465583601258, 3.593302922541178e-08
16.05074167251587, 0.2917912113809141, 1.3722681697699866, 0.95845766805667, 0.5289999247547441, 1.4214894980865374, -14.835898367944168, -0.0011020584256337118, -0.004425267923801712, -2.5337358877663974e-09, -0.0041653309765965485, -17.405243791369866, 46.16769420333427, 66.5400899267313, 29.878832802481718, 4.331891383591434e-08
16.10277509689331, 0.23284965528341106, 1.3722637657287826, 0.9584398454338859, 0.5289999247452426, 1.4214727228824375, -14.145973463400725, -0.0010569698889266732, -0.004277429468181992, -2.280362454420981e-09, -0.004026048983951758, 86.41685252850421, 47.086592927486876, 67.66370517957667, 30.361770048187743, 4.9060358035434424e-08
16.147889852523804, 0.17980225479565834, 1.3722613254307696, 0.9584307165052383, 0.5289999247366912, 1.4214641320129082, -12.731376117060654, -0.000585671523094633, -0.002190942875450297, -2.0523261978766527e-09, -0.0020618086870191066, 180.11277350983866, 41.990510370494995, 61.29794033755732, 27.61723016161026, 7.197434596974167e-07
16.191460371017456, 0.12213878270354367, 1.3722620966025771, 0.958435959621209, 0.528999924728995, 1.4214690704040893, -13.83923330210752, 0.00018508123378802033, 0.0012583478329752928, -1.8470931451020078e-09, 0.0011852138834376191, -144.8212052140924, 31.957195510953913, 48.93132585723151, 22.298040156157256, 1.1929589122041374e-06
16.241644859313965, 0.07024165782064047, 1.372260637309686, 0.9584309118820077, 0.5289999247220685, 1.4214643209849902, -12.455309971896767, -0.000350230293878262, -0.001211457408308192, -1.6623848964059107e-09, -0.0011398605837730225, 176.310541692037, 39.00440865713357, 57.95622380939443, 26.20692511314309, -8.517903810754442e-07
16.287572622299194, 0.01692037099060279, 1.3722620386085658, 0.958438681110868, 0.5289999247158346, 1.4214716368407143, -12.797108839209043, 0.0003363117311402375, 0.0018646149264807121, -1.4961471506147461e-09, 0.0017558053737899426, -45.92132276779919, 30.02980181221403, 46.59921440089943, 21.29838545990191, 1.064355538925138e-06
16.330289602279663, -0.031068787156431125, 1.372262732298862, 0.958443098940547, 0.5289999247102241, 1.4214757974036092, -11.517397955288141, 0.00016648567112476087, 0.0010602791229652464, -1.34653349581626e-09, 0.0009985350947756544, 163.17304628598072, 31.77846065027289, 49.003125977542524, 22.35211361625126, -2.755733470544502e-07
