sulimanbadour1/Project_S/control/InverseKinematics/robot_joint_data.csv
Time, Joint 1 Angle, Joint 2 Angle, Joint 3 Angle, Joint 4 Angle, Joint 5 Angle, Joint 1 Vel, Joint 2 Vel, Joint 3 Vel, Joint 4 Vel, Joint 5 Vel, Joint 1 Eff, Joint 2 Eff, Joint 3 Eff, Joint 4 Eff, Joint 5 Eff
0.0, -3.141918, 1.57096, 0.9590584932073033, 0.5289714409863684, 1.4220324037667882, 0.01968000000000103, -0.009599999999998943, 0.014038369752811752, -0.0068541632715906665, 0.007776904029176981, -49.53162668489986, -0.6579437827078777, -3.4905322837149684, -0.21769259339176164, 8.577776816638866e-07
0.07039260864257812, -3.1418524, 1.5709279999999999, 0.959079577646505, 0.5289625101550266, 1.4220451791442896, 0.01574400000000509, -0.0076799999999970225, 0.005060265408406345, -0.0021433995220196643, 0.003066090600354206, -20.208365700539982, -3.3579345337923283, -3.8690227404210504, -0.38712508552470754, -1.1291587648038746e-06
0.12876296043395996, -3.14179992, 1.5709023999999998, 0.9590936224517105, 0.5289567826549233, 1.4220538679892571, 0.012595199999999807, -0.006143999999995486, 0.003370753249325259, -0.001374600024802543, 0.0020853227922185556, -16.166989148440486, -3.1585045628519115, -3.4013268725034203, -0.21985306594476337, -5.852284630623535e-08
0.1867656707763672, -3.141757936, 1.57088192, 0.9591028327155305, 0.528953423911417, 1.4220598841103198, 0.010076160000004107, -0.004915199999992126, 0.002210463316818345, -0.0008060984415210767, 0.0014438690550429099, -12.933859775869735, -3.3993139043645044, -3.3950834527757596, -0.21632294930633722, -7.664364326940608e-10
0.24376296997070312, -3.1417243488, 1.570865536, 0.9591083943366302, 0.528951836183171, 1.4220638696630337, 0.008060927999999025, -0.003932159999997964, 0.0013347890639148485, -0.0003810547790466034, 0.0009565326513505629, -10.347284871872738, -3.6044929840245548, -3.40184511460695, -0.21804749707921495, 7.155994891913543e-09
0.2929971218109131, -3.14169747904, 1.5708524287999999, 0.9591112186924293, 0.5289515552403942, 1.422066314324501, 0.006448742400003482, -0.0031457279999962673, 0.0006778453917951066, -6.742626644161436e-05, 0.0005867187521185698, -8.277971402143574, -3.7693820322177327, -3.4079402556487395, -0.2196787648382681, 1.1674105368057537e-08
0.3411448001861572, -3.141675983232, 1.5708419430399998, 0.9591120161941767, 0.5289522207546095, 1.4220676010351019, 0.005158993919998522, -0.0025165823999948322, 0.00019140041937176777, 0.00015972341166838185, 0.0003088105442417886, -6.622481463545876, -3.901638533762408, -3.4131288682199297, -0.221091911551095, 1.4658423191977179e-08
0.39028048515319824, -3.1416587865856, 1.5708335544319998, 0.9591113388149711, 0.5289535543659377, 1.4220680286240528, 0.0041271951360073444, -0.0020132659199916247, -0.00016257100936031832, 0.000320066718769938, 0.00010262134823978207, -5.29806094520745, -4.007743938941988, -3.4175520336290695, -0.22231625766070337, 1.651008390397148e-08
0.43740248680114746, -3.1416450292684797, 1.5708268435455999, 0.9591096134319468, 0.5289553422973395, 1.4220678293984417, 0.0033017561087973495, -0.0016106127359911682, -0.00041409192583580223, 0.00042910353642374317, -4.781414665197843e-05, -4.238503726245438, -4.092897844811749, -3.4213355855337952, -0.22338016587944762, 1.7510414175514014e-08
0.48578524589538574, -3.1416340234147837, 1.57082147483648, 0.9591071683202299, 0.5289574215465944, 1.422067183126146, 0.0026414048870293527, -0.0012884901887950662, -0.0005868268120529097, 0.000499019821172108, -0.00015510535097977264, -3.390842821782688, -4.1612634102891635, -3.424583078228576, -0.22430733034089964, 1.7878052586894306e-08
0.5376710891723633, -3.1416252187318268, 1.570817179869184, 0.9591042541997282, 0.5289596689290765, 1.4220662281539835, 0.002113123909623483, -0.0010307921510381846, -0.0006993889204134074, 0.0005393717957041916, -0.00022919331899538267, -2.7127031094551564, -4.21617395334976, -3.42737972644761, -0.2251175211151576, 1.7783027660209954e-08
0.6136455535888672, -3.1416181749854615, 1.5708137438953471, 0.9591010609395081, 0.5289619923922164, 1.4220650702411135, 0.0016904991276902592, -0.000824633720828416, -0.0007663824528426066, 0.0005576311535630987, -0.0002778990888079047, -2.1701833667774535, -4.2602986011523, -3.429795856862486, -0.22582729525571127, 1.735699459171452e-08
0.6661679744720459, -3.141612539988369, 1.5708109951162776, 0.9590977308016133, 0.5289643241392917, 1.4220637895707, 0.0013523993021564706, -0.0006597069766627051, -0.0007992330947585724, 0.000559619298066415, -0.0003073608992174346, -1.7361617935042946, -4.295774863474152, -3.4318896883282037, -0.2264505721318405, 1.6701347428071248e-08
0.71669602394104, -3.141608031990695, 1.5708087960930222, 0.9590943689284488, 0.5289666151934612, 1.422062446309665, 0.00108191944171665, -0.0005277655813280546, -0.0008068495594769076, 0.0005498530006724199, -0.00032238264843766426, -1.3889403492849632, -4.324314725802042, -3.433709569208936, -0.22699909793483147, 1.5893664941037023e-08
0.7686915397644043, -3.141604425592556, 1.5708070368744178, 0.9590910516358191, 0.5289688311074935, 1.4220610850118591, 0.00086553555337332, -0.0004222124650645753, -0.0007961502311262247, 0.00053181936773928, -0.0003267114734034539, -1.1111601646801803, -4.347289551274692, -3.435295781316008, -0.22748282194734507, 1.499282831093317e-08
0.821458101272583, -3.1416015404740447, 1.5708056294995343, 0.9590878329602064, 0.5289709485842009, 1.4220597381004354, 0.0006924284426901294, -0.00033776997205589576, -0.0007724821470487808, 0.0005081944097796756, -0.0003232587417046275, -0.8889338260369444, -4.365798025056721, -3.43668199730818, -0.22791020235252832, 1.4043079997459185e-08
0.8697569370269775, -3.1415992323792357, 1.5708045035996274, 0.9590847498181818, 0.5289729528201716, 1.4220584286176048, 0.0005539427541521036, -0.0002702159776468427, -0.0007399540859026055, 0.0004810166329668144, -0.00031427587935875176, -0.7111511713798553, -4.380720529240252, -3.437896460457961, -0.22828845557988842, 1.307723895203784e-08
0.9292330741882324, -3.1415973859033883, 1.5708036028797019, 0.9590818260633862, 0.5289748354233998, 1.4220571723919253, 0.0004431542033174197, -0.0002161727821174686, -0.0007017011509354021, 0.00045182477477062827, -0.0003014941630561336, -0.5689239033871354, -4.3927626595749745, -3.4389629415729788, -0.2286237602549623, 1.2119244033248618e-08
0.9850640296936035, -3.1415959087227106, 1.5708028823037614, 0.9590790756686415, 0.5289765927857691, 1.4220559797428807, 0.0003545233626454092, -0.00017293822569186545, -0.0006600947387285783, 0.0004217669686427897, -0.00028623577069788087, -0.455141262618055, -4.402490053604377, -3.439901516739276, -0.22892142453874884, 1.1186162816173114e-08
1.035210371017456, -3.1415947269781683, 1.5708023058430092, 0.9590765052145305, 0.5289782248155788, 1.4220548568182272, 0.0002836186901120641, -0.00013835058054920135, -0.0006169089866345234, 0.0003916871542984891, -0.00026950191683886596, -0.3641145534466075, -4.410356266247529, -3.440729200767773, -0.22918602386158615, 1.0289775280280232e-08
1.0842924118041992, -3.1415937815825346, 1.5708018446744074, 0.959074115828879, 0.5289797339546481, 1.4220538066401998, 0.00022689495208538807, -0.00011068046444154267, -0.0005734525563450554, 0.0003621933766498989, -0.00025204272660452303, -0.2912927555967962, -4.416725081915412, -3.441460464239185, -0.22942151464698032, 9.437819744401646e-09
1.135103702545166, -3.141593025266028, 1.5708014757395259, 0.9590719046921113, 0.5289811244199758, 1.422052829921183, 0.00018151596166404715, -8.854437155744743e-05, -0.0005306728242355507, 0.0003337116786288289, -0.0002344125640313323, -0.23303500672756047, -4.4218883746453574, -3.4421076565041284, -0.22963132851376872, 8.634970684139541e-09
1.1871352195739746, -3.141592420212822, 1.5708011805916207, 0.9590698661999403, 0.5289824016222413, 1.4220519256970947, 0.00014521276933976426, -7.083549724384852e-05, -0.000489238121065827, 0.0003065285437250286, -0.00021701378118143617, -0.18642858363538994, -4.4260804055769345, -3.4426813525812094, -0.22981845056502712, 7.883603951733028e-09
1.2372102737426758, -3.141591936170258, 1.5708009444732964, 0.9590679928560955, 0.5289835717232644, 1.4220510918168636, 0.00011617021546328488, -5.666839779294719e-05, -0.0004496025227567757, 0.0002808242455404848, -0.00020013125546623984, -0.14914328361389814, -4.4294892693566865, -3.44319063835931, -0.2299854846669901, 7.184393631230116e-09
1.291651964187622, -3.1415915489362063, 1.5708007555786372, 0.9590662759528354, 0.5289846413023619, 1.422050325318514, 9.293617237915441e-05, -4.5334718230094495e-05, -0.0004120567824047183, 0.0002566989834127681, -0.00018395960392973994, -0.11931492716439569, -4.432266058853329, -3.4436433456984106, -0.2301347080646971, 6.536775740793031e-09
1.3453991413116455, -3.141591239148965, 1.5708006044629097, 0.9590647060850622, 0.528985617107784, 1.4220496227160937, 7.434893790758679e-05, -3.6267774586207224e-05, -0.00037676826557139775, 0.00023419330131594566, -0.00016862458083724747, -0.09545215806538879, -4.434532203762286, -3.4440462467801076, -0.23026811723632887, 5.9393067869558494e-09
1.3990542888641357, -3.141590991319172, 1.5708004835703278, 0.959063273534356, 0.5289865058743772, 1.4220489802166791, 5.947915033033269e-05, -2.901421966683415e-05, -0.0003438121694677998, 0.00021330398237629153, -0.00015419985950702246, -0.07636188229543851, -4.436385347647069, -3.444405215226512, -0.23038746652150638, 5.389939458736042e-09
1.4529309272766113, -3.1415907930553377, 1.570800386856262, 0.9590619685516798, 0.5289873141925769, 1.4220483938826987, 4.75833202600029e-05, -2.321137573346732e-05, -0.0003131958423035208, 0.00019399636793638458, -0.00014072015529517182, -0.06108961808242808, -4.437904055115175, -3.4447253600905725, -0.2304943007811387, 4.8862331408762795e-09
1.5091187953948975, -3.1415906344442703, 1.5708003094850096, 0.9590607815614772, 0.5289880484169768, 1.422047859751649, 3.8066656216528834e-05, -1.85691005825106e-05, -0.0002848776486302218, 0.00017621385596486836, -0.00012819145191207454, -0.048871775322689694, -4.4391515825601555, -3.445011137621253, -0.23058998310303472, 4.425513310062195e-09
1.561605453491211, -3.1415905075554162, 1.5708002475880076, 0.9590597033050999, 0.528988714605221, 1.4220473739227417, 3.0453324981749574e-05, -1.485528046177298e-05, -0.0002587815305591379, 0.00015988517860938593, -0.00011659893777694595, -0.039097478493659445, -4.440178899251851, -3.4452664448050396, -0.2306757183904755, 4.004990920697886e-09
1.6170735359191895, -3.1382835314229824, 1.570800198070406, 0.9590587249376874, 0.5289893184799511, 1.4220469326180127, 0.7936742717840914, -1.1884224367264551e-05, -0.00023480817900939366, 0.00014492993522553072, -0.00010591313495146722, 79.916641425203, -4.4410271082664075, -3.4454946979079657, -0.23075257351272685, 3.6218506247286997e-09
1.6732831001281738, -3.1220795040329423, 1.570800158456325, 0.9590575692537884, 0.5289898926606929, 1.4220463007054995, 3.8889665736095864, -9.507379491680013e-06, -0.0002773641357562695, 0.000137803378009632, -0.00015165900318520086, 311.7010840174197, -4.236129169831802, -3.252959020864132, -0.15668515625712123, -1.489817936823703e-08
1.7272870540618896, -3.104188942164194, 1.57080012676506, 0.9590503300713775, 0.5289910400802167, 1.4220403951994975, 4.293734848499601, -7.605903597607266e-06, -0.0017374037786156427, 0.0002753806857257804, -0.0014173214404771678, 40.925262538900206, 0.5003404972402131, 1.1876210511609895, 1.5513901184356502, -4.138349339774021e-07
1.7831487655639648, -3.0715527503937583, 1.570800101412048, 0.9590422081213106, 0.5289922374286119, 1.4220336980245736, 7.832686024904522, -6.084722880245197e-06, -0.001949268016056882, 0.00028736361484088535, -0.001607321981726438, 356.56170510463, 1.7252032458395692, 2.3364871223265027, 1.9938071242382092, -6.254524708647212e-08
1.836165428161621, -3.0190316172763794, 1.5708000811296385, 0.959016531778778, 0.5289951783991547, 1.4220118548321286, 12.605071948170902, -4.867778308492721e-06, -0.006162322207812432, 0.0007058329302518929, -0.005242366186787598, 481.12078704938307, 15.767918733447202, 15.501135594966513, 7.057702703750596, -1.1893174031261894e-06
1.8884382247924805, -2.968455660253026, 1.5708000649037108, 0.9589512272772912, 0.5290021042969019, 1.4219558598809579, 12.138229685604784, -3.894222650902002e-06, -0.015673080356828795, 0.0016622154593207705, -0.01343878828097067, -45.694260716852675, 48.02978360132341, 45.74609985984081, 18.69310502010813, -2.683855197894757e-06
1.9456536769866943, -2.922937298932008, 1.5708000519229686, 0.9588960871590725, 0.5290079707505436, 1.421908597124747, 10.924406717044308, -3.115378120810419e-06, -0.013233628372504747, 0.001407948874011189, -0.011343061490626305, -120.94478301139522, 45.23790745186481, 43.13111309817059, 17.691244590123027, 6.754521159364228e-07
2.0008323192596436, -2.8786638365253796, 1.570800041538375, 0.9588585310914696, 0.5290120279390967, 1.4218764566857462, 10.625630977590852, -2.492302492385079e-06, -0.009013456224703953, 0.0009737252527512452, -0.007713705360140488, -29.02592899440547, 36.00252749984988, 34.4732876943935, 14.360976936583768, 1.17918013847886e-06
2.0540785789489746, -2.838817720359414, 1.5708000332307, 0.9588278569299785, 0.5290153632651536, 1.421850223860757, 9.563067879831769, -1.9938419981713196e-06, -0.007361798757840932, 0.0008004782536533139, -0.006295877997392729, -106.03735733940603, 33.60823189763841, 32.22817905614231, 13.496628468675805, 4.585931987748514e-07
2.1074090003967285, -2.7831145925037704, 1.5708000265845599, 0.958809512946101, 0.5290174264144174, 1.421834591171914, 13.368750685354454, -1.5950735985370557e-06, -0.004402556130605473, 0.0004951558233136644, -0.003751845322384151, 384.15703684656165, 26.525289045712203, 25.588209130745867, 10.94223634126318, 8.281140589887597e-07
2.160511016845703, -2.706526279691992, 1.5708000212676478, 0.9587560135267776, 0.5290230349795476, 1.4217886733208187, 18.38119507482682, -1.2760588745663881e-06, -0.01283986063758169, 0.001346055631253451, -0.011020284262869773, 506.3657124473542, 54.79071569624933, 52.08491106438458, 21.13484526303333, -2.379659319287012e-06
2.2454700469970703, -2.6276759984291833, 1.5708000170141183, 0.9586387329947996, 0.5290350950003784, 1.421687828921781, 18.924067503074117, -1.0208470975214823e-06, -0.028147327674728384, 0.0028944049993939736, -0.024202655769044124, 57.394114808811665, 107.59974957013897, 101.59195846435343, 40.184239139867536, -4.3222341005001e-06
2.330106496810913, -2.5500968708572307, 1.5708000136112947, 0.958522368835676, 0.5290470486874974, 1.4215877721269756, 18.61899061726866, -8.16677680148814e-07, -0.02792739818966483, 0.002868884908563185, -0.024013630753265125, -27.70887729691034, 115.81457247896708, 109.29590428474489, 43.15623304097806, 3.510537812489725e-08
2.4084312915802, -2.476968718824761, 1.5708000108890359, 0.9584221780769213, 0.5290573497456058, 1.4215016383914734, 17.55075648779278, -6.533421483823076e-07, -0.024045782101119517, 0.002472253946019576, -0.02067209652052293, -104.70871213033936, 112.30771894155002, 106.00848908393371, 41.89491468568191, 1.0665954948770874e-06
2.486706018447876, -2.3913117586892634, 1.5708000087112286, 0.9583486519926199, 0.5290649341253104, 1.4214384559097049, 20.55767043251936, -5.226737228580802e-07, -0.01764626023235749, 0.0018202511291012247, -0.015163795624463905, 305.6681155063931, 99.5674623990305, 94.06476202013017, 37.30107557579255, 1.7800533640371614e-06
2.563159465789795, -2.3009927456964663, 1.570800006968983, 0.9582339546900777, 0.5290766863094768, 1.4213398325426587, 21.676563118271332, -4.181389741120256e-07, -0.02752735261013317, 0.0028205241999414987, -0.023669608091073435, 116.16997964138295, 136.57367618929896, 128.75406818986573, 50.64965401905021, -2.7996598241719625e-06
2.6371400356292725, -2.1932501362612498, 1.5708000055751863, 0.9581089646731918, 0.5290894757240313, 1.4212323553082618, 25.858226264452014, -3.345111814212487e-07, -0.029997604052591775, 0.0030694594930886776, -0.025794536255281386, 425.44029140518745, 153.12356296786643, 144.27003390944873, 56.627446510616004, -7.246396666426874e-07
2.7111480236053467, -2.0764401525423515, 1.5708000044601491, 0.9579106339726383, 0.5291097053206043, 1.4210617716804446, 28.034396092535623, -2.6760894322741535e-07, -0.047599368132859254, 0.004855103177528797, -0.04094007067613026, 224.80254586821647, 218.51847094921763, 205.57236043098962, 80.22519162189003, -4.991615385700433e-06
2.7879080772399902, -1.9547765049486387, 1.5708000035681193, 0.9576790884359063, 0.5291333086784628, 1.4208626394881825, 29.19927542249105, -2.1408715911164222e-07, -0.05557092881568604, 0.005664805886024027, -0.04779172614288241, 124.02483505321027, 258.8058172602496, 243.34038979964762, 94.77705596133652, -2.306946715496956e-06
2.859617233276367, -1.8287445360257353, 1.5708000028544955, 0.9574402588862799, 0.5291576569088657, 1.4206572863751248, 30.247672541496826, -1.712697286215814e-07, -0.05731909191034301, 0.005843575296707204, -0.04928474713386599, 112.9543832858365, 281.79687397592426, 264.89220104398953, 103.08922534471931, -5.686575404014461e-07
2.93318510055542, -1.6987810779065602, 1.5708000022835964, 0.9571973818103372, 0.5291824233559049, 1.4204485028462717, 31.19122994860203, -1.370157853841647e-07, -0.058290498226265086, 0.005943947289398732, -0.05010804692475035, 102.91458128225543, 302.84043008966523, 284.6167859041935, 110.69876202287807, -3.550492021146429e-07
3.0114879608154297, -1.552051530639891, 1.570800001826877, 0.9569527581678825, 0.5292073758295414, 1.420238272485619, 35.21509134400061, -1.0961262830733176e-07, -0.05870967418911732, 0.00598859367275395, -0.050455286556604584, 414.412924596151, 322.4069288749416, 302.95621045794144, 117.77700941766552, -2.034296518687277e-07
3.1037001609802246, -1.3836186048631944, 1.5708000014615016, 0.9566166103587339, 0.5292416471964436, 1.4199494070677119, 40.42390218640718, -8.76901005142372e-08, -0.08067547419566701, 0.008225128056539965, -0.06932770029770063, 536.2505021227743, 410.28808687923896, 385.3311402408103, 149.5173582875041, -6.275906818321592e-06
3.1947782039642334, -1.2188012466351759, 1.5708000011692012, 0.9561403437293885, 0.5292902011931937, 1.4195402079353816, 39.55616597472448, -7.015207614813335e-08, -0.11430399104288647, 0.01165295922000631, -0.09820779175928651, -74.07398331619683, 541.7214691352976, 508.53055186555935, 197.0064030966974, -9.609535901939462e-06
3.2945945262908936, -1.0407032131124052, 1.5708000009353609, 0.9557351850015132, 0.5293315633441502, 1.4191923285141106, 42.74352804546493, -5.612165754342868e-08, -0.09723809469007705, 0.009926916229576754, -0.08349106110502635, 336.21184840399246, 523.1186874889245, 491.0905240831982, 190.35041030276412, 4.591824517413577e-06
3.385373830795288, -0.8704941474469167, 1.5708000007482887, 0.9552571408454734, 0.5293803911897539, 1.4187820075062312, 40.85017575971726, -4.4897323192572e-08, -0.11473059744954384, 0.011718682944882097, -0.09847704189103368, -176.0542608962914, 608.300786612376, 570.923656979069, 221.15599789463843, -5.109114313801011e-06
3.482795238494873, -0.7073851766948397, 1.570800000598631, 0.9548906264837158, 0.5294178992255683, 1.4184676913679095, 39.14615298049848, -3.591786068568581e-08, -0.08796344682182244, 0.009001928595439246, -0.0754358731971787, -157.77711676350282, 559.2307124666603, 524.9227530426128, 203.4890574736868, 7.3097864975708845e-06
3.572061061859131, -0.5308246680585588, 1.5708000004789047, 0.9546209478860133, 0.5294455587470734, 1.418236650409157, 42.374522072707414, -2.8734284285292233e-08, -0.06472286344862432, 0.0066382851612356575, -0.05544983010061966, 340.1004589078726, 513.1611631993358, 481.73101826989966, 186.87308785156952, 6.372784845453292e-06
3.6665451526641846, -0.3553855480392019, 1.5708000003831237, 0.9542654616009636, 0.5294819951643343, 1.4179320406938425, 42.10538880464564, -2.298742529660558e-08, -0.08531670841192884, 0.008744740142600627, -0.0731063316754752, -12.802364617902283, 597.804243511607, 561.0572129214777, 217.48600034901497, -5.914342239118929e-06
3.7751357555389404, -0.16772788122051122, 1.570800000306499, 0.9539509924573288, 0.5295142748998938, 1.4176627689713837, 45.03784003648577, -1.8389940237284463e-08, -0.07547259447235355, 0.007747136534283605, -0.06462521339009575, 312.16718545202366, 593.0213312209767, 556.5699378330324, 215.80422450487694, 2.60036846140677e-06
3.8663318157196045, 0.044154178904713764, 1.5708000002451992, 0.9535563255940512, 0.5295547765033413, 1.41732481329604, 50.851694430053996, -1.4711955209634198e-08, -0.09472004718661964, 0.009720384827394568, -0.08110936208246855, 606.2505658841221, 676.4856738805062, 634.7894815365847, 246.01472615752763, -5.563820322588951e-06
3.955670118331909, 0.26461044413496987, 1.5708000001961593, 0.9529539229898626, 0.5296165645524242, 1.416808889070498, 52.90950365526147, -1.1769561325536415e-08, -0.14457662500528556, 0.014829131779901417, -0.12382181413011395, 230.0982423125029, 861.5123387296926, 808.1972017482547, 312.98221143594935, -1.4223326929107446e-05
4.044964790344238, 0.49939741607889476, 1.5708000001569273, 0.9523086707916875, 0.5296828374892687, 1.4162566423828535, 56.34887326654197, -9.415647816979344e-09, -0.15486052756202184, 0.01590550484267439, -0.13253920503463856, 373.8436263197573, 937.2602774464222, 879.1771644655734, 340.4952277143082, -3.232518884534717e-06
4.139134168624878, 0.7272403530751312, 1.5708000001255418, 0.9515578436748621, 0.529760042303682, 1.4156144127261001, 54.682304879096755, -7.532515056141165e-09, -0.180198508038103, 0.018529155459207303, -0.1541351176208403, -141.70337515646628, 1062.7797136263, 996.7922166452789, 386.0336748328957, -7.504840245216227e-06
4.235807657241821, 0.9488337063021641, 1.5708000001004334, 0.9509543319829635, 0.5298222888492234, 1.4150989555911873, 53.182404774487885, -6.026006360571046e-09, -0.14484280605565303, 0.014939170929947565, -0.12370971237905959, -125.4807427763911, 1006.3329531677936, 943.8652144284914, 365.7558948793288, 9.481646304076392e-06
4.338327884674072, 1.1681093356719476, 1.5708000000803468, 0.9504818333786111, 0.5298711863945603, 1.4146960551942938, 52.62615104874806, -4.820805976635256e-09, -0.113399665044561, 0.011735410880854502, -0.09669609525445999, -31.87876726828069, 951.7550134096932, 892.6910815680155, 346.09905209858124, 8.474038968521688e-06
4.427323818206787, 1.365457402104753, 1.5708000000642774, 0.9500827390223724, 0.5299126040503607, 1.414356217187559, 47.363535943873266, -3.856647445843464e-09, -0.09578264549730875, 0.009940237392081386, -0.08156112161634876, -513.1375993376348, 930.8869227746089, 873.1150649360866, 338.61915865512225, 4.6694279394692126e-06
4.529845237731934, 1.5430706618942778, 1.570800000051422, 0.9499545486311753, 0.529926209167818, 1.4142482615335332, 42.627182349485935, -3.0853195553959267e-09, -0.03076569388730377, 0.003265228189755831, -0.02590935696616148, -464.28569425882307, 757.9258451502834, 711.0152115173302, 276.0240114954276, 1.8023092555165375e-05
4.623118877410889, 1.70292259570485, 1.5708000000411375, 0.9500338984875237, 0.5299184491863138, 1.414317717331402, 38.364464114537334, -2.4682549337740056e-09, 0.019043965523605877, -0.001862395560998209, 0.016669391488514762, -420.9893881947283, 612.8557345915341, 575.0592533141833, 223.47048042845248, 1.3899588971979183e-05
4.713636875152588, 1.846789336134365, 1.57080000003291, 0.9502637788815042, 0.5298951596061849, 1.4145157163582684, 34.528017703083606, -1.9746013713017874e-09, 0.05517129455528824, -0.0055894992309415414, 0.04751976644791078, -381.12125160116074, 495.1633613093825, 464.7657507372169, 180.8132758743011, 1.0155630139322686e-05
4.803360939025879, 1.9762694025209284, 1.570800000026328, 0.9505992491101932, 0.5298609573334516, 1.4148038039366206, 31.075215932775244, -1.5796857155692123e-09, 0.08051285488538618, -0.00820854545600369, 0.06914101880451762, -344.55658672377086, 399.8311062252735, 375.4288059956567, 146.25082478960059, 7.186998406818825e-06
4.897312164306641, 2.092801462268836, 1.5708000000210625, 0.9510053574588496, 0.5298194422770062, 1.4151521100507587, 27.967694339497722, -1.2637464408271626e-09, 0.09746600367754255, -0.00996361354690789, 0.08359346739315465, -311.16199586229925, 322.6340456221248, 303.0871746339974, 118.26019203279357, 4.8650696656239725e-06
4.97897481918335, 2.1976803160419522, 1.57080000001685, 0.9514551908135677, 0.5297733912302148, 1.4155376541200957, 25.17092490554794, -1.0109992842899373e-09, 0.10796000513234016, -0.01105225122991893, 0.09253057664089925, -280.76379697485936, 260.13535075062714, 244.51925818428367, 95.59936700132532, 3.0669648408521354e-06
5.053013801574707, 2.292071284437757, 1.57080000001348, 0.9519282580949452, 0.5297249207536526, 1.4159429487909325, 22.653832414993147, -8.088036906883644e-10, 0.1135361475305956, -0.011632914374938963, 0.09727072100084366, -253.16527533997012, 209.54520373927173, 197.1103770566119, 77.25833142112747, 1.6899107765232392e-06
5.125153541564941, 2.377023155993981, 1.570800000010784, 0.952409167402662, 0.5296756217380025, 1.4163548625746722, 20.38844917349384, -6.470453062235038e-10, 0.1154182338520453, -0.011831763756017466, 0.0988593080975092, -228.15992492461322, 168.60061709842657, 158.73984745654352, 62.41677511134948, 6.491292477276709e-07
5.190954208374023, 2.453479840394583, 1.5708000000086273, 0.9528865514345614, 0.5296266694478599, 1.4167636989339314, 18.349604256144445, -5.176339357149118e-10, 0.11457216765584688, -0.011748549634240435, 0.09812072622218015, -205.54055379342435, 135.4669116668261, 127.68848695646335, 50.40910127399224, -1.2475728866620086e-07
5.256353855133057, 2.5222908563551245, 1.5708000000069018, 0.953352199843497, 0.5295789127875753, 1.4171624543935428, 16.514643830530005, -4.1411118978373906e-10, 0.11175561814454182, -0.011461598468300416, 0.09570131030673901, -185.1053221718998, 108.65726143452044, 102.56312912683873, 40.69564616750945, -6.881512111420565e-07
5.3294837474823, 2.584220770719612, 1.5708000000055213, 0.953800362328703, 0.529532946224981, 1.4175462235476606, 14.863179447477009, -3.3128710885677037e-10, 0.10755899644946787, -0.011031975022625318, 0.09210459698827017, -166.6615633048552, 86.96712617535721, 82.23513510621247, 32.839101000182914, -1.086646737493874e-06
5.398532390594482, 2.6399576936476508, 1.570800000004417, 0.9542271914770433, 0.5294891674057208, 1.4179117238396042, 13.376861502729314, -2.6502533501115977e-10, 0.10243899560165426, -0.010506916622453066, 0.08772007006644439, -150.02802713350522, 69.42090036171503, 65.79037868368997, 26.485252935667766, -1.3569144773232375e-06
5.460636615753174, 2.6901209242828856, 1.5708000000035336, 0.9546302992700897, 0.5294478230647789, 1.4182569174983535, 12.039175352456379, -2.120223996371351e-10, 0.09674587033113258, -0.009922641826062506, 0.0828464780998549, -135.03602101141513, 55.22855527463326, 52.48860978305474, 21.347290213719408, -1.5283094294702376e-06
5.519713878631592, 2.735267831854597, 1.5675067043296023, 0.9551286485617564, 0.5294030332242738, 1.4186888828714057, 10.835257817210744, -0.7903909617435161, 0.11960383000000818, -0.010749561721197232, 0.10367168953256237, -121.52979442807082, -101.62840748109865, -42.53948963105688, -10.680563590934046, -0.00011954655216269148
5.581871271133423, 2.775900048669137, 1.5579529022169045, 0.955685579231883, 0.5293627223678193, 1.4191795290015772, 9.751732035489665, -2.292912507047448, 0.13366336083038166, -0.009674605549076176, 0.11775507124116574, -104.67717200263012, -236.41825871629732, -130.03663516321618, -40.22392360304287, -0.00023591120370385115
5.639970064163208, 2.8124690438022233, 1.5427383797639453, 0.9561770889017233, 0.5293264425970103, 1.4196120185248708, 8.776558831940704, -3.6514853887101766, 0.11796232076166913, -0.008707144994168081, 0.10379748559045629, -86.48339728622625, -221.70273968103592, -123.12492671956221, -38.199063253412746, -0.0002225620156387243
5.691527605056763, 2.8453811394220008, 1.525711769509755, 0.9564996674516897, 0.5292937908032822, 1.4198886965480042, 7.898902948746638, -4.086386461005686, 0.07741885199194265, -0.007836430494752078, 0.06640272555203255, -72.34074366429206, -68.3338910322672, -28.27495716573652, -6.657046055124048, -8.287095628677914e-05
5.743510961532593, 2.8750020254798008, 1.5070796835010554, 0.9567845987898278, 0.5292644041889268, 1.4201326464001018, 7.109012653871978, -4.471700642087905, 0.06838352115315427, -0.00705278744527682, 0.05854796450343874, -64.90871765949001, -61.10437844017474, -24.106047320090735, -5.12987886379375, -6.52630082151572e-05
5.798146724700928, 2.9016608229318206, 1.488645234225774, 0.9569864212143806, 0.529237956236007, 1.420300844582669, 6.398111388484779, -4.424267826067488, 0.04843738189268354, -0.0063475087007481, 0.04036756381612713, -58.821617029036666, 9.645492786439554, 19.14216767523734, 9.174784283205131, 5.185060830542649e-07
5.846263408660889, 2.9256537406386385, 1.4671177275802771, 0.9572760589572537, 0.5292141530783792, 1.4205537965827932, 5.758300249636302, -5.166601594919245, 0.06951305828952703, -0.005712757830671933, 0.060708480029790624, -54.96629572725424, -127.64746632954946, -67.07432438859414, -19.43759121930825, -0.0001130562179365643
5.892131328582764, 2.9472473665747745, 1.4460650888509579, 0.9574265129240074, 0.5291927302365141, 1.4206777838230937, 5.182470224672674, -5.052633295036604, 0.036108952020881824, -0.00514148204760366, 0.02975693767212695, -48.98994123929432, 13.921996445986698, 20.623845834003745, 9.61913030188875, 6.865874086800979e-06
5.935194730758667, 2.966681629917297, 1.4238225070589698, 0.9576149930220513, 0.5291734496788356, 1.420839299045429, 4.6642232022054095, -5.338219630077137, 0.045235223530548985, -0.004627333842843306, 0.03876365336047022, -46.140714196723486, -53.67616840728279, -21.782968246838884, -4.411312549448235, -4.380125483364977e-05
5.979403972625732, 2.984172466925567, 1.400497120852518, 0.9577840701719332, 0.5291560971769249, 1.420984143815477, 4.197800881984873, -5.5980926895484195, 0.040578515971664064, -0.004164600458558709, 0.034762744811539514, -42.495871375569436, -52.441234788853656, -21.47498803236873, -4.354911919199134, -4.401686127398346e-05
6.020754337310791, 2.9999142202330105, 1.376196817879821, 0.9579339042070788, 0.5291404799252053, 1.421112309379994, 3.7780207937863857, -5.832072713447328, 0.03596016843492977, -0.0037481404127017726, 0.030759735484048006, -39.24338801907594, -49.369967394707615, -19.64418010348314, -3.7049670768866325, -3.9919869898946e-05
6.066486597061157, 3.0140817982097095, 1.35266089642895, 0.9580137517378504, 0.5291264243986576, 1.4211758997336204, 3.400218714407746, -5.648621148209042, 0.019163407385186848, -0.0033733263714310624, 0.015261684870299136, -36.35486820236648, 21.295629961263014, 24.252899585761604, 10.867139685736056, 2.3030296112204416e-05
6.108278512954712, 3.0268326183887386, 1.3298255513312884, 0.958087607434934, 0.5291137744247648, 1.421235005370493, 3.06019684296697, -5.4804828234387415, 0.0177253673000749, -0.0030359937342874233, 0.014185352849411442, -34.36088591850906, 19.359533223356298, 22.529549627108576, 10.207814670444526, 2.5420333956988518e-05
6.150791645050049, 3.038308356549865, 1.3092628846199765, 0.9581048806384533, 0.5291023894482613, 1.4212418980603505, 2.75417715867027, -4.93504001071486, 0.004145568844625802, -0.0027323943608594786, 0.001654245565791329, -32.345538148075406, 83.47972316980052, 61.63143213823353, 22.983968482635877, 8.208744374783029e-05
6.196908235549927, 3.0486365208948785, 1.2907580702566426, 0.9581276090081432, 0.5290921429694081, 1.4212548603783628, 2.4787594428032373, -4.441155447200154, 0.005454808725555704, -0.002459154924774328, 0.0031109563229588244, -30.764530936847116, 75.55509119314719, 55.60947914608168, 20.735372686695914, 7.86333447535862e-05
6.23895525932312, 3.0579318688053907, 1.2708218193576364, 0.9582615514589627, 0.5290829211384402, 1.421373336037387, 2.230883498522914, -4.784700215761495, 0.03214618819668752, -0.0022132394322982307, 0.028434158165830933, -29.006038082322906, -68.91090288010984, -35.347198836389765, -9.645453269567525, -4.732464009030372e-05
6.281599760055542, 3.0662976819248517, 1.2528557979966988, 0.9582760588118592, 0.5290746214905692, 1.421380157323518, 2.007795148670621, -4.311845126625014, 0.0034817646951378345, -0.0019919154890697417, 0.00163710867146441, -26.44909696697463, 67.79155145419266, 49.29120095598267, 18.285219801233623, 6.603364498956676e-05
6.324319362640381, 3.0738269137323666, 1.236687207847253, 0.9582928717583409, 0.5290671518074851, 1.4213898315270364, 1.8070156338035555, -3.8804616358669604, 0.004035107155620998, -0.0017927239401638352, 0.0023218088443757653, -24.742505057939496, 63.44275937300578, 46.185547063800016, 17.17516341979727, 6.859023731707263e-05
6.367135047912598, 3.0806032223591298, 1.2221369624429028, 0.9583147367488016, 0.5290604290927094, 1.4214048755385982, 1.6263140704231984, -3.4920588970440782, 0.0052475977105875815, -0.0016134515461461163, 0.0036105627748641775, -23.032823494615457, 55.80329010140686, 40.582368162424416, 15.109314358130824, 6.202796315172012e-05
6.41025185585022, 3.0867019001232165, 1.209043087296489, 0.9583405139146185, 0.5290543786494114, 1.4214241550347324, 1.463682663380883, -3.1425300351393295, 0.006186519796041373, -0.0014521063915307053, 0.004627079072209557, -21.325463267313786, 48.820774587694785, 35.52159064929011, 13.25558069194106, 5.5813007258934524e-05
6.460941791534424, 3.092190710110895, 1.1972597971370853, 0.9583691402214758, 0.5290489332504431, 1.421446614190457, 1.3173143970428, -2.827989638256917, 0.0068703136457546055, -0.0013068957523776348, 0.005390197373873258, -19.657025458414026, 42.55062257532884, 31.030913988622014, 11.622106838408293, 5.020871579444319e-05
6.505827188491821, 3.0971306390998055, 1.1866559018681295, 0.9583997345012335, 0.5290440323913717, 1.4214713739061335, 1.185582957338518, -2.5449348645494116, 0.007342627141844138, -0.001176206177138539, 0.005942331762375328, -18.053194333672963, 36.92202671384524, 27.043956979089323, 10.181443992661844, 4.5164851820168346e-05
6.555260181427002, 3.1015765751898248, 1.1771133457410474, 0.9584315732732926, 0.5290396216182074, 1.4214977084815403, 1.0670246616046661, -2.2902134704996984, 0.007641305294200457, -0.0010585855594236263, 0.006320298097655462, -16.53043561899698, 31.86789387463402, 23.50010341240482, 8.908861476454993, 4.062607729062309e-05
6.602216958999634, 3.1055779176708422, 1.16852589200501, 0.9584640662550751, 0.5290356519223596, 1.4215250220590026, 0.9603221954442027, -2.060988896648993, 0.007798315627777441, -0.0009527270034812504, 0.0065552585909539485, -15.098374525045482, 27.328374509284927, 20.34664516697616, 7.783072006083676, 3.654213114776669e-05
6.649513483047485, 3.109179125903758, 1.1607979393298011, 0.9584967354155407, 0.5290320791960965, 1.4215528284555, 0.8642899758997835, -1.8547086420501266, 0.007840598511742125, -0.0008574543031336646, 0.00667353515936488, -13.761652846701882, 23.250129129208993, 17.53773575886427, 6.785746962250856, 3.286768285422634e-05
6.697162866592407, 3.112420213313382, 1.1538434568153977, 0.95852919717157, 0.5290288637424597, 1.4215807340005628, 0.7778609783098105, -1.6690758034568205, 0.007790821447043447, -0.000771708872820305, 0.006697330815078992, -12.52134249208663, 19.585563155774516, 15.033407801848757, 5.901070484044133, 2.956187132968905e-05
6.744735479354858, 3.115337191982044, 1.1475850256965323, 0.958561147259742, 0.5290259698341867, 1.4216084229344013, 0.7000748804788338, -1.502023468527706, 0.007668021161269675, -0.0006945379855371955, 0.006645344121204037, -11.376012123149971, 16.292159770351503, 12.7987399247944, 5.115363216854457, 2.6587874208010084e-05
6.793813228607178, 3.1179624727838395, 1.1419529770438506, 0.9585923478826541, 0.5290233653167409, 1.421635644984205, 0.6300673924309449, -1.3516916766436395, 0.007488149498917879, -0.0006250841869848145, 0.006533291952877029, -10.322525763398497, 13.33190019539021, 10.803152456845618, 4.416765915633597, 2.3912516256388954e-05
6.843430519104004, 3.1203252255054554, 1.1368846158375594, 0.9586226167898783, 0.5290210212510397, 1.4216622047945628, 0.5670606531878484, -1.216406689509871, 0.0072645377337843126, -0.0005625757682850008, 0.006374354485886252, -9.356635864063195, 10.670758336615622, 9.01981108902231, 3.794973267341902, 2.1505914194232368e-05
6.8914289474487305, 3.1224517029549097, 1.1323235227556854, 0.9586518180054191, 0.5290189115919086, 1.4216879529372164, 0.5103545878690668, -1.094662339649789, 0.007008291729791533, -0.0005063181914559678, 0.006179554236838025, -8.473419730326615, 8.278258717978611, 7.425120911176987, 3.241009724532314, 1.9341154881406765e-05
6.931427001953125, 3.124365532659419, 1.128218925888067, 0.9586798539573126, 0.5290170128986906, 1.421712778267002, 0.4593191290821643, -0.9851032482284173, 0.0067286284544392505, -0.00045568637231063747, 0.005958079148566074, -7.667597225439801, 6.1270884865100115, 5.9982961020540335, 2.7470404427578803, 1.739400400179109e-05
6.969426870346069, 3.126087979393477, 1.1245251353688024, 0.9587066588019539, 0.5290153040747945, 1.4217366014259964, 0.4133872161739447, -0.886509724623495, 0.006433162713934362, -0.0004101177350790408, 0.0057175581586697225, -6.933758947547816, 4.1927558088762495, 4.720993007480456, 2.30621153955945, 1.5642642553498528e-05
7.013057708740234, 3.127638181454129, 1.1212010346228627, 0.9587321927669411, 0.5290137661332879, 1.4217593693275583, 0.37204849455654804, -0.7977841790255474, 0.006128151596912393, -0.00036910596157114367, 0.005464296374871884, -6.266527233411614, 2.4532882550783937, 3.576996410998216, 1.9125148516168406, 1.4067428648375286e-05
7.047548770904541, 3.129033363308716, 1.118209622554909, 0.9587564373625643, 0.529012381985932, 1.421781050477035, 0.3348436451008964, -0.7179388963088918, 0.005818702949585225, -0.00033219536541295724, 0.005203475874396658, -5.660667028831205, 0.8889658080362317, 2.551950529376651, 1.5606731758310701, 1.2650682313163603e-05
7.0848915576934814, 3.1302890269778447, 1.1155176015771355, 0.9587793913343419, 0.5290111362533118, 1.421801631007096, 0.30135928059080896, -0.6460850346656394, 0.0055089532266005825, -0.0002989758288727204, 0.004939327214654883, -5.11115956576524, -0.517916009921408, 1.6331277005638278, 1.2460426581670407, 1.1376491168693654e-05
7.120204448699951, 3.13141912428006, 1.113095091469013, 0.9588001841987199, 0.5290097071692668, 1.4218216255606033, 0.2712233525317238, -0.5814024259493974, 0.004990287450723455, -0.0003429801708040442, 0.004798692841735577, -4.613248640288328, -1.8056261579701636, 0.7900150402813052, 0.9564486348225086, 1.0207796387028891e-05
7.158326864242554, 3.1324362118520543, 1.1109148323717029, 0.9588214352327579, 0.5290090193627393, 1.421839323270588, 0.2441010172785525, -0.523262183354456, 0.005100248169094032, -0.00016507356659539035, 0.0042474503962849335, -4.162432244944037, -2.8796514709410665, 0.10653176463794854, 0.7279412879988777, 9.23539191279982e-06
7.194001197814941, 3.133351590666849, 1.1089529005232324, 0.9588406582737462, 0.5290081098924382, 1.4218566834995574, 0.21969091555069298, -0.47086364363289646, 0.004613529837209973, -0.00021827287224596148, 0.004166454952662652, -3.7546800391141235, -3.963348699178968, -0.6092487953228438, 0.4797429597608941, 8.26290994439704e-06
7.229999542236328, 3.134175431600164, 1.1071873199841216, 0.9588586767572841, 0.5290072913691672, 1.4218729835236306, 0.19772182399562152, -0.4237393293865692, 0.0043244360490971995, -0.00019644558502029258, 0.003912005777534063, -3.3859271701595612, -4.866493103439911, -1.1885141191423334, 0.28436899148192507, 7.437777646102713e-06
7.266000986099243, 3.1349168884401477, 1.1055984429456411, 0.9588755536464645, 0.5290065546982234, 1.4218882752424806, 0.1779496415960615, -0.38133048923528257, 0.004050453403307702, -0.00017680102651773666, 0.0036700125240060246, -3.052734954177878, -5.694020514671441, -1.7221794301092062, 0.10330565828764753, 6.6898132375798215e-06
7.30500054359436, 3.135584199596133, 1.1041685843598226, 0.9588913364269569, 0.529005891694374, 1.4219025967182457, 0.16015467743645218, -0.3431660605964344, 0.003787867318189697, -0.00015912092386650284, 0.003437154183625876, -2.751791467230083, -6.4390015550113215, -2.201800517988388, -0.05921926798306533, 6.015772196218581e-06
7.342000246047974, 3.13618477963652, 1.1028818290832987, 0.9589060741789699, 0.5290052949909094, 1.421915988176701, 0.14413920969280267, -0.3088212663657358, 0.003537060483119338, -0.0001432088314787805, 0.003213950029233992, -2.480086561505196, -7.1091626188195365, -2.6325368449745428, -0.20499903803109668, 5.409571713549022e-06
7.396002769470215, 3.136725301672868, 1.101723854850827, 0.9589198172562629, 0.5290047579577913, 1.4219284916392863, 0.12972528872352032, -0.2779138157931952, 0.0032983385503210783, -0.00012888794833010309, 0.003000831020494199, -2.234867647807281, -7.712010064182156, -3.0194240380195043, -0.33579094819311756, 4.864431477733406e-06
7.436519384384155, 3.1206770734159814, 1.10068177284832, 0.9589326165288119, 0.529004274627985, 1.4219401501507858, -3.851574781652733, -0.2500996806016653, 0.003071825411777751, -0.00011599915349602696, 0.0027980427598966063, -622.2595061737646, -8.254312541130576, -3.3669796498383064, -0.4531659934245311, 4.374207056242796e-06
7.4713294506073, 3.0896990057380798, 1.0997428456130791, 0.9589406911154911, 0.5290041491856251, 1.421945986080094, -7.434736242696446, -0.22534253645782515, 0.00193790080299433, -3.0106166384671895e-05, 0.0014006230339922501, -560.8675942619756, -6.802949688770438, 0.5003780920417533, 1.5767697625319623, 3.53820807666466e-06
7.505322694778442, 3.0485909959571185, 1.098895511236429, 0.958936178843081, 0.5290037267330355, 1.4219415598866991, -9.86592234743071, -0.20336025039604794, -0.0010829453783997023, -0.00010138862150643659, -0.0010622864147870614, -381.7458531565548, -1.815877352238806, 11.723284869048731, 7.345712997323065, 2.578398738416545e-06
7.555142879486084, 3.001672999342974, 1.0981302409697284, 0.9589199989788527, 0.5290033465257049, 1.4219261650865826, -11.260319187394671, -0.1836648640081205, -0.003883167414794997, -9.124975935659307e-05, -0.003694752027945114, -220.40067246856037, 3.691227932740963, 23.651383186098172, 13.448758740022726, 2.224066050915777e-06
7.59543776512146, 2.9396051790839692, 1.0974396160003508, 0.9588968949666509, 0.5290030043391073, 1.4219042666266681, -14.89627686216106, -0.16574999265064938, -0.005544962928437869, -8.2124783421747e-05, -0.00525563037947635, -571.8610037643808, 7.58756879723827, 32.054601898561, 17.748123882669866, 2.2896482010725144e-06
7.653721809387207, 2.87382330535587, 1.0968120633182934, 0.9588489090968163, 0.5290026963711695, 1.4218589543050313, -15.787649694743779, -0.15061264369378358, -0.011516608760304692, -7.391230507899915e-05, -0.010874957192819612, -143.82457345391484, 19.861911959653497, 58.83245652602045, 31.464753634272693, 4.938545430544884e-07
7.7154717445373535, 2.8080057445651563, 1.0962453977555038, 0.9587972476314359, 0.5290024192000254, 1.4218101956032085, -15.796214589771354, -0.13599973506951035, -0.012398751691288457, -6.652107457139067e-05, -0.011702088437480773, -6.023413240013672, 24.0567863816397, 67.08789220196847, 35.63636953493045, 1.9882777349687118e-06
7.77856183052063, 2.7421560654180888, 1.0957353723604644, 0.9587506396539553, 0.5290021697459958, 1.421766208452528, -15.803922995296173, -0.12240609480946318, -0.011185914595326363, -5.98689671144903e-05, -0.010556916163343644, -5.8381441930672695, 24.06352134377648, 67.19909425374937, 35.70690429373592, 2.4815861203182114e-06
7.843706846237183, 2.672970518690733, 1.0952763831831627, 0.9587088517270494, 0.5290019452373691, 1.4217267715416801, -16.60453121456538, -0.11015740255241524, -0.010029102457421946, -5.38820704027998e-05, -0.009464858603477122, -130.04058887409153, 23.78216651840746, 67.0799501702301, 35.68686715893029, 2.2559446614788523e-06
7.904165744781494, 2.590861951013554, 1.094861708770343, 0.9586640595379785, 0.5290017431796051, 1.4216845169042254, -19.70605624252291, -0.09952185907671596, -0.010750125377033903, -4.8493863362253364e-05, -0.010141112989145329, -491.11940591604883, 26.81888631827337, 74.18799208215587, 39.36860283621286, 1.4180922816750678e-06
7.973483562469482, 2.5004295301736734, 1.0944814143094128, 0.9585915937901166, 0.5290015613276176, 1.4216162183552046, -21.703781001571386, -0.09127067062322558, -0.017391779486849224, -4.364447702709384e-05, -0.016391651764996018, -319.881082280677, 41.245674596012535, 105.84231949221949, 55.60852658843927, -8.08300241489302e-07
8.040817022323608, 2.4025056891710768, 1.0941337474228974, 0.9585018831217648, 0.5290013976608287, 1.4215316963326998, -23.50172184062324, -0.08344005276370048, -0.021530560404451116, -3.928002932512831e-05, -0.020285285401123954, -289.93817293455754, 52.76532047756343, 129.8181037192992, 67.8229543404641, -1.0732880940725388e-07
8.09524941444397, 2.2978395700220355, 1.0938155917262125, 0.9583973288104105, 0.5290012503607187, 1.4214332134790706, -25.119868595769905, -0.0763573672043818, -0.02509303472502733, -3.535202639154411e-05, -0.023635884871032076, -263.06021362932, 63.78625067867872, 153.15348066285608, 79.7439321238393, -5.410002033113536e-08
8.157597541809082, 2.190412266233333, 1.0935241603689185, 0.9582801744723104, 0.5290011177906196, 1.4213228841202266, -25.782552909288622, -0.06994352575052432, -0.028117041144038346, -3.18168237516403e-05, -0.02647904612256946, -114.41589115040294, 74.43139391847146, 175.730328604143, 91.2834871053493, 8.814462565197951e-10
8.213985443115234, 2.0672721950818014, 1.0932596042833806, 0.9581644962125218, 0.5290009984775306, 1.4212139601961515, -29.553617076367573, -0.06349346052911287, -0.027762782349285864, -2.8635141375410456e-05, -0.02614174177801898, -602.7817608297491, 79.3151900742368, 185.68184049075072, 96.34863833554242, 1.0541995182405457e-06
8.283283472061157, 1.9233767827101569, 1.0930083426707635, 0.9580007733035488, 0.5290008910957504, 1.421059831220187, -34.53489896919468, -0.0603027870281192, -0.0392934981534907, -2.5771627237491934e-05, -0.03699095423152032, -795.9969003866777, 105.93802114467762, 244.2722453665405, 126.4420107376859, -3.16549820654212e-06
8.357404947280884, 1.7674154376758355, 1.0927617075729295, 0.9577606162208201, 0.5290007944521483, 1.4208337921487146, -37.43072280823713, -0.05919242348015619, -0.057637699854907964, -2.3194464514264546e-05, -0.05424937715335343, -473.75623173334577, 148.37818514426274, 335.2079037517623, 172.98208888397605, -5.647804528681409e-06
8.430246114730835, 1.6138224544322388, 1.0925259140608377, 0.9574820433524208, 0.5290007074729064, 1.4205716496844716, -36.862315978463215, -0.056590442902010984, -0.06685748841582395, -2.0875018063470918e-05, -0.0629141914183391, 66.67129195549003, 177.88244081579865, 395.97842935072305, 203.9327735616673, -2.6201995684090314e-06
8.499256134033203, 1.4656679817017224, 1.0923158461047955, 0.9572412740654804, 0.5290006291915886, 1.420345136879922, -35.55707345532394, -0.05041630945009956, -0.05778462886568292, -1.878751625739028e-05, -0.05436307309189292, 182.92885039621476, 174.44945526881747, 385.6791623940067, 198.49081118112338, 3.6198456896947327e-06
8.566813468933105, 1.309180371878413, 1.0921327868422999, 0.9570519305695843, 0.5290005587384027, 1.4201670520265186, -37.55702635759427, -0.043934222998938566, -0.04544243901507805, -1.6908764631118345e-05, -0.0427403648168001, -334.7814909774891, 161.72697801134817, 358.6931916938339, 184.7325233907961, 4.713321822646522e-06
8.63815426826477, 1.155113774166585, 1.091959022504501, 0.9568409123450652, 0.5290004953305353, 1.4199686118774673, -36.97598345083875, -0.04170344107171697, -0.050644373884571436, -1.5217888168272964e-05, -0.047625635772304165, 68.98560268208362, 178.78106936728005, 398.5706512930464, 205.41547787756983, -1.3926165430514585e-06
8.705766677856445, 0.9933052757019527, 1.091805025931896, 0.9566619826633688, 0.5290004382634547, 1.4198003929551246, -38.834039631511715, -0.036959177425184286, -0.04294312360713981, -1.3696099350646307e-05, -0.0403725413622249, -313.96059736647015, 174.52184111230213, 387.42241693936177, 199.59253306864036, 3.0102543039271527e-06
8.77091360092163, 0.8278360276193673, 1.0916576155034132, 0.9564612651505451, 0.5290003869030822, 1.4196117139948519, -39.7126195398205, -0.03537850283587396, -0.048172203077692544, -1.232648941584813e-05, -0.04528295046545683, -161.88012605198983, 191.50819926089423, 426.26635308189105, 219.68754954382717, -1.4969671189058405e-06
8.834802627563477, 0.6590720571969081, 1.0915202569200657, 0.9562596185976986, 0.5290003406787468, 1.4194221993034322, -40.50335290139021, -0.03296606000339786, -0.048395172683150633, -1.1093840475595584e-05, -0.04548352594074068, -149.2341933624158, 201.35904252400235, 446.48510967169506, 230.0095596421741, 1.7853594960844826e-07
8.901663780212402, 0.48403592329270795, 1.091392433725118, 0.9560593608444231, 0.529000299076845, 1.4192340289772578, -42.00867213700803, -0.03067756678747635, -0.048061860786123844, -9.984456426970212e-06, -0.045160878281858885, -262.63761419263585, 209.78974299090345, 464.5966245066513, 239.32233459078037, 3.3089079040267557e-07
8.967867136001587, 0.29674099166137413, 1.0912693654264063, 0.9558430955020462, 0.5290002616351334, 1.419030847503928, -44.95078359152012, -0.029536391690793806, -0.05190368217046171, -8.98601078347383e-06, -0.0487635535991906, -490.64886848642436, 225.75013159712958, 499.60742201930634, 257.34995077179076, -1.1504847608319202e-06
9.036304712295532, 0.10502698074825789, 1.0911421089421296, 0.9555742724247923, 0.5290002279375929, 1.4187783045878932, -46.011362619147896, -0.030541556226413746, -0.0645175385409189, -8.087409704815585e-06, -0.06061029984834043, -198.46826692524476, 258.81254276586577, 571.8314959812259, 294.4928999387988, -4.233936196576735e-06
9.100306510925293, -0.10058500125067066, 1.0910208206472063, 0.9553021885340975, 0.5290001976098065, 1.418522764665051, -49.34687567974285, -0.029109190781596794, -0.06530013376673693, -7.278668734622684e-06, -0.06132958148215728, -558.5386226198747, 273.2786077403558, 600.6188858140353, 309.13575611202293, -2.0615646502286796e-07
9.158306360244751, -0.30878433365276425, 1.0908912061417215, 0.9549654843396872, 0.5290001703147987, 1.418206567127179, -49.967839776502466, -0.031107481316348995, -0.08080900665848034, -6.55080186118262e-06, -0.07588740908925296, -135.88070052251473, 313.71727470187244, 689.9093657688813, 355.1467224585442, -5.339385357404065e-06
9.213305711746216, -0.5292331049917726, 1.0907697932783678, 0.9546415073537915, 0.5290001457492918, 1.4179024327621113, -52.907705121361985, -0.029139087204924863, -0.07775447661496315, -5.89572167353225e-06, -0.07299224761627698, -502.70821179634004, 324.35265033536916, 709.3932858787196, 364.9691222925344, 1.0117356095804317e-06
9.264649391174316, -0.7706271830271412, 1.0906410376718163, 0.9542627350924754, 0.5290001236403354, 1.4175469210322627, -57.93457872848848, -0.030901345572337036, -0.09090534271586748, -5.306149506889568e-06, -0.08532281516365892, -836.2471989461849, 362.2771728565141, 793.9135575588137, 408.6172272977266, -4.617499161682e-06
9.315427541732788, -1.007723464724427, 1.090488906531645, 0.9537594723372401, 0.5290001037422748, 1.4170746173814677, -56.90310760734862, -0.03651147364109519, -0.12078306125645355, -4.775534554468663e-06, -0.11335287619080958, 109.9295721479351, 434.2357585136726, 951.1968900503603, 489.6033547592153, -1.0488313101314107e-05
9.362653017044067, -1.2211101182519843, 1.0903579349004258, 0.9533342585092138, 0.5290000858340203, 1.416675825910264, -51.212796846613735, -0.03143319149259938, -0.10205131872631057, -4.297981099465886e-06, -0.09570995308888186, 845.6626869272721, 424.75150374060524, 922.2688477999394, 474.2830401600466, 6.214634012304332e-06
9.422791481018066, -1.413158106426786, 1.0902791990420717, 0.9531280474167373, 0.5290000697165911, 1.4164827925409735, -46.091517161952375, -0.018896606004979333, -0.04949066219435849, -3.868182989918978e-06, -0.04632800862971109, 766.1769755179531, 346.6376442095551, 749.7191465056904, 385.48069602126697, 1.7997612587117287e-05
9.48224401473999, -1.5860012957841074, 1.0902413846213843, 0.9530910380243487, 0.5290000552109049, 1.416448609112381, -41.48236544575714, -0.009075460964986348, -0.008882254173254722, -3.481364689861266e-06, -0.00820402286224109, 694.602955847139, 277.8161994656865, 605.7066995668362, 311.87010705057384, 1.4024566374348801e-05
9.553448915481567, -1.7415601662056968, 1.0902342384962447, 0.9531783823715426, 0.5290000421557873, 1.4165311043550435, -37.33412890118143, -0.0017150700334997993, 0.020962643326551955, -3.1332282208751394e-06, 0.019798858239005845, 628.9665250209566, 222.06069120968667, 489.03677615363296, 252.20316225546372, 1.0403721210989227e-05
9.626792192459106, -1.881563149585127, 1.0902496195915667, 0.9533547632864566, 0.5290000304061815, 1.41669710293488, -33.60071601106328, 0.0036914628772999336, 0.04233141957935871, -2.8199053998534396e-06, 0.03983965916078969, 568.945186740705, 177.00941191965623, 394.61180615041224, 203.88500748820672, 7.530539521141431e-06
9.697136640548706, -2.0075658346266145, 1.0902811393537202, 0.9535926938343042, 0.5290000198315362, 1.4169208038830652, -30.240644409956957, 0.00756474291683773, 0.0571033314834235, -2.537914859601642e-06, 0.053688227564428814, 514.2156817991828, 140.58925196321607, 318.1785983408421, 164.75915972882208, 5.278268566044735e-06
9.774995803833008, -2.120968251163953, 1.0903238210000954, 0.9538709447767955, 0.5290000103143555, 1.41718229039856, -27.216579968961252, 0.010243595130028815, 0.06678022619790447, -2.284123373108571e-06, 0.06275676371874184, 464.4274199985095, 111.13360133476762, 256.3002871093701, 133.07752921895548, 3.5265252380371724e-06
9.859301090240479, -2.2230304260475577, 1.0903738182489837, 0.9541732645438864, 0.5290000017488928, 1.4174663209142222, -24.494921972065125, 0.01199933973320455, 0.07255674410181623, -2.0557110361751896e-06, 0.06816732375893864, 419.2194190763008, 87.30387869072779, 206.2008333552179, 107.42449180816546, 2.1760645719079953e-06
9.937143564224243, -2.314886383442802, 1.0904281858590357, 0.9544873459636541, 0.5289999940399764, 1.417761355628967, -22.04542977485862, 0.01304822641244563, 0.07537954074425368, -1.8501399319248435e-06, 0.07080833153874222, 378.2329743482039, 68.0226458878022, 165.63633236080688, 86.65364505496483, 1.1458952428620506e-06
10.010155200958252, -2.397556745098522, 1.0904846934868784, 0.954803994847007, 0.5289999871019517, 1.4180587746389628, -19.840886797372754, 0.013561830682265352, 0.0759957320046869, -1.6651259384659056e-06, 0.07138056239897095, 341.1201020749113, 52.421080438172794, 132.7918993830824, 69.83656950036807, 3.7021284288306665e-07
10.082155227661133, -2.4719600705886697, 1.0905416753736166, 0.9551164628462463, 0.5289999808577295, 1.4183522513789337, -17.85679811763547, 0.013675652817161321, 0.0749923198174427, -1.4986133454186756e-06, 0.07043441759302538, 307.54890599906633, 39.79759137797944, 106.19895185561946, 56.22135775857816, -2.0424657501389108e-07
10.16015625, -2.538923063529803, 1.0905979094442262, 0.955419913552076, 0.5289999752379294, 1.418637251660422, -16.071118305871924, 0.01349617694633043, 0.07282816939913506, -1.3487520114097151e-06, 0.06840006755717765, 277.2067485864427, 29.585021750708155, 84.66870878960285, 45.19904486770248, -6.204456717373915e-07
10.23815631866455, -2.5991897571768225, 1.0906525204114152, 0.9557109963537656, 0.5289999701801094, 1.4189106340728874, -14.46400647528473, 0.013106632125388984, 0.06985987240548885, -1.2138768097358366e-06, 0.0656117789916828, 249.80187442864317, 21.324523814877796, 67.2386301945224, 36.27643016094028, -9.129216561312282e-07
10.308671474456787, -2.65342978145914, 1.0907049023777797, 0.9559875072457568, 0.5289999656280713, 1.4191703320397218, -13.017605827756258, 0.012571671927479544, 0.06636261407788124, -1.0924891284957994e-06, 0.0623275120402198, 225.06395849997466, 14.644662295331166, 53.12921522148437, 29.054070789797628, -1.1093459851458396e-06
10.382673740386963, -2.702245803313226, 1.0907546572146232, 0.9562481196317003, 0.5289999615312371, 1.4194151015398095, -11.715845244980635, 0.011941160842426024, 0.06254697262645514, -9.832402145804053e-07, 0.05874468002109434, 202.74392267937228, 9.244642971577095, 41.70911506957546, 23.208460906277452, -1.2318135127852534e-06
