sulimanbadour1/Project_S/Modeling/InverseKinematics/robot_joint_data.csv
Time, Joint 1 Angle (Rad), Joint 2 Angle (Rad), Joint 3 Angle (Rad), Joint 4 Angle (Rad), Joint 5 Angle (Rad), Joint 1 Angle (Deg), Joint 2 Angle (Deg), Joint 3 Angle (Deg), Joint 4 Angle (Deg), Joint 5 Angle (Deg), Joint 1 Vel, Joint 2 Vel, Joint 3 Vel, Joint 4 Vel, Joint 5 Vel, Joint 1 Eff, Joint 2 Eff, Joint 3 Eff, Joint 4 Eff, Joint 5 Eff
0.0, -3.14, 1.57, 0.96, 0.53, 1.42, -179.91, 89.95, 54.95, 30.31, 81.47, 0.00, 0.00, 0.00, -0.00, -0.00, -0.00, -20.66, -5.69, 0.00, -0.00
0.04594016075134277, -3.14, 1.57, 0.96, 0.53, 1.42, -179.91, 89.95, 54.95, 30.31, 81.47, -0.00, 0.00, 0.00, -0.00, 0.00, -0.00, -20.76, -5.76, -0.00, 0.00
0.08398675918579102, -3.14, 1.57, 0.96, 0.53, 1.42, -179.91, 89.95, 54.95, 30.31, 81.47, -0.00, 0.00, 0.00, -0.00, 0.00, 0.00, -20.76, -5.76, -0.00, -0.00
0.12300252914428711, -3.14, 1.57, 0.96, 0.53, 1.42, -179.91, 89.95, 54.95, 30.31, 81.47, -0.00, 0.00, 0.00, -0.00, 0.00, 0.00, -20.76, -5.75, -0.00, -0.00
0.15700078010559082, -3.14, 1.57, 0.96, 0.53, 1.42, -179.91, 89.95, 54.95, 30.31, 81.47, -0.00, 0.00, 0.00, -0.00, 0.00, 0.00, -20.76, -5.75, -0.00, -0.00
0.19199919700622559, -3.14, 1.57, 0.96, 0.53, 1.42, -179.91, 89.95, 54.95, 30.31, 81.47, -0.00, 0.00, 0.00, -0.00, 0.00, 0.00, -20.76, -5.75, -0.00, -0.00
0.2310028076171875, -3.14, 1.57, 0.96, 0.53, 1.42, -179.91, 89.95, 54.95, 30.31, 81.47, -0.00, 0.00, 0.00, -0.00, 0.00, 0.00, -20.76, -5.75, -0.00, -0.00
0.26600170135498047, -3.14, 1.57, 0.96, 0.53, 1.42, -179.91, 89.95, 54.95, 30.31, 81.47, -0.00, 0.00, 0.00, -0.00, 0.00, 0.00, -20.75, -5.75, -0.00, -0.00
0.30100321769714355, -3.14, 1.57, 0.96, 0.53, 1.42, -179.91, 89.95, 54.95, 30.31, 81.47, -0.00, 0.00, 0.00, -0.00, 0.00, 0.00, -20.75, -5.75, -0.00, -0.00
0.3390028476715088, -3.14, 1.57, 0.96, 0.53, 1.42, -179.91, 89.95, 54.95, 30.31, 81.47, -0.00, 0.00, 0.00, -0.00, 0.00, 0.00, -20.75, -5.75, -0.00, -0.00
0.3750021457672119, -3.14, 1.57, 0.96, 0.53, 1.42, -179.91, 89.95, 54.95, 30.31, 81.47, -0.00, 0.00, 0.00, -0.00, 0.00, 0.00, -20.75, -5.75, -0.00, -0.00
0.4103057384490967, -3.14, 1.57, 0.96, 0.53, 1.42, -179.91, 89.95, 54.95, 30.31, 81.47, -0.00, 0.00, 0.00, -0.00, 0.00, 0.00, -20.75, -5.75, -0.00, -0.00
0.4443013668060303, -3.14, 1.57, 0.96, 0.53, 1.42, -179.91, 89.95, 54.95, 30.31, 81.47, -0.00, 0.00, 0.00, -0.00, 0.00, 0.00, -20.75, -5.75, -0.00, -0.00
0.48130154609680176, -3.14, 1.57, 0.96, 0.53, 1.42, -179.91, 89.95, 54.95, 30.31, 81.47, -0.00, 0.00, 0.00, -0.00, 0.00, 0.00, -20.75, -5.75, -0.00, -0.00
0.5158183574676514, -3.14, 1.57, 0.96, 0.53, 1.42, -179.91, 89.95, 54.95, 30.31, 81.47, -0.00, 0.00, 0.00, -0.00, 0.00, 0.00, -20.75, -5.75, -0.00, -0.00
0.5548202991485596, -3.14, 1.57, 0.96, 0.53, 1.42, -179.91, 89.95, 54.95, 30.31, 81.47, -0.00, 0.00, 0.00, -0.00, 0.00, 0.00, -20.75, -5.75, -0.00, -0.00
0.5938198566436768, -3.14, 1.57, 0.96, 0.53, 1.42, -179.91, 89.95, 54.95, 30.31, 81.47, -0.00, 0.00, 0.00, -0.00, 0.00, 0.00, -20.75, -5.75, -0.00, -0.00
0.6498208045959473, -3.14, 1.57, 0.96, 0.53, 1.42, -179.91, 89.95, 54.95, 30.31, 81.47, -0.00, 0.00, 0.00, -0.00, 0.00, 0.00, -20.75, -5.75, -0.00, -0.00
0.6928243637084961, -3.14, 1.57, 0.96, 0.53, 1.42, -179.91, 89.95, 54.95, 30.31, 81.47, -0.00, 0.00, 0.00, -0.00, 0.00, 0.00, -20.75, -5.75, -0.00, -0.00
0.7323329448699951, -3.14, 1.57, 0.96, 0.53, 1.42, -179.91, 89.95, 54.95, 30.31, 81.47, -0.00, 0.00, 0.00, -0.00, 0.00, 0.00, -20.75, -5.75, -0.00, -0.00
0.7718551158905029, -3.14, 1.57, 0.96, 0.53, 1.42, -179.91, 89.95, 54.95, 30.31, 81.47, -0.00, 0.00, 0.00, -0.00, 0.00, 0.00, -20.75, -5.75, -0.00, -0.00
0.8118574619293213, -3.14, 1.57, 0.96, 0.53, 1.42, -179.91, 89.95, 54.95, 30.31, 81.47, -0.00, 0.00, 0.00, -0.00, 0.00, 0.00, -20.75, -5.75, -0.00, -0.00
0.843855619430542, -3.14, 1.57, 0.96, 0.53, 1.42, -179.91, 89.95, 54.95, 30.31, 81.47, -0.00, 0.00, 0.00, -0.00, 0.00, 0.00, -20.75, -5.75, -0.00, -0.00
0.8796660900115967, -3.14, 1.57, 0.96, 0.53, 1.42, -179.91, 89.95, 54.95, 30.31, 81.47, -0.00, 0.00, 0.00, -0.00, 0.00, 0.00, -20.75, -5.75, -0.00, -0.00
0.9176585674285889, -3.14, 1.57, 0.96, 0.53, 1.42, -179.91, 89.95, 54.95, 30.31, 81.47, -0.00, 0.00, 0.00, -0.00, 0.00, 0.00, -20.75, -5.75, -0.00, -0.00
0.9526591300964355, -3.14, 1.57, 0.96, 0.53, 1.42, -179.91, 89.95, 54.95, 30.31, 81.47, -0.00, 0.00, 0.00, -0.00, 0.00, 0.00, -20.75, -5.75, -0.00, -0.00
0.9936604499816895, -3.14, 1.57, 0.96, 0.53, 1.42, -179.91, 89.95, 54.95, 30.31, 81.47, -0.00, 0.00, 0.00, -0.00, 0.00, 0.00, -20.75, -5.75, -0.00, -0.00
1.0336627960205078, -3.14, 1.57, 0.96, 0.53, 1.42, -179.91, 89.95, 54.95, 30.31, 81.47, -0.00, 0.00, 0.00, -0.00, 0.00, 0.00, -20.75, -5.75, -0.00, -0.00
1.075662612915039, -3.14, 1.57, 0.96, 0.53, 1.42, -179.91, 89.95, 54.95, 30.31, 81.47, -0.00, 0.00, 0.00, -0.00, 0.00, 0.00, -20.75, -5.75, -0.00, -0.00
1.111661672592163, -3.14, 1.57, 0.96, 0.53, 1.42, -179.91, 89.95, 54.95, 30.31, 81.47, -0.00, 0.00, 0.00, -0.00, 0.00, 0.00, -20.75, -5.75, -0.00, -0.00
1.1461873054504395, -3.14, 1.57, 0.96, 0.53, 1.42, -179.91, 89.95, 54.95, 30.31, 81.47, -0.00, 0.00, 0.00, -0.00, 0.00, 0.00, -20.75, -5.75, -0.00, -0.00
1.1821856498718262, -3.14, 1.57, 0.96, 0.53, 1.42, -179.91, 89.95, 54.95, 30.31, 81.47, -0.00, 0.00, 0.00, -0.00, 0.00, 0.00, -20.75, -5.75, -0.00, -0.00
1.2211906909942627, -3.14, 1.57, 0.96, 0.53, 1.42, -179.91, 89.95, 54.95, 30.31, 81.47, -0.00, 0.00, 0.00, -0.00, 0.00, 0.00, -20.75, -5.75, -0.00, -0.00
1.263190746307373, -3.14, 1.57, 0.96, 0.53, 1.42, -179.91, 89.95, 54.95, 30.31, 81.47, -0.00, 0.00, 0.00, -0.00, 0.00, 0.00, -20.75, -5.75, -0.00, -0.00
1.3011891841888428, -3.14, 1.57, 0.96, 0.53, 1.42, -179.91, 89.95, 54.95, 30.31, 81.47, -0.00, 0.00, 0.00, -0.00, 0.00, 0.00, -20.75, -5.75, -0.00, -0.00
1.3391895294189453, -3.14, 1.57, 0.96, 0.53, 1.42, -179.91, 89.95, 54.95, 30.31, 81.47, -0.00, 0.00, 0.00, -0.00, 0.00, 0.00, -20.75, -5.75, -0.00, -0.00
1.3811891078948975, -3.14, 1.57, 0.96, 0.53, 1.42, -179.91, 89.95, 54.95, 30.31, 81.47, -0.00, 0.00, 0.00, -0.00, 0.00, 0.00, -20.75, -5.75, -0.00, -0.00
1.4177627563476562, -3.14, 1.57, 0.96, 0.53, 1.42, -179.91, 89.95, 54.95, 30.31, 81.47, -0.00, 0.00, 0.00, -0.00, 0.00, 0.00, -20.75, -5.75, -0.00, -0.00
1.4552865028381348, -3.14, 1.57, 0.96, 0.53, 1.42, -179.91, 89.95, 54.95, 30.31, 81.47, -0.00, 0.00, 0.00, -0.00, 0.00, 0.00, -20.75, -5.75, -0.00, -0.00
