sulimanbadour1/Project_S/Modeling/Kinematics/robot_joint_data.csv
Time, Joint 1 Angle (Rad), Joint 2 Angle (Rad), Joint 3 Angle (Rad), Joint 4 Angle (Rad), Joint 5 Angle (Rad), Joint 1 Angle (Deg), Joint 2 Angle (Deg), Joint 3 Angle (Deg), Joint 4 Angle (Deg), Joint 5 Angle (Deg), Joint 1 Vel, Joint 2 Vel, Joint 3 Vel, Joint 4 Vel, Joint 5 Vel, Joint 1 Eff, Joint 2 Eff, Joint 3 Eff, Joint 4 Eff, Joint 5 Eff
0.000990152359008789, -3.14, 1.57, 0.96, 0.53, 1.42, -179.91, 89.95, 54.95, 30.31, 81.47, 0.00, 0.00, 0.00, -0.00, -0.00, -0.00, -20.66, -5.69, 0.00, -0.00
0.04430532455444336, -3.14, 1.57, 0.96, 0.53, 1.42, -179.91, 89.95, 54.95, 30.31, 81.47, -0.00, 0.00, 0.00, -0.00, 0.00, -0.00, -20.76, -5.76, -0.00, 0.00
0.08318257331848145, -3.14, 1.57, 0.96, 0.53, 1.42, -179.91, 89.95, 54.95, 30.31, 81.47, -0.00, 0.00, 0.00, -0.00, 0.00, 0.00, -20.76, -5.76, -0.00, -0.00
0.13618087768554688, -3.14, 1.57, 0.96, 0.53, 1.42, -179.91, 89.95, 54.95, 30.31, 81.47, -0.00, 0.00, 0.00, -0.00, 0.00, 0.00, -20.76, -5.75, -0.00, -0.00
0.17918062210083008, -3.14, 1.57, 0.96, 0.53, 1.42, -179.91, 89.95, 54.95, 30.31, 81.47, -0.00, 0.00, 0.00, -0.00, 0.00, 0.00, -20.76, -5.75, -0.00, -0.00
0.2191791534423828, -3.14, 1.57, 0.96, 0.53, 1.42, -179.91, 89.95, 54.95, 30.31, 81.47, -0.00, 0.00, 0.00, -0.00, 0.00, 0.00, -20.76, -5.75, -0.00, -0.00
0.26018190383911133, -3.14, 1.57, 0.96, 0.53, 1.42, -179.91, 89.95, 54.95, 30.31, 81.47, -0.00, 0.00, 0.00, -0.00, 0.00, 0.00, -20.76, -5.75, -0.00, -0.00
0.29618072509765625, -3.14, 1.57, 0.96, 0.53, 1.42, -179.91, 89.95, 54.95, 30.31, 81.47, -0.00, 0.00, 0.00, -0.00, 0.00, 0.00, -20.75, -5.75, -0.00, -0.00
0.33521366119384766, -3.14, 1.57, 0.96, 0.53, 1.42, -179.91, 89.95, 54.95, 30.31, 81.47, -0.00, 0.00, 0.00, -0.00, 0.00, 0.00, -20.75, -5.75, -0.00, -0.00
0.3793168067932129, -3.14, 1.57, 0.96, 0.53, 1.42, -179.91, 89.95, 54.95, 30.31, 81.47, -0.00, 0.00, 0.00, -0.00, 0.00, 0.00, -20.75, -5.75, -0.00, -0.00
0.4183382987976074, -3.14, 1.57, 0.96, 0.53, 1.42, -179.91, 89.95, 54.95, 30.31, 81.47, -0.00, 0.00, 0.00, -0.00, 0.00, 0.00, -20.75, -5.75, -0.00, -0.00
0.4597203731536865, -3.14, 1.57, 0.96, 0.53, 1.42, -179.91, 89.95, 54.95, 30.31, 81.47, -0.00, 0.00, 0.00, -0.00, 0.00, 0.00, -20.75, -5.75, -0.00, -0.00
0.4957568645477295, -3.14, 1.57, 0.96, 0.53, 1.42, -179.91, 89.95, 54.95, 30.31, 81.47, -0.00, 0.00, 0.00, -0.00, 0.00, 0.00, -20.75, -5.75, -0.00, -0.00
0.535794734954834, -3.14, 1.57, 0.96, 0.53, 1.42, -179.91, 89.95, 54.95, 30.31, 81.47, -0.00, 0.00, 0.00, -0.00, 0.00, 0.00, -20.75, -5.75, -0.00, -0.00
0.5852954387664795, -3.14, 1.57, 0.96, 0.53, 1.42, -179.91, 89.95, 54.95, 30.31, 81.47, -0.00, 0.00, 0.00, -0.00, 0.00, 0.00, -20.75, -5.75, -0.00, -0.00
0.6256756782531738, -3.14, 1.57, 0.96, 0.53, 1.42, -179.91, 89.95, 54.95, 30.31, 81.47, -0.00, 0.00, 0.00, -0.00, 0.00, 0.00, -20.75, -5.75, -0.00, -0.00
0.6673061847686768, -3.14, 1.57, 0.96, 0.53, 1.42, -179.91, 89.95, 54.95, 30.31, 81.47, -0.00, 0.00, 0.00, -0.00, 0.00, 0.00, -20.75, -5.75, -0.00, -0.00
0.7120356559753418, -3.14, 1.57, 0.96, 0.53, 1.42, -179.91, 89.95, 54.95, 30.31, 81.47, -0.00, 0.00, 0.00, -0.00, 0.00, 0.00, -20.75, -5.75, -0.00, -0.00
0.7547950744628906, -3.14, 1.57, 0.96, 0.53, 1.42, -179.91, 89.95, 54.95, 30.31, 81.47, -0.00, 0.00, 0.00, -0.00, 0.00, 0.00, -20.75, -5.75, -0.00, -0.00
0.7947955131530762, -3.14, 1.57, 0.96, 0.53, 1.42, -179.91, 89.95, 54.95, 30.31, 81.47, -0.00, 0.00, 0.00, -0.00, 0.00, 0.00, -20.75, -5.75, -0.00, -0.00
0.8327951431274414, -3.14, 1.57, 0.96, 0.53, 1.42, -179.91, 89.95, 54.95, 30.31, 81.47, -0.00, 0.00, 0.00, -0.00, 0.00, 0.00, -20.75, -5.75, -0.00, -0.00
0.8717939853668213, -3.14, 1.57, 0.96, 0.53, 1.42, -179.91, 89.95, 54.95, 30.31, 81.47, -0.00, 0.00, 0.00, -0.00, 0.00, 0.00, -20.75, -5.75, -0.00, -0.00
0.9147787094116211, -3.14, 1.57, 0.96, 0.53, 1.42, -179.91, 89.95, 54.95, 30.31, 81.47, -0.00, 0.00, 0.00, -0.00, 0.00, 0.00, -20.75, -5.75, -0.00, -0.00
0.9551880359649658, -3.14, 1.57, 0.96, 0.53, 1.42, -179.91, 89.95, 54.95, 30.31, 81.47, -0.00, 0.00, 0.00, -0.00, 0.00, 0.00, -20.75, -5.75, -0.00, -0.00
1.0001919269561768, -3.14, 1.57, 0.96, 0.53, 1.42, -179.91, 89.95, 54.95, 30.31, 81.47, -0.00, 0.00, 0.00, -0.00, 0.00, 0.00, -20.75, -5.75, -0.00, -0.00
1.043189525604248, -3.14, 1.57, 0.96, 0.53, 1.42, -179.91, 89.95, 54.95, 30.31, 81.47, -0.00, 0.00, 0.00, -0.00, 0.00, 0.00, -20.75, -5.75, -0.00, -0.00
1.082188606262207, -3.14, 1.57, 0.96, 0.53, 1.42, -179.91, 89.95, 54.95, 30.31, 81.47, -0.00, 0.00, 0.00, -0.00, 0.00, 0.00, -20.75, -5.75, -0.00, -0.00
1.1267099380493164, -3.14, 1.57, 0.96, 0.53, 1.42, -179.91, 89.95, 54.95, 30.31, 81.47, -0.00, 0.00, 0.00, -0.00, 0.00, 0.00, -20.75, -5.75, -0.00, -0.00
1.1657071113586426, -3.14, 1.57, 0.96, 0.53, 1.42, -179.91, 89.95, 54.95, 30.31, 81.47, -0.00, 0.00, 0.00, -0.00, 0.00, 0.00, -20.75, -5.75, -0.00, -0.00
1.2045652866363525, -3.14, 1.57, 0.96, 0.53, 1.42, -179.91, 89.95, 54.95, 30.31, 81.47, -0.00, 0.00, 0.00, -0.00, 0.00, 0.00, -20.75, -5.75, -0.00, -0.00
1.2416784763336182, -3.14, 1.57, 0.96, 0.53, 1.42, -179.91, 89.95, 54.95, 30.31, 81.47, -0.00, 0.00, 0.00, -0.00, 0.00, 0.00, -20.75, -5.75, -0.00, -0.00
1.278397560119629, -3.14, 1.57, 0.96, 0.53, 1.42, -179.91, 89.95, 54.95, 30.31, 81.47, -0.00, 0.00, 0.00, -0.00, 0.00, 0.00, -20.75, -5.75, -0.00, -0.00
1.318866491317749, -3.14, 1.57, 0.96, 0.53, 1.42, -179.91, 89.95, 54.95, 30.31, 81.47, -0.00, 0.00, 0.00, -0.00, 0.00, 0.00, -20.75, -5.75, -0.00, -0.00
1.3565974235534668, -3.14, 1.57, 0.96, 0.53, 1.42, -179.91, 89.95, 54.95, 30.31, 81.47, -0.00, 0.00, 0.00, -0.00, 0.00, 0.00, -20.75, -5.75, -0.00, -0.00
1.3960597515106201, -3.14, 1.57, 0.96, 0.53, 1.42, -179.91, 89.95, 54.95, 30.31, 81.47, -0.00, 0.00, 0.00, -0.00, 0.00, 0.00, -20.75, -5.75, -0.00, -0.00
1.4344491958618164, -3.14, 1.57, 0.96, 0.53, 1.42, -179.91, 89.95, 54.95, 30.31, 81.47, -0.00, 0.00, 0.00, -0.00, 0.00, 0.00, -20.75, -5.75, -0.00, -0.00
1.4775233268737793, -3.14, 1.57, 0.96, 0.53, 1.42, -179.91, 89.95, 54.95, 30.31, 81.47, -0.00, 0.00, 0.00, -0.00, 0.00, 0.00, -20.75, -5.75, -0.00, -0.00
1.519524097442627, -3.14, 1.57, 0.96, 0.53, 1.42, -179.91, 89.95, 54.95, 30.31, 81.47, -0.00, 0.00, 0.00, -0.00, 0.00, 0.00, -20.75, -5.75, -0.00, -0.00
1.5575222969055176, -3.14, 1.57, 0.96, 0.53, 1.42, -179.91, 89.95, 54.95, 30.31, 81.47, -0.00, 0.00, 0.00, -0.00, 0.00, 0.00, -20.75, -5.75, -0.00, -0.00
1.5980610847473145, -3.14, 1.57, 0.96, 0.53, 1.42, -179.91, 89.95, 54.95, 30.31, 81.47, -0.00, 0.00, 0.00, -0.00, 0.00, 0.00, -20.75, -5.75, -0.00, -0.00
1.6378328800201416, -3.14, 1.57, 0.96, 0.53, 1.42, -179.91, 89.95, 54.95, 30.31, 81.47, -0.00, 0.00, 0.00, -0.00, 0.00, 0.00, -20.75, -5.75, -0.00, -0.00
1.6772043704986572, -3.14, 1.57, 0.96, 0.53, 1.42, -179.91, 89.95, 54.95, 30.31, 81.47, -0.00, 0.00, 0.00, -0.00, 0.00, 0.00, -20.75, -5.75, -0.00, -0.00
1.7162363529205322, -3.14, 1.57, 0.96, 0.53, 1.42, -179.91, 89.95, 54.95, 30.31, 81.47, -0.00, 0.00, 0.00, -0.00, 0.00, 0.00, -20.75, -5.75, -0.00, -0.00
1.7512335777282715, -3.14, 1.57, 0.96, 0.53, 1.42, -179.91, 89.95, 54.95, 30.31, 81.47, -0.00, 0.00, 0.00, -0.00, 0.00, 0.00, -20.75, -5.75, -0.00, -0.00
1.7942357063293457, -3.14, 1.57, 0.96, 0.53, 1.42, -179.91, 89.95, 54.95, 30.31, 81.47, -0.00, 0.00, 0.00, -0.00, 0.00, 0.00, -20.75, -5.75, -0.00, -0.00
1.8342339992523193, -3.14, 1.57, 0.96, 0.53, 1.42, -179.91, 89.95, 54.95, 30.31, 81.47, -0.00, 0.00, 0.00, -0.00, 0.00, 0.00, -20.75, -5.75, -0.00, -0.00
1.8772344589233398, -3.14, 1.57, 0.96, 0.53, 1.42, -179.91, 89.95, 54.95, 30.31, 81.47, -0.00, 0.00, 0.00, -0.00, 0.00, 0.00, -20.75, -5.75, -0.00, -0.00
1.913233757019043, -3.14, 1.57, 0.96, 0.53, 1.42, -179.91, 89.95, 54.95, 30.31, 81.47, -0.00, 0.00, 0.00, -0.00, 0.00, 0.00, -20.75, -5.75, -0.00, -0.00
1.9502358436584473, -3.14, 1.57, 0.96, 0.53, 1.42, -179.91, 89.95, 54.95, 30.31, 81.47, -0.00, 0.00, 0.00, -0.00, 0.00, 0.00, -20.75, -5.75, -0.00, -0.00
1.9887611865997314, -3.14, 1.57, 0.96, 0.53, 1.42, -179.91, 89.95, 54.95, 30.31, 81.47, -0.00, 0.00, 0.00, -0.00, 0.00, 0.00, -20.75, -5.75, -0.00, -0.00
2.0307607650756836, -3.14, 1.57, 0.96, 0.53, 1.42, -179.91, 89.95, 54.95, 30.31, 81.47, -0.00, 0.00, 0.00, -0.00, 0.00, 0.00, -20.75, -5.75, -0.00, -0.00
2.0697598457336426, -3.14, 1.57, 0.96, 0.53, 1.42, -179.91, 89.95, 54.95, 30.31, 81.47, -0.00, 0.00, 0.00, -0.00, 0.00, 0.00, -20.75, -5.75, -0.00, -0.00
2.10876727104187, -3.14, 1.57, 0.96, 0.53, 1.42, -179.91, 89.95, 54.95, 30.31, 81.47, -0.00, 0.00, 0.00, -0.00, 0.00, 0.00, -20.75, -5.75, -0.00, -0.00
2.151766061782837, -3.14, 1.57, 0.96, 0.53, 1.42, -179.91, 89.95, 54.95, 30.31, 81.47, -0.00, 0.00, 0.00, -0.00, 0.00, 0.00, -20.75, -5.75, -0.00, -0.00
2.1997621059417725, -3.14, 1.57, 0.96, 0.53, 1.42, -179.91, 89.95, 54.95, 30.31, 81.47, -0.00, 0.00, 0.00, -0.00, 0.00, 0.00, -20.75, -5.75, -0.00, -0.00
2.240760326385498, -3.14, 1.57, 0.96, 0.53, 1.42, -179.91, 89.95, 54.95, 30.31, 81.47, -0.00, 0.00, 0.00, -0.00, 0.00, 0.00, -20.75, -5.75, -0.00, -0.00
2.2807581424713135, -3.14, 1.57, 0.96, 0.53, 1.42, -179.91, 89.95, 54.95, 30.31, 81.47, -0.00, 0.00, 0.00, -0.00, 0.00, 0.00, -20.75, -5.75, -0.00, -0.00
2.332761764526367, -3.14, 1.57, 0.96, 0.53, 1.42, -179.91, 89.95, 54.95, 30.31, 81.47, -0.00, 0.00, 0.00, -0.00, 0.00, 0.00, -20.75, -5.75, -0.00, -0.00
2.3722827434539795, -3.14, 1.57, 0.96, 0.53, 1.42, -179.91, 89.95, 54.95, 30.31, 81.47, -0.00, 0.00, 0.00, -0.00, 0.00, 0.00, -20.75, -5.75, -0.00, -0.00
2.4142820835113525, -3.14, 1.57, 0.96, 0.53, 1.42, -179.91, 89.95, 54.95, 30.31, 81.47, -0.00, 0.00, 0.00, -0.00, 0.00, 0.00, -20.75, -5.75, -0.00, -0.00
2.452282667160034, -3.14, 1.57, 0.96, 0.53, 1.42, -179.91, 89.95, 54.95, 30.31, 81.47, -0.00, 0.00, 0.00, -0.00, 0.00, 0.00, -20.75, -5.75, -0.00, -0.00
2.4962847232818604, -3.14, 1.57, 0.96, 0.53, 1.42, -179.91, 89.95, 54.95, 30.31, 81.47, -0.00, 0.00, 0.00, -0.00, 0.00, 0.00, -20.75, -5.75, -0.00, -0.00
2.542285442352295, -3.14, 1.57, 0.96, 0.53, 1.42, -179.91, 89.95, 54.95, 30.31, 81.47, -0.00, 0.00, 0.00, -0.00, 0.00, 0.00, -20.75, -5.75, -0.00, -0.00
2.584019660949707, -3.14, 1.57, 0.96, 0.53, 1.42, -179.91, 89.95, 54.95, 30.31, 81.47, -0.00, 0.00, 0.00, -0.00, 0.00, 0.00, -20.75, -5.75, -0.00, -0.00
2.6278295516967773, -3.14, 1.57, 0.96, 0.53, 1.42, -179.91, 89.95, 54.95, 30.31, 81.47, -0.00, 0.00, 0.00, -0.00, 0.00, 0.00, -20.75, -5.75, -0.00, -0.00
2.6708316802978516, -3.14, 1.57, 0.96, 0.53, 1.42, -179.91, 89.95, 54.95, 30.31, 81.47, -0.00, 0.00, 0.00, -0.00, 0.00, 0.00, -20.75, -5.75, -0.00, -0.00
2.7118277549743652, -3.14, 1.57, 0.96, 0.53, 1.42, -179.91, 89.95, 54.95, 30.31, 81.47, -0.00, 0.00, 0.00, -0.00, 0.00, 0.00, -20.75, -5.75, -0.00, -0.00
2.7518303394317627, -3.14, 1.57, 0.96, 0.53, 1.42, -179.91, 89.95, 54.95, 30.31, 81.47, -0.00, 0.00, 0.00, -0.00, 0.00, 0.00, -20.75, -5.75, -0.00, -0.00
2.791828155517578, -3.14, 1.57, 0.96, 0.53, 1.42, -179.91, 89.95, 54.95, 30.31, 81.47, -0.00, 0.00, 0.00, -0.00, 0.00, 0.00, -20.75, -5.75, -0.00, -0.00
2.833787202835083, -3.14, 1.57, 0.96, 0.53, 1.42, -179.91, 89.95, 54.95, 30.31, 81.47, -0.00, 0.00, 0.00, -0.00, 0.00, 0.00, -20.75, -5.75, -0.00, -0.00
2.874943256378174, -3.14, 1.57, 0.96, 0.53, 1.42, -179.91, 89.95, 54.95, 30.31, 81.47, -0.00, 0.00, 0.00, -0.00, 0.00, 0.00, -20.75, -5.75, -0.00, -0.00
2.91658091545105, -3.14, 1.57, 0.96, 0.53, 1.42, -179.91, 89.95, 54.95, 30.31, 81.47, -0.00, 0.00, 0.00, -0.00, 0.00, 0.00, -20.75, -5.75, -0.00, -0.00
2.959582567214966, -3.14, 1.57, 0.96, 0.53, 1.42, -179.91, 89.95, 54.95, 30.31, 81.47, -0.00, 0.00, 0.00, -0.00, 0.00, 0.00, -20.75, -5.75, -0.00, -0.00
2.998579978942871, -3.14, 1.57, 0.96, 0.53, 1.42, -179.91, 89.95, 54.95, 30.31, 81.47, -0.00, 0.00, 0.00, -0.00, 0.00, 0.00, -20.75, -5.75, -0.00, -0.00
3.0415842533111572, -3.14, 1.57, 0.96, 0.53, 1.42, -179.91, 89.95, 54.95, 30.31, 81.47, -0.00, 0.00, 0.00, -0.00, 0.00, 0.00, -20.75, -5.75, -0.00, -0.00
3.0886354446411133, -3.14, 1.57, 0.96, 0.53, 1.42, -179.91, 89.95, 54.95, 30.31, 81.47, -0.00, 0.00, 0.00, -0.00, 0.00, 0.00, -20.75, -5.75, -0.00, -0.00
3.1260173320770264, -3.14, 1.57, 0.96, 0.53, 1.42, -179.91, 89.95, 54.95, 30.31, 81.47, -0.00, 0.00, 0.00, -0.00, 0.00, 0.00, -20.75, -5.75, -0.00, -0.00
3.1678242683410645, -3.14, 1.57, 0.96, 0.53, 1.42, -179.91, 89.95, 54.95, 30.31, 81.47, -0.00, 0.00, 0.00, -0.00, 0.00, 0.00, -20.75, -5.75, -0.00, -0.00
3.209822416305542, -3.14, 1.57, 0.96, 0.53, 1.42, -179.91, 89.95, 54.95, 30.31, 81.47, -0.00, 0.00, 0.00, -0.00, 0.00, 0.00, -20.75, -5.75, -0.00, -0.00
3.2518246173858643, -3.14, 1.57, 0.96, 0.53, 1.42, -179.91, 89.95, 54.95, 30.31, 81.47, -0.00, 0.00, 0.00, -0.00, 0.00, 0.00, -20.75, -5.75, -0.00, -0.00
3.286836862564087, -3.14, 1.57, 0.96, 0.53, 1.42, -179.91, 89.95, 54.95, 30.31, 81.47, -0.00, 0.00, 0.00, -0.00, 0.00, 0.00, -20.75, -5.75, -0.00, -0.00
3.327826976776123, -3.14, 1.57, 0.96, 0.53, 1.42, -179.91, 89.95, 54.95, 30.31, 81.47, -0.00, 0.00, 0.00, -0.00, 0.00, 0.00, -20.75, -5.75, -0.00, -0.00
3.3770785331726074, -3.14, 1.57, 0.96, 0.53, 1.42, -179.91, 89.95, 54.95, 30.31, 81.47, -0.00, 0.00, 0.00, -0.00, 0.00, 0.00, -20.75, -5.75, -0.00, -0.00
3.420609712600708, -3.13, 1.57, 0.96, 0.53, 1.42, -179.16, 89.95, 54.95, 30.31, 81.47, 3.14, 0.00, 0.00, -0.00, 0.00, 1121.82, -20.75, -5.75, -0.00, -0.00
3.4613020420074463, -3.10, 1.57, 0.96, 0.53, 1.42, -177.54, 89.95, 54.95, 30.31, 81.47, 6.79, 0.00, -0.00, 0.00, 0.00, 1307.77, -14.45, 0.57, -0.00, -0.00
3.506459951400757, -3.07, 1.57, 0.96, 0.53, 1.42, -175.70, 89.95, 54.95, 30.31, 81.47, 7.70, 0.00, -0.00, 0.00, 0.00, 327.28, 8.78, 23.87, -0.00, -0.00
3.569530487060547, -3.02, 1.57, 0.96, 0.53, 1.42, -172.91, 89.95, 54.95, 30.31, 81.47, 11.69, 0.00, -0.00, 0.00, 0.00, 1430.91, 17.42, 32.46, 0.00, -0.00
3.6335291862487793, -2.96, 1.57, 0.96, 0.53, 1.42, -169.45, 89.95, 54.95, 30.31, 81.47, 14.49, 0.00, -0.00, 0.00, 0.00, 1007.91, 67.21, 82.32, -0.00, -0.00
3.709599733352661, -2.88, 1.57, 0.96, 0.53, 1.42, -165.20, 89.95, 54.95, 30.31, 81.47, 17.80, 0.00, -0.00, 0.00, 0.00, 1195.06, 114.40, 129.56, 0.00, -0.00
3.7725236415863037, -2.80, 1.57, 0.96, 0.53, 1.42, -160.62, 89.95, 54.95, 30.31, 81.47, 19.20, 0.00, -0.00, 0.00, 0.00, 513.74, 183.21, 198.47, 0.00, -0.00
3.8481767177581787, -2.72, 1.57, 0.96, 0.53, 1.42, -155.73, 89.95, 54.95, 30.31, 81.47, 20.45, 0.00, -0.00, 0.00, 0.00, 466.23, 216.43, 231.73, 0.00, -0.00
3.9151651859283447, -2.62, 1.57, 0.96, 0.53, 1.42, -150.20, 89.95, 54.95, 30.31, 81.47, 23.17, 0.00, -0.00, 0.00, 0.00, 991.36, 248.42, 263.77, -0.00, -0.00
3.975165605545044, -2.52, 1.57, 0.96, 0.53, 1.42, -144.66, 89.95, 54.95, 30.31, 81.47, 23.23, 0.00, -0.00, 0.00, 0.00, 47.96, 324.70, 340.13, 0.00, -0.00
4.034162998199463, -2.43, 1.57, 0.96, 0.53, 1.42, -139.10, 89.95, 54.95, 30.31, 81.47, 23.29, 0.00, -0.00, 0.00, 0.00, 45.80, 326.60, 342.04, 0.00, -0.00
4.0991644859313965, -2.30, 1.57, 0.96, 0.53, 1.42, -131.82, 89.95, 54.95, 30.31, 81.47, 30.49, 0.00, -0.00, 0.00, 0.00, 2598.71, 328.32, 343.77, 0.00, -0.00
4.156164646148682, -2.17, 1.57, 0.96, 0.53, 1.42, -124.32, 89.95, 54.95, 30.31, 81.47, 31.41, 0.00, -0.00, 0.00, 0.00, 371.75, 577.28, 593.05, -0.00, -0.00
4.215188980102539, -2.04, 1.57, 0.96, 0.53, 1.42, -117.00, 89.95, 54.95, 30.31, 81.47, 30.65, 0.00, -0.00, 0.00, 0.00, -226.33, 613.92, 629.73, 0.00, 0.00
4.273191928863525, -1.92, 1.57, 0.96, 0.53, 1.42, -110.23, 89.95, 54.95, 30.31, 81.47, 28.38, 0.00, -0.00, 0.00, 0.00, -769.03, 583.60, 599.37, 0.00, 0.00
4.343191862106323, -1.81, 1.57, 0.96, 0.53, 1.42, -103.56, 89.95, 54.95, 30.31, 81.47, 27.92, 0.00, -0.00, 0.00, 0.00, -126.10, 497.36, 513.02, 0.00, 0.00
4.404191255569458, -1.66, 1.57, 0.96, 0.53, 1.42, -94.91, 89.95, 54.95, 30.31, 81.47, 36.24, 0.00, -0.00, 0.00, 0.00, 3011.67, 480.81, 496.45, 0.00, -0.00
4.464191675186157, -1.48, 1.57, 0.96, 0.53, 1.42, -85.04, 89.95, 54.95, 30.31, 81.47, 41.34, 0.00, -0.00, 0.00, 0.00, 1886.51, 824.25, 840.33, -0.00, -0.00
4.515191555023193, -1.32, 1.57, 0.96, 0.53, 1.42, -75.78, 89.95, 54.95, 30.31, 81.47, 38.80, 0.00, -0.00, 0.00, 0.00, -833.24, 1079.19, 1095.60, 0.00, 0.00
4.563204765319824, -1.18, 1.57, 0.96, 0.53, 1.42, -67.45, 89.95, 54.95, 30.31, 81.47, 34.92, 0.00, -0.00, 0.00, 0.00, -1319.03, 947.81, 964.06, -0.00, 0.00
4.615191221237183, -1.05, 1.57, 0.96, 0.53, 1.42, -59.94, 89.95, 54.95, 30.31, 81.47, 31.43, 0.00, -0.00, 0.00, 0.00, -1193.10, 763.82, 779.82, 0.00, 0.00
4.673192501068115, -0.93, 1.57, 0.96, 0.53, 1.42, -53.19, 89.95, 54.95, 30.31, 81.47, 28.28, 0.00, -0.00, 0.00, 0.00, -1078.63, 614.72, 630.54, -0.00, 0.00
4.731191635131836, -0.82, 1.57, 0.96, 0.53, 1.42, -47.11, 89.95, 54.95, 30.31, 81.47, 25.46, 0.00, -0.00, 0.00, 0.00, -974.68, 494.01, 509.67, 0.00, 0.00
4.796191215515137, -0.73, 1.57, 0.96, 0.53, 1.42, -41.64, 89.95, 54.95, 30.31, 81.47, 22.91, 0.00, -0.00, 0.00, 0.00, -880.39, 396.18, 411.72, -0.00, 0.00
4.859191656112671, -0.64, 1.57, 0.96, 0.53, 1.42, -36.72, 89.95, 54.95, 30.31, 81.47, 20.62, 0.00, -0.00, 0.00, 0.00, -794.92, 316.99, 332.42, 0.00, 0.00
4.935192584991455, -0.56, 1.57, 0.96, 0.53, 1.42, -32.29, 89.95, 54.95, 30.31, 81.47, 18.56, 0.00, -0.00, 0.00, 0.00, -717.51, 252.79, 268.15, -0.00, 0.00
4.998189926147461, -0.49, 1.57, 0.96, 0.53, 1.42, -28.30, 89.95, 54.95, 30.31, 81.47, 16.70, 0.00, -0.00, 0.00, 0.00, -647.45, 200.82, 216.11, -0.00, 0.00
5.0661914348602295, -0.43, 1.57, 0.96, 0.53, 1.42, -24.72, 89.95, 54.95, 30.31, 81.47, 15.03, 0.00, -0.00, 0.00, 0.00, -584.07, 158.75, 173.97, 0.00, 0.00
5.147193670272827, -0.38, 1.57, 0.96, 0.53, 1.42, -21.49, 89.95, 54.95, 30.31, 81.47, 13.53, 0.00, -0.00, 0.00, 0.00, -526.77, 124.62, 139.81, -0.00, 0.00
5.215933561325073, -0.32, 1.57, 0.96, 0.53, 1.42, -18.58, 89.95, 54.95, 30.31, 81.47, 12.18, 0.00, -0.00, 0.00, 0.00, -474.99, 97.00, 112.15, -0.00, 0.00
5.277217626571655, -0.28, 1.57, 0.96, 0.53, 1.42, -15.96, 89.95, 54.95, 30.31, 81.47, 10.96, 0.00, -0.00, 0.00, 0.00, -428.21, 74.66, 89.77, 0.00, 0.00
5.339432954788208, -0.24, 1.57, 0.96, 0.53, 1.42, -13.61, 89.95, 54.95, 30.31, 81.47, 9.86, 0.00, -0.00, 0.00, 0.00, -385.98, 56.50, 71.60, -0.00, 0.00
5.411431550979614, -0.20, 1.57, 0.96, 0.53, 1.42, -11.49, 89.95, 54.95, 30.31, 81.47, 8.88, 0.00, -0.00, 0.00, 0.00, -347.86, 41.82, 56.91, -0.00, 0.00
5.475431203842163, -0.17, 1.57, 0.96, 0.53, 1.42, -9.58, 89.95, 54.95, 30.31, 81.47, 7.99, 0.00, -0.00, 0.00, 0.00, -313.46, 29.94, 45.00, -0.00, 0.00
5.531430006027222, -0.14, 1.57, 0.96, 0.53, 1.42, -7.87, 89.95, 54.95, 30.31, 81.47, 7.19, 0.00, -0.00, 0.00, 0.00, -282.43, 20.31, 35.36, 0.00, 0.00
5.57943058013916, -0.11, 1.57, 0.96, 0.53, 1.42, -6.32, 89.95, 54.95, 30.31, 81.47, 6.47, 0.00, -0.00, 0.00, 0.00, -254.44, 12.52, 27.56, 0.00, 0.00
5.618435382843018, -0.09, 1.57, 0.96, 0.53, 1.42, -4.93, 89.95, 54.95, 30.31, 81.47, 5.82, 0.00, -0.00, 0.00, 0.00, -229.20, 6.18, 21.22, -0.00, 0.00
5.659433126449585, -0.06, 1.57, 0.96, 0.53, 1.42, -3.68, 89.95, 54.95, 30.31, 81.47, 5.24, 0.00, -0.00, 0.00, 0.00, -206.44, 1.08, 16.11, 0.00, 0.00
5.697949171066284, -0.04, 1.57, 0.96, 0.53, 1.42, -2.56, 89.95, 54.95, 30.31, 81.47, 4.72, 0.00, 0.00, -0.00, 0.00, -185.93, -2.91, 12.06, 0.00, 0.00
5.7319512367248535, -0.03, 1.57, 0.96, 0.53, 1.42, -1.54, 89.95, 54.95, 30.31, 81.47, 4.25, 0.00, 0.00, -0.00, 0.00, -167.45, -6.45, 8.57, -0.00, 0.00
5.772354364395142, -0.01, 1.56, 0.96, 0.53, 1.42, -0.63, 89.49, 54.95, 30.31, 81.47, 3.82, -1.96, 0.00, -0.00, 0.00, -150.80, -869.53, -365.38, -0.00, 0.00
5.8333330154418945, 0.00, 1.54, 0.96, 0.53, 1.42, 0.19, 88.21, 54.95, 30.31, 81.47, 3.44, -5.34, 0.00, -0.00, 0.00, -127.12, -1489.90, -632.75, -0.00, 0.00
5.8713343143463135, 0.02, 1.51, 0.96, 0.53, 1.42, 0.93, 86.68, 54.95, 30.31, 81.47, 3.09, -6.39, 0.00, -0.00, 0.00, -102.56, -477.45, -186.85, -0.00, 0.00
5.911332130432129, 0.03, 1.49, 0.96, 0.53, 1.42, 1.59, 85.22, 54.95, 30.31, 81.47, 2.79, -6.15, -0.00, 0.00, 0.00, -91.86, 87.14, 60.86, 0.00, 0.00
5.947345495223999, 0.04, 1.45, 0.96, 0.53, 1.42, 2.19, 83.33, 54.95, 30.31, 81.47, 2.51, -7.92, 0.00, -0.00, 0.00, -86.54, -793.15, -320.90, -0.00, 0.00
5.985481262207031, 0.05, 1.42, 0.96, 0.53, 1.42, 2.73, 81.34, 54.95, 30.31, 81.47, 2.26, -8.32, 0.00, -0.00, 0.00, -76.74, -197.63, -54.53, -0.00, 0.00
6.023592948913574, 0.06, 1.39, 0.96, 0.53, 1.42, 3.22, 79.46, 54.95, 30.31, 81.47, 2.03, -7.88, -0.00, 0.00, 0.00, -71.76, 165.74, 104.25, 0.00, 0.00
6.062029838562012, 0.06, 1.36, 0.96, 0.53, 1.42, 3.65, 77.67, 54.95, 30.31, 81.47, 1.83, -7.49, -0.00, 0.00, 0.00, -68.33, 146.58, 92.62, 0.00, 0.00
6.097028493881226, 0.07, 1.32, 0.96, 0.53, 1.42, 4.05, 75.68, 54.95, 30.31, 81.47, 1.64, -8.33, 0.00, -0.00, 0.00, -64.43, -391.85, -142.60, -0.00, 0.00
6.1330296993255615, 0.08, 1.29, 0.96, 0.53, 1.42, 4.40, 73.70, 54.95, 30.31, 81.47, 1.48, -8.29, 0.00, -0.00, 0.00, -59.35, -9.11, 27.48, 0.00, 0.00
6.165029525756836, 0.08, 1.26, 0.96, 0.53, 1.42, 4.72, 71.92, 54.95, 30.31, 81.47, 1.33, -7.46, -0.00, 0.00, 0.00, -55.48, 336.21, 175.78, 0.00, 0.00
6.205549240112305, 0.09, 1.23, 0.96, 0.53, 1.42, 5.00, 70.23, 54.95, 30.31, 81.47, 1.20, -7.11, -0.00, 0.00, 0.00, -51.95, 126.95, 79.86, 0.00, 0.00
6.239550590515137, 0.09, 1.20, 0.96, 0.53, 1.42, 5.26, 68.60, 54.95, 30.31, 81.47, 1.08, -6.80, -0.00, 0.00, 0.00, -48.05, 111.86, 70.97, 0.00, 0.00
6.280554294586182, 0.10, 1.17, 0.96, 0.53, 1.42, 5.49, 67.14, 54.95, 30.31, 81.47, 0.97, -6.12, -0.00, 0.00, 0.00, -44.22, 272.03, 138.02, 0.00, 0.00
6.321552753448486, 0.10, 1.15, 0.96, 0.53, 1.42, 5.70, 65.64, 54.95, 30.31, 81.47, 0.87, -6.30, 0.00, -0.00, 0.00, -40.54, -104.54, -28.25, -0.00, 0.00
6.363555908203125, 0.10, 1.11, 0.96, 0.53, 1.42, 5.89, 63.72, 54.95, 30.31, 81.47, 0.79, -8.05, 0.00, -0.00, 0.00, -36.98, -791.89, -324.17, -0.00, 0.00
6.401549816131592, 0.11, 1.07, 0.96, 0.53, 1.42, 6.06, 61.51, 54.95, 30.31, 81.47, 0.71, -9.23, 0.00, -0.00, 0.00, -33.91, -543.11, -206.84, -0.00, 0.00
6.447551727294922, 0.11, 1.04, 0.96, 0.53, 1.42, 6.21, 59.44, 54.95, 30.31, 81.47, 0.64, -8.70, -0.00, 0.00, 0.00, -31.32, 202.10, 122.71, 0.00, 0.00
6.493070363998413, 0.11, 1.00, 0.96, 0.53, 1.42, 6.35, 57.57, 54.95, 30.31, 81.47, 0.57, -7.83, -0.00, 0.00, 0.00, -28.62, 353.72, 184.08, 0.00, 0.00
6.5266313552856445, 0.11, 0.98, 0.96, 0.53, 1.42, 6.47, 55.88, 54.95, 30.31, 81.47, 0.52, -7.05, -0.00, 0.00, 0.00, -25.89, 316.67, 162.01, 0.00, 0.00
6.5596301555633545, 0.11, 0.95, 0.96, 0.53, 1.42, 6.58, 54.37, 54.95, 30.31, 81.47, 0.46, -6.34, -0.00, 0.00, 0.00, -23.27, 283.25, 142.63, 0.00, 0.00
6.5956315994262695, 0.12, 0.93, 0.96, 0.53, 1.42, 6.68, 53.01, 54.95, 30.31, 81.47, 0.42, -5.71, -0.00, 0.00, 0.00, -20.84, 253.18, 125.65, 0.00, 0.00
6.629635572433472, 0.12, 0.90, 0.96, 0.53, 1.42, 6.77, 51.78, 54.95, 30.31, 81.47, 0.38, -5.14, -0.00, 0.00, 0.00, -18.60, 226.06, 110.67, 0.00, 0.00
6.668631315231323, 0.12, 0.88, 0.96, 0.53, 1.42, 6.85, 50.67, 54.95, 30.31, 81.47, 0.34, -4.63, -0.00, 0.00, 0.00, -16.56, 201.59, 97.44, 0.00, 0.00
6.708633184432983, 0.12, 0.87, 0.96, 0.53, 1.42, 6.92, 49.68, 54.95, 30.31, 81.47, 0.30, -4.16, -0.00, 0.00, 0.00, -14.73, 179.60, 85.80, 0.00, 0.00
6.745630979537964, 0.12, 0.85, 0.96, 0.53, 1.42, 6.99, 48.50, 54.95, 30.31, 81.47, 0.27, -4.94, 0.00, -0.00, 0.00, -13.10, -361.36, -149.35, -0.00, 0.00
6.784635782241821, 0.12, 0.83, 0.96, 0.53, 1.42, 7.05, 47.35, 54.95, 30.31, 81.47, 0.25, -4.84, -0.00, 0.00, 0.00, -11.92, 19.39, 17.62, 0.00, 0.00
6.827628135681152, 0.12, 0.80, 0.96, 0.53, 1.42, 7.10, 46.12, 54.95, 30.31, 81.47, 0.22, -5.15, 0.00, -0.00, 0.00, -10.66, -158.04, -59.38, -0.00, 0.00
6.868631839752197, 0.12, 0.78, 0.96, 0.53, 1.42, 7.15, 44.92, 54.95, 30.31, 81.47, 0.20, -5.03, -0.00, 0.00, 0.00, -9.60, 28.92, 22.36, 0.00, 0.00
6.904629707336426, 0.13, 0.77, 0.96, 0.53, 1.42, 7.19, 43.84, 54.95, 30.31, 81.47, 0.18, -4.53, -0.00, 0.00, 0.00, -8.56, 197.93, 94.71, 0.00, 0.00
6.944630146026611, 0.13, 0.75, 0.96, 0.53, 1.42, 7.23, 42.86, 54.95, 30.31, 81.47, 0.16, -4.08, -0.00, 0.00, 0.00, -7.55, 176.42, 83.36, 0.00, 0.00
6.98464035987854, 0.13, 0.73, 0.96, 0.53, 1.42, 7.27, 41.99, 54.95, 30.31, 81.47, 0.15, -3.67, -0.00, 0.00, 0.00, -6.66, 157.02, 73.31, 0.00, 0.00
7.0226287841796875, 0.13, 0.72, 0.96, 0.53, 1.42, 7.30, 41.20, 54.95, 30.31, 81.47, 0.13, -3.30, -0.00, 0.00, 0.00, -5.87, 139.52, 64.38, 0.00, 0.00
7.057631254196167, 0.13, 0.71, 0.96, 0.53, 1.42, 7.33, 40.49, 54.95, 30.31, 81.47, 0.12, -2.97, -0.00, 0.00, 0.00, -5.18, 123.82, 56.49, 0.00, 0.00
7.1046319007873535, 0.13, 0.70, 0.96, 0.53, 1.42, 7.35, 39.85, 54.95, 30.31, 81.47, 0.11, -2.67, -0.00, 0.00, 0.00, -4.58, 109.64, 49.46, 0.00, 0.00
7.150630235671997, 0.13, 0.69, 0.96, 0.53, 1.42, 7.37, 39.28, 54.95, 30.31, 81.47, 0.10, -2.41, -0.00, 0.00, 0.00, -4.05, 96.84, 43.18, 0.00, 0.00
7.202636957168579, 0.13, 0.68, 0.96, 0.53, 1.42, 7.39, 38.76, 54.95, 30.31, 81.47, 0.09, -2.17, -0.00, 0.00, 0.00, -3.58, 85.38, 37.64, 0.00, 0.00
7.258630275726318, 0.13, 0.67, 0.96, 0.53, 1.42, 7.41, 38.29, 54.95, 30.31, 81.47, 0.08, -1.95, -0.00, 0.00, 0.00, -3.17, 75.03, 32.67, 0.00, 0.00
7.304628610610962, 0.13, 0.66, 0.96, 0.53, 1.42, 7.43, 37.87, 54.95, 30.31, 81.47, 0.07, -1.75, -0.00, 0.00, 0.00, -2.82, 65.67, 28.22, 0.00, 0.00
7.352631092071533, 0.13, 0.65, 0.96, 0.53, 1.42, 7.44, 37.50, 54.95, 30.31, 81.47, 0.06, -1.58, -0.00, 0.00, 0.00, -2.50, 57.31, 24.28, 0.00, 0.00
7.404631853103638, 0.13, 0.65, 0.96, 0.53, 1.42, 7.46, 37.16, 54.95, 30.31, 81.47, 0.06, -1.42, -0.00, 0.00, 0.00, -2.22, 49.75, 20.75, 0.00, 0.00
7.450630187988281, 0.13, 0.64, 0.96, 0.53, 1.42, 7.47, 36.85, 54.95, 30.31, 81.47, 0.05, -1.28, -0.00, 0.00, 0.00, -1.98, 42.92, 17.57, 0.00, 0.00
7.506628751754761, 0.13, 0.64, 0.96, 0.53, 1.42, 7.48, 36.58, 54.95, 30.31, 81.47, 0.05, -1.15, -0.00, 0.00, 0.00, -1.76, 36.83, 14.76, 0.00, 0.00
7.554736375808716, 0.13, 0.63, 0.96, 0.53, 1.42, 7.49, 36.33, 54.95, 30.31, 81.47, 0.04, -1.04, 0.00, -0.00, 0.00, -1.57, 31.31, 12.23, 0.00, 0.00
7.597736120223999, 0.13, 0.63, 0.96, 0.53, 1.42, 7.50, 36.11, 54.95, 30.31, 81.47, 0.04, -0.93, -0.00, 0.00, 0.00, -1.40, 26.32, 9.94, 0.00, 0.00
7.643736362457275, 0.13, 0.63, 0.96, 0.53, 1.42, 7.51, 35.91, 54.95, 30.31, 81.47, 0.03, -0.84, 0.00, -0.00, 0.00, -1.25, 21.88, 7.93, 0.00, 0.00
7.678736686706543, 0.13, 0.62, 0.96, 0.53, 1.42, 7.51, 35.73, 54.95, 30.31, 81.47, 0.03, -0.76, -0.00, 0.00, 0.00, -1.11, 17.83, 6.09, 0.00, 0.00
7.720735788345337, 0.13, 0.62, 0.96, 0.53, 1.42, 7.52, 35.57, 54.95, 30.31, 81.47, 0.03, -0.68, -0.00, 0.00, 0.00, -1.00, 14.20, 4.45, 0.00, 0.00
7.752734899520874, 0.13, 0.62, 0.96, 0.53, 1.42, 7.53, 35.42, 54.95, 30.31, 81.47, 0.02, -0.61, 0.00, -0.00, 0.00, -0.89, 10.98, 3.01, 0.00, 0.00
7.786736965179443, 0.13, 0.62, 0.96, 0.53, 1.42, 7.53, 35.29, 54.95, 30.31, 81.47, 0.02, -0.55, -0.00, 0.00, 0.00, -0.80, 8.02, 1.68, 0.00, 0.00
7.821736812591553, 0.13, 0.61, 0.96, 0.53, 1.42, 7.54, 35.17, 54.95, 30.31, 81.47, 0.02, -0.50, -0.00, 0.00, 0.00, -0.71, 5.38, 0.50, 0.00, 0.00
7.8557374477386475, 0.13, 0.61, 0.96, 0.53, 1.42, 7.54, 35.06, 54.95, 30.31, 81.47, 0.02, -0.45, 0.00, -0.00, 0.00, -0.64, 3.02, -0.55, 0.00, 0.00
7.889736175537109, 0.13, 0.61, 0.96, 0.53, 1.42, 7.54, 34.97, 54.95, 30.31, 81.47, 0.02, -0.40, -0.00, 0.00, 0.00, -0.57, 0.84, -1.53, 0.00, 0.00
7.924736261367798, 0.13, 0.61, 0.96, 0.53, 1.42, 7.55, 34.88, 54.95, 30.31, 81.47, 0.01, -0.36, 0.00, -0.00, 0.00, -0.51, -0.91, -2.27, 0.00, 0.00
7.967761039733887, 0.13, 0.61, 0.96, 0.53, 1.42, 7.55, 34.80, 54.95, 30.31, 81.47, 0.01, -0.33, 0.00, -0.00, 0.00, -0.46, -2.79, -3.13, 0.00, 0.00
8.00290322303772, 0.13, 0.61, 0.96, 0.53, 1.42, 7.55, 34.73, 54.95, 30.31, 81.47, 0.01, -0.29, 0.00, -0.00, 0.00, -0.41, -4.37, -3.83, 0.00, 0.00
8.03490424156189, 0.13, 0.61, 0.96, 0.53, 1.42, 7.56, 34.67, 54.95, 30.31, 81.47, 0.01, -0.26, 0.00, -0.00, 0.00, -0.37, -5.79, -4.46, 0.00, 0.00
8.069905042648315, 0.13, 0.60, 0.96, 0.53, 1.42, 7.56, 34.61, 54.95, 30.31, 81.47, 0.01, -0.24, 0.00, -0.00, 0.00, -0.33, -7.05, -5.02, 0.00, 0.00
8.102904081344604, 0.13, 0.60, 0.96, 0.53, 1.42, 7.56, 34.56, 54.95, 30.31, 81.47, 0.01, -0.21, 0.00, -0.00, 0.00, -0.30, -8.16, -5.51, 0.00, 0.00
8.136904001235962, 0.13, 0.60, 0.96, 0.53, 1.42, 7.56, 34.52, 54.95, 30.31, 81.47, 0.01, -0.19, 0.00, -0.00, 0.00, -0.27, -9.19, -5.96, 0.00, 0.00
8.173908948898315, 0.13, 0.60, 0.96, 0.53, 1.42, 7.56, 34.48, 54.95, 30.31, 81.47, 0.01, -0.17, 0.00, -0.00, 0.00, -0.24, -10.14, -6.39, 0.00, 0.00
8.20790958404541, 0.13, 0.60, 0.96, 0.53, 1.42, 7.57, 34.44, 54.95, 30.31, 81.47, 0.01, -0.16, 0.00, -0.00, 0.00, -0.22, -10.94, -6.73, 0.00, 0.00
8.240906000137329, 0.13, 0.60, 0.96, 0.53, 1.42, 7.57, 34.41, 54.95, 30.31, 81.47, 0.01, -0.14, 0.00, -0.00, 0.00, -0.19, -11.69, -7.06, 0.00, 0.00
8.275906085968018, 0.13, 0.60, 0.96, 0.53, 1.42, 7.57, 34.38, 54.95, 30.31, 81.47, 0.01, -0.13, 0.00, -0.00, 0.00, -0.17, -12.36, -7.35, 0.00, 0.00
8.315905809402466, 0.13, 0.60, 0.96, 0.53, 1.42, 7.57, 34.35, 54.95, 30.31, 81.47, 0.00, -0.11, 0.00, -0.00, 0.00, -0.16, -12.97, -7.62, 0.00, 0.00
8.34990406036377, 0.13, 0.60, 0.96, 0.53, 1.42, 7.57, 34.32, 54.95, 30.31, 81.47, 0.00, -0.10, 0.00, -0.00, 0.00, -0.14, -13.51, -7.86, 0.00, 0.00
8.379902839660645, 0.13, 0.60, 0.96, 0.53, 1.42, 7.57, 34.30, 54.95, 30.31, 81.47, 0.00, -0.09, 0.00, -0.00, 0.00, -0.13, -14.00, -8.07, 0.00, 0.00
8.417903184890747, 0.13, 0.60, 0.96, 0.53, 1.42, 7.57, 34.28, 54.95, 30.31, 81.47, 0.00, -0.08, 0.00, -0.00, 0.00, -0.11, -14.47, -8.29, 0.00, 0.00
8.45190715789795, 0.13, 0.60, 0.96, 0.53, 1.42, 7.57, 34.27, 54.95, 30.31, 81.47, 0.00, -0.07, 0.00, -0.00, 0.00, -0.10, -14.84, -8.44, 0.00, 0.00
8.4949049949646, 0.13, 0.60, 0.96, 0.53, 1.42, 7.57, 34.25, 54.95, 30.31, 81.47, 0.00, -0.07, 0.00, -0.00, 0.00, -0.09, -15.19, -8.59, 0.00, 0.00
8.538905382156372, 0.13, 0.60, 0.96, 0.53, 1.42, 7.57, 34.23, 54.95, 30.31, 81.47, 0.00, -0.06, 0.00, -0.00, 0.00, -0.08, -15.52, -8.74, 0.00, 0.00
8.576905012130737, 0.13, 0.60, 0.96, 0.53, 1.42, 7.57, 34.22, 54.95, 30.31, 81.47, 0.00, -0.05, 0.00, -0.00, 0.00, -0.07, -15.81, -8.86, 0.00, 0.00
8.617905616760254, 0.13, 0.60, 0.96, 0.53, 1.42, 7.57, 34.21, 54.95, 30.31, 81.47, 0.00, -0.05, 0.00, -0.00, 0.00, -0.07, -16.07, -8.98, 0.00, 0.00
8.649904251098633, 0.13, 0.60, 0.96, 0.53, 1.42, 7.58, 34.20, 54.95, 30.31, 81.47, 0.00, -0.04, 0.00, -0.00, 0.00, -0.06, -16.30, -9.08, 0.00, 0.00
8.689904689788818, 0.13, 0.60, 0.96, 0.53, 1.42, 7.58, 34.19, 54.95, 30.31, 81.47, 0.00, -0.04, 0.00, -0.00, 0.00, -0.05, -16.51, -9.17, 0.00, 0.00
8.725905418395996, 0.13, 0.60, 0.96, 0.53, 1.42, 7.58, 34.18, 54.95, 30.31, 81.47, 0.00, -0.04, 0.00, -0.00, 0.00, -0.05, -16.70, -9.25, 0.00, 0.00
8.756902694702148, 0.13, 0.60, 0.96, 0.53, 1.42, 7.58, 34.17, 54.95, 30.31, 81.47, 0.00, -0.03, 0.00, -0.00, 0.00, -0.04, -16.87, -9.33, 0.00, 0.00
8.790462255477905, 0.13, 0.60, 0.96, 0.53, 1.42, 7.58, 34.17, 54.95, 30.31, 81.47, 0.00, -0.03, 0.00, -0.00, 0.00, -0.04, -17.03, -9.40, 0.00, 0.00
8.824345588684082, 0.13, 0.60, 0.96, 0.53, 1.42, 7.58, 34.16, 54.95, 30.31, 81.47, 0.00, -0.03, 0.00, -0.00, 0.00, -0.04, -17.16, -9.46, 0.00, 0.00
8.864348411560059, 0.13, 0.60, 0.96, 0.53, 1.42, 7.58, 34.16, 54.95, 30.31, 81.47, 0.00, -0.02, 0.00, -0.00, 0.00, -0.03, -17.29, -9.51, 0.00, 0.00
8.909345865249634, 0.13, 0.60, 0.96, 0.53, 1.42, 7.58, 34.15, 54.95, 30.31, 81.47, 0.00, -0.02, 0.00, -0.00, 0.00, -0.03, -17.40, -9.56, 0.00, 0.00
8.945348262786865, 0.13, 0.60, 0.96, 0.53, 1.42, 7.58, 34.15, 54.95, 30.31, 81.47, 0.00, -0.02, 0.00, -0.00, 0.00, -0.03, -17.50, -9.60, 0.00, 0.00
8.979347229003906, 0.13, 0.60, 0.96, 0.53, 1.42, 7.58, 34.14, 54.95, 30.31, 81.47, 0.00, -0.02, 0.00, -0.00, 0.00, -0.02, -17.59, -9.64, 0.00, 0.00
9.014352083206177, 0.13, 0.60, 0.96, 0.53, 1.42, 7.58, 34.14, 54.95, 30.31, 81.47, 0.00, -0.02, 0.00, -0.00, 0.00, -0.02, -17.67, -9.68, 0.00, 0.00
9.04834532737732, 0.13, 0.60, 0.96, 0.53, 1.42, 7.58, 34.13, 54.95, 30.31, 81.47, 0.00, -0.01, 0.00, -0.00, 0.00, -0.02, -17.75, -9.71, 0.00, 0.00
9.087345600128174, 0.13, 0.60, 0.96, 0.53, 1.42, 7.58, 34.13, 54.95, 30.31, 81.47, 0.00, -0.01, 0.00, -0.00, 0.00, -0.02, -17.81, -9.74, 0.00, 0.00
9.120346784591675, 0.13, 0.60, 0.96, 0.53, 1.42, 7.58, 34.13, 54.95, 30.31, 81.47, 0.00, -0.01, 0.00, -0.00, 0.00, -0.02, -17.87, -9.77, 0.00, 0.00
9.155346155166626, 0.13, 0.60, 0.96, 0.53, 1.42, 7.58, 34.13, 54.95, 30.31, 81.47, 0.00, -0.01, 0.00, -0.00, 0.00, -0.01, -17.93, -9.79, 0.00, 0.00
9.190345287322998, 0.13, 0.60, 0.96, 0.53, 1.42, 7.58, 34.12, 54.95, 30.31, 81.47, 0.00, -0.01, 0.00, -0.00, 0.00, -0.01, -17.98, -9.81, 0.00, 0.00
9.225346326828003, 0.13, 0.60, 0.96, 0.53, 1.42, 7.58, 34.12, 54.95, 30.31, 81.47, 0.00, -0.01, 0.00, -0.00, 0.00, -0.01, -18.02, -9.83, 0.00, 0.00
9.265347242355347, 0.13, 0.60, 0.96, 0.53, 1.42, 7.58, 34.12, 54.95, 30.31, 81.47, 0.00, -0.01, 0.00, -0.00, 0.00, -0.01, -18.06, -9.85, 0.00, 0.00
9.299346208572388, 0.13, 0.60, 0.96, 0.53, 1.42, 7.58, 34.12, 54.95, 30.31, 81.47, 0.00, -0.01, 0.00, -0.00, 0.00, -0.01, -18.09, -9.86, 0.00, 0.00
9.336346626281738, 0.13, 0.60, 0.96, 0.53, 1.42, 7.58, 34.12, 54.95, 30.31, 81.47, 0.00, -0.01, 0.00, -0.00, 0.00, -0.01, -18.12, -9.87, 0.00, 0.00
9.370360374450684, 0.13, 0.60, 0.96, 0.53, 1.42, 7.58, 34.12, 54.95, 30.31, 81.47, 0.00, -0.01, 0.00, -0.00, 0.00, -0.01, -18.15, -9.89, 0.00, 0.00
9.405345678329468, 0.13, 0.60, 0.96, 0.53, 1.42, 7.58, 34.12, 54.95, 30.31, 81.47, 0.00, -0.00, 0.00, -0.00, 0.00, -0.01, -18.18, -9.90, 0.00, 0.00
9.44034719467163, 0.13, 0.60, 0.96, 0.53, 1.42, 7.58, 34.11, 54.95, 30.31, 81.47, 0.00, -0.00, 0.00, -0.00, 0.00, -0.01, -18.20, -9.91, 0.00, 0.00
9.472347021102905, 0.13, 0.60, 0.96, 0.53, 1.42, 7.58, 34.11, 54.95, 30.31, 81.47, 0.00, -0.00, 0.00, -0.00, 0.00, -0.01, -18.22, -9.92, 0.00, 0.00
9.507345199584961, 0.13, 0.60, 0.96, 0.53, 1.42, 7.58, 34.11, 54.95, 30.31, 81.47, 0.00, -0.00, 0.00, -0.00, 0.00, -0.00, -18.24, -9.93, 0.00, 0.00
9.539344787597656, 0.13, 0.60, 0.96, 0.53, 1.42, 7.58, 34.11, 54.95, 30.31, 81.47, 0.00, -0.00, 0.00, -0.00, 0.00, -0.00, -18.26, -9.93, 0.00, 0.00
9.577348709106445, 0.13, 0.60, 0.96, 0.53, 1.42, 7.58, 34.11, 54.95, 30.31, 81.47, 0.00, -0.00, 0.00, -0.00, 0.00, -0.00, -18.27, -9.94, 0.00, 0.00
9.61886477470398, 0.13, 0.60, 0.96, 0.53, 1.42, 7.58, 34.11, 54.95, 30.31, 81.47, 0.00, -0.00, 0.00, -0.00, 0.00, -0.00, -18.29, -9.95, 0.00, 0.00
9.65486478805542, 0.13, 0.60, 0.96, 0.53, 1.42, 7.58, 34.11, 54.95, 30.31, 81.47, 0.00, -0.00, 0.00, -0.00, 0.00, -0.00, -18.30, -9.95, 0.00, 0.00
9.689866065979004, 0.13, 0.60, 0.96, 0.53, 1.42, 7.58, 34.11, 54.95, 30.31, 81.47, 0.00, -0.00, 0.00, -0.00, 0.00, -0.00, -18.31, -9.96, 0.00, 0.00
9.728863954544067, 0.13, 0.60, 0.96, 0.53, 1.42, 7.58, 34.11, 54.95, 30.31, 81.47, 0.00, -0.00, 0.00, -0.00, 0.00, -0.00, -18.32, -9.96, 0.00, 0.00
9.768862009048462, 0.13, 0.60, 0.96, 0.53, 1.42, 7.58, 34.11, 54.95, 30.31, 81.47, 0.00, -0.00, 0.00, -0.00, 0.00, -0.00, -18.33, -9.96, 0.00, 0.00
9.805869340896606, 0.13, 0.60, 0.96, 0.53, 1.42, 7.58, 34.11, 54.95, 30.31, 81.47, 0.00, -0.00, 0.00, -0.00, 0.00, -0.00, -18.34, -9.97, 0.00, 0.00
9.8473801612854, 0.13, 0.60, 0.96, 0.53, 1.42, 7.58, 34.11, 54.95, 30.31, 81.47, 0.00, -0.00, 0.00, -0.00, 0.00, -0.00, -18.34, -9.97, 0.00, 0.00
9.882379055023193, 0.13, 0.60, 0.96, 0.53, 1.42, 7.58, 34.11, 54.95, 30.31, 81.47, 0.00, -0.00, 0.00, -0.00, 0.00, -0.00, -18.35, -9.97, 0.00, 0.00
9.91646671295166, 0.13, 0.60, 0.96, 0.53, 1.42, 7.58, 34.11, 54.95, 30.31, 81.47, 0.00, -0.00, 0.00, -0.00, 0.00, -0.00, -18.36, -9.98, 0.00, 0.00
9.953495502471924, 0.13, 0.60, 0.96, 0.53, 1.42, 7.58, 34.11, 54.95, 30.31, 81.47, 0.00, -0.00, 0.00, -0.00, 0.00, -0.00, -18.36, -9.98, 0.00, 0.00
9.99049425125122, 0.13, 0.60, 0.96, 0.53, 1.42, 7.58, 34.11, 54.95, 30.31, 81.47, 0.00, -0.00, 0.00, -0.00, 0.00, -0.00, -18.37, -9.98, 0.00, 0.00
10.03249454498291, 0.13, 0.60, 0.96, 0.53, 1.42, 7.58, 34.11, 54.95, 30.31, 81.47, 0.00, -0.00, 0.00, -0.00, 0.00, -0.00, -18.37, -9.98, 0.00, 0.00
10.065494298934937, 0.13, 0.60, 0.96, 0.53, 1.42, 7.58, 34.11, 54.95, 30.31, 81.47, 0.00, -0.00, 0.00, -0.00, 0.00, -0.00, -18.37, -9.98, 0.00, 0.00
10.100495100021362, 0.13, 0.60, 0.96, 0.53, 1.42, 7.58, 34.11, 54.95, 30.31, 81.47, 0.00, -0.00, 0.00, -0.00, 0.00, -0.00, -18.38, -9.99, 0.00, 0.00
10.136494874954224, 0.13, 0.60, 0.96, 0.53, 1.42, 7.58, 34.11, 54.95, 30.31, 81.47, 0.00, -0.00, 0.00, -0.00, 0.00, -0.00, -18.38, -9.99, 0.00, 0.00
10.178494215011597, 0.13, 0.60, 0.96, 0.53, 1.42, 7.58, 34.11, 54.95, 30.31, 81.47, 0.00, -0.00, 0.00, -0.00, 0.00, -0.00, -18.38, -9.99, 0.00, 0.00
10.221501350402832, 0.13, 0.60, 0.96, 0.53, 1.42, 7.58, 34.11, 54.95, 30.31, 81.47, 0.00, -0.00, 0.00, -0.00, 0.00, -0.00, -18.39, -9.99, 0.00, 0.00
10.25349497795105, 0.13, 0.60, 0.96, 0.53, 1.42, 7.58, 34.11, 54.95, 30.31, 81.47, 0.00, -0.00, 0.00, -0.00, 0.00, -0.00, -18.39, -9.99, 0.00, 0.00
10.289494514465332, 0.13, 0.60, 0.96, 0.53, 1.42, 7.58, 34.11, 54.95, 30.31, 81.47, 0.00, -0.00, 0.00, -0.00, 0.00, -0.00, -18.39, -9.99, 0.00, 0.00
10.325494527816772, 0.13, 0.60, 0.96, 0.53, 1.42, 7.58, 34.11, 54.95, 30.31, 81.47, 0.00, -0.00, 0.00, -0.00, 0.00, -0.00, -18.39, -9.99, 0.00, 0.00
10.361493825912476, 0.13, 0.60, 0.96, 0.53, 1.42, 7.58, 34.11, 54.95, 30.31, 81.47, 0.00, -0.00, 0.00, -0.00, 0.00, -0.00, -18.39, -9.99, 0.00, 0.00
10.398494482040405, 0.13, 0.60, 0.96, 0.53, 1.42, 7.58, 34.11, 54.95, 30.31, 81.47, 0.00, -0.00, 0.00, -0.00, 0.00, -0.00, -18.40, -9.99, 0.00, 0.00
10.433497428894043, 0.13, 0.60, 0.96, 0.53, 1.42, 7.58, 34.11, 54.95, 30.31, 81.47, 0.00, -0.00, 0.00, -0.00, 0.00, -0.00, -18.40, -9.99, 0.00, 0.00
10.46749472618103, 0.13, 0.60, 0.96, 0.53, 1.42, 7.58, 34.11, 54.95, 30.31, 81.47, 0.00, -0.00, 0.00, -0.00, 0.00, -0.00, -18.40, -9.99, 0.00, 0.00
10.500497817993164, 0.13, 0.60, 0.96, 0.53, 1.42, 7.58, 34.11, 54.95, 30.31, 81.47, 0.00, -0.00, 0.00, -0.00, 0.00, -0.00, -18.40, -9.99, 0.00, 0.00
10.537495136260986, 0.13, 0.60, 0.96, 0.53, 1.42, 7.58, 34.11, 54.95, 30.31, 81.47, 0.00, -0.00, 0.00, -0.00, 0.00, -0.00, -18.40, -9.99, 0.00, 0.00
10.569495916366577, 0.13, 0.60, 0.96, 0.53, 1.42, 7.58, 34.11, 54.95, 30.31, 81.47, 0.00, -0.00, 0.00, -0.00, 0.00, -0.00, -18.40, -10.00, 0.00, 0.00
10.603494644165039, 0.13, 0.60, 0.96, 0.53, 1.42, 7.58, 34.11, 54.95, 30.31, 81.47, 0.00, -0.00, 0.00, -0.00, 0.00, -0.00, -18.40, -10.00, 0.00, 0.00
10.639760732650757, 0.13, 0.60, 0.96, 0.53, 1.42, 7.58, 34.11, 54.95, 30.31, 81.47, 0.00, -0.00, 0.00, -0.00, 0.00, -0.00, -18.40, -10.00, 0.00, 0.00
