sulimanbadour1/Project_S/control/InverseKinematics/plotting/robot_joint_angles.csv
Time, Joint 1, Joint 2, Joint 3, Joint 4, Joint 5
0.0, -3.141918, 1.57096, 0.9590584932073033, 0.5289714409863684, 1.4220324037667882
0.005296468734741211, -3.1418524, 1.5709279999999999, 0.959079577646505, 0.5289625101550266, 1.4220451791442896
0.010776281356811523, -3.14179992, 1.5709023999999998, 0.9590936224517105, 0.5289567826549233, 1.4220538679892571
0.01573657989501953, -3.141757936, 1.57088192, 0.9591028327155305, 0.528953423911417, 1.4220598841103198
0.020743131637573242, -3.1417243488, 1.570865536, 0.9591083943366302, 0.528951836183171, 1.4220638696630337
0.025817155838012695, -3.14169747904, 1.5708524287999999, 0.9591112186924293, 0.5289515552403942, 1.422066314324501
0.03163719177246094, -3.141675983232, 1.5708419430399998, 0.9591120161941767, 0.5289522207546095, 1.4220676010351019
0.03725862503051758, -3.1416587865856, 1.5708335544319998, 0.9591113388149711, 0.5289535543659377, 1.4220680286240528
0.042081594467163086, -3.1416450292684797, 1.5708268435455999, 0.9591096134319468, 0.5289553422973395, 1.4220678293984417
0.0467836856842041, -3.1416340234147837, 1.57082147483648, 0.9591071683202299, 0.5289574215465944, 1.422067183126146
0.05202436447143555, -3.1416252187318268, 1.570817179869184, 0.9591042541997282, 0.5289596689290765, 1.4220662281539835
0.057569265365600586, -3.1416181749854615, 1.5708137438953471, 0.9591010609395081, 0.5289619923922164, 1.4220650702411135
0.06256914138793945, -3.141612539988369, 1.5708109951162776, 0.9590977308016133, 0.5289643241392917, 1.4220637895707
0.06784224510192871, -3.141608031990695, 1.5708087960930222, 0.9590943689284488, 0.5289666151934612, 1.422062446309665
0.07355237007141113, -3.141604425592556, 1.5708070368744178, 0.9590910516358191, 0.5289688311074935, 1.4220610850118591
0.07857584953308105, -3.1416015404740447, 1.5708056294995343, 0.9590878329602064, 0.5289709485842009, 1.4220597381004354
0.08357071876525879, -3.1415992323792357, 1.5708045035996274, 0.9590847498181818, 0.5289729528201716, 1.4220584286176048
0.08900260925292969, -3.1415973859033883, 1.5708036028797019, 0.9590818260633862, 0.5289748354233998, 1.4220571723919253
0.0948483943939209, -3.1415959087227106, 1.5708028823037614, 0.9590790756686415, 0.5289765927857691, 1.4220559797428807
0.10012054443359375, -3.1415947269781683, 1.5708023058430092, 0.9590765052145305, 0.5289782248155788, 1.4220548568182272
0.10454416275024414, -3.1415937815825346, 1.5708018446744074, 0.959074115828879, 0.5289797339546481, 1.4220538066401998
0.10999703407287598, -3.141593025266028, 1.5708014757395259, 0.9590719046921113, 0.5289811244199758, 1.422052829921183
0.11587762832641602, -3.141592420212822, 1.5708011805916207, 0.9590698661999403, 0.5289824016222413, 1.4220519256970947
0.12057876586914062, -3.141591936170258, 1.5708009444732964, 0.9590679928560955, 0.5289835717232644, 1.4220510918168636
0.1263737678527832, -3.1415915489362063, 1.5708007555786372, 0.9590662759528354, 0.5289846413023619, 1.422050325318514
0.13115334510803223, -3.141591239148965, 1.5708006044629097, 0.9590647060850622, 0.528985617107784, 1.4220496227160937
0.13623666763305664, -3.141590991319172, 1.5708004835703278, 0.959063273534356, 0.5289865058743772, 1.4220489802166791
0.14224767684936523, -3.1415907930553377, 1.570800386856262, 0.9590619685516798, 0.5289873141925769, 1.4220483938826987
0.1470797061920166, -3.1415906344442703, 1.5708003094850096, 0.9590607815614772, 0.5289880484169768, 1.422047859751649
0.15207958221435547, -3.1415905075554162, 1.5708002475880076, 0.9590597033050999, 0.528988714605221, 1.4220473739227417
0.15745949745178223, -3.141590406044333, 1.570800198070406, 0.9590587249376874, 0.5289893184799511, 1.4220469326180127
0.16296172142028809, -3.1415903248354664, 1.570800158456325, 0.9590578380896005, 0.5289898654081123, 1.422046532223828
0.16851210594177246, -3.141590259868373, 1.57080012676506, 0.9590570349011097, 0.5289903603931722, 1.4220461693174467
0.17305994033813477, -3.1415902078946982, 1.570800101412048, 0.9590563080371358, 0.528990808076791, 1.4220458406822973
0.17857599258422852, -3.1415901663157584, 1.5708000811296385, 0.959055650687339, 0.5289912127472649, 1.4220455433148278
0.18357443809509277, -3.1415901330526066, 1.5708000649037108, 0.9590550565556586, 0.5289915783526742, 1.4220452744251508
0.18857455253601074, -3.1415901064420853, 1.5708000519229686, 0.9590545198424701, 0.5289919085171579, 1.4220450314332145
0.19357538223266602, -3.141590085153668, 1.570800041538375, 0.9590540352217863, 0.5289922065591124, 1.4220448119618272
0.19857454299926758, -3.1415900681229343, 1.5708000332307, 0.9590535978153477, 0.5289924755104114, 1.422044613827561
0.20357656478881836, -3.1415900544983475, 1.5708000265845599, 0.9590532031649944, 0.5289927181359774, 1.4220444350303116
0.20857644081115723, -3.141590043598678, 1.5708000212676478, 0.9590528472043551, 0.528992936953213, 1.4220442737420989
0.2135753631591797, -3.1415900348789423, 1.5708000170141183, 0.9590525262306113, 0.5289931342509446, 1.4220441282955485
0.21857571601867676, -3.141590027903154, 1.5708000136112947, 0.9590522368768831, 0.5289933121076336, 1.4220439971723757
0.22357463836669922, -3.1415900223225233, 1.5708000108890359, 0.9590519760856157, 0.5289934724086978, 1.4220438789921
0.2285757064819336, -3.1415900178580185, 1.5708000087112286, 0.9590517410832196, 0.5289936168628451, 1.422043772501154
0.23357391357421875, -3.1415900142864146, 1.570800006968983, 0.9590515293561229, 0.5289937470173683, 1.4220436765624975
0.23857474327087402, -3.1415900114291317, 1.5708000055751863, 0.9590513386283191, 0.5289938642723871, 1.4220435901457973
0.2435777187347412, -3.1415900091433056, 1.5708000044601491, 0.9590511668404417, 0.5289939698940465, 1.4220435123182193
0.24857401847839355, -3.1415900073146443, 1.5708000035681193, 0.9590510121303581, 0.5289940650266997, 1.4220434422358412
0.25357675552368164, -3.1415900058517154, 1.5708000028544955, 0.9590508728152467, 0.5289941507041168, 1.422043379135685
0.2585792541503906, -3.1415900046813725, 1.5708000022835964, 0.9590507473750985, 0.5289942278597672, 1.4220433223283575
0.26357412338256836, -3.141590003745098, 1.570800001826877, 0.9590506344375785, 0.528994297336229, 1.4220432711912756
0.26857519149780273, -3.1415900029960784, 1.5708000014615016, 0.9590505327641663, 0.5289943598937829, 1.4220432251624469
0.27357983589172363, -3.1415900023968626, 1.5708000011692012, 0.9590504412374973, 0.5289944162182453, 1.4220431837347773
0.2790217399597168, -3.14159000191749, 1.5708000009353609, 0.9590503588498214, 0.5289944669280988, 1.4220431464508712
0.284210205078125, -3.141590001533992, 1.5708000007482887, 0.9590502846924972, 0.5289945125809725, 1.4220431128982898
0.2893807888031006, -3.1415900012271933, 1.570800000598631, 0.9590502179464427, 0.5289945536795255, 1.4220430827052364
0.2946968078613281, -3.1415900009817546, 1.5708000004789047, 0.9590501578734657, 0.5289945906767826, 1.422043055536634
0.30071592330932617, -3.1415900007854036, 1.5708000003831237, 0.9590501038084013, 0.5289946239809689, 1.422043031090564
0.3055899143218994, -3.141590000628323, 1.570800000306499, 0.9590500551519882, 0.5289946539598874, 1.4220430090950393
0.3103930950164795, -3.1415900005026582, 1.5708000002451992, 0.9590500113644194, 0.528994680944879, 1.4220429893050768
0.3156311511993408, -3.1415900004021267, 1.5708000001961593, 0.9590499719595076, 0.5289947052344032, 1.4220429715000515
0.321291446685791, -3.141590000321701, 1.5708000001569273, 0.9590499364994107, 0.5289947270972742, 1.4220429554813008
0.32642197608947754, -3.141590000257361, 1.5708000001255418, 0.9590499045898653, 0.5289947467755842, 1.42204294106996
0.3311452865600586, -3.141590000205889, 1.5708000001004334, 0.959049875875882, 0.528994764487342, 1.422042928105006
0.3366708755493164, -3.1415900001647112, 1.5708000000803468, 0.9590498500378596, 0.5289947804288551, 1.422042916441492
0.3419070243835449, -3.141590000131769, 1.5708000000642774, 0.9590498267880779, 0.5289947947768792, 1.422042905948953
0.34758806228637695, -3.141590000105415, 1.570800000051422, 0.9590498058675345, 0.5289948076905564, 1.4220428965099674
0.3525981903076172, -3.141590000084332, 1.5708000000411375, 0.9590497870430917, 0.5289948193131635, 1.4220428880188605
0.35774779319763184, -3.1415900000674655, 1.57080000003291, 0.9590497701049043, 0.5289948297736878, 1.4220428803805345
0.3629031181335449, -3.1415900000539723, 1.570800000026328, 0.9590497548641012, 0.528994839188248, 1.4220428735094148
0.36864233016967773, -3.141590000043178, 1.5708000000210625, 0.9590497411506953, 0.528994847661374, 1.4220428673284997
0.37370729446411133, -3.141590000034542, 1.57080000001685, 0.9590497288117018, 0.5289948552871611, 1.4220428617685041
0.3786587715148926, -3.1415900000276338, 1.57080000001348, 0.9590497177094411, 0.528994862150309, 1.422042856767089
0.3835434913635254, -3.141590000022107, 1.570800000010784, 0.9590497077200116, 0.5289948683270583, 1.422042852268167
0.388840913772583, -3.1415900000176857, 1.5708000000086273, 0.9590496987319136, 0.5289948738860338, 1.422042848221276
0.39441490173339844, -3.1415900000141486, 1.5708000000069018, 0.95904969064481, 0.5289948788890039, 1.4220428445810172
0.3994121551513672, -3.141590000011319, 1.5708000000055213, 0.959049683368411, 0.5289948833915649, 1.4220428413065473
0.4045236110687256, -3.141590000009055, 1.570800000004417, 0.9590496768214689, 0.5289948874437569, 1.4220428383611228
0.40967798233032227, -3.141590000007244, 1.5708000000035336, 0.959049670930874, 0.5289948910906185, 1.422042835711688
0.41471076011657715, -3.1415900000057952, 1.5708000000028268, 0.9590496656308404, 0.5289948943726862, 1.422042833328507
0.42043328285217285, -3.141590000004636, 1.5708000000022615, 0.959049660862173, 0.528994897326444, 1.4220428311848283
0.4262838363647461, -3.141590000003709, 1.5708000000018092, 0.9590496565716079, 0.5289948999847283, 1.4220428292565883
0.43128180503845215, -3.1415900000029673, 1.5708000000014473, 0.9590496527112183, 0.5289949023770922, 1.4220428275221395
0.4362819194793701, -3.141590000002374, 1.5708000000011577, 0.9590496492378805, 0.5289949045301341, 1.422042825962009
0.441281795501709, -3.1415900000018993, 1.5708000000009261, 0.9590496461127923, 0.528994906467792, 1.4220428245586798
0.44628477096557617, -3.1415900000015196, 1.570800000000741, 0.9590496433010408, 0.5289949082116104, 1.4220428232963944
0.451282262802124, -3.141590000001216, 1.5708000000005928, 0.9590496407712125, 0.528994909780979, 1.422042822160979
0.4562830924987793, -3.1415900000009724, 1.5708000000004743, 0.9590496384950422, 0.5289949111933483, 1.4220428211396836
0.46128201484680176, -3.141590000000778, 1.5708000000003794, 0.9590496364470985, 0.5289949124644234, 1.422042820221039
0.46628332138061523, -3.1415900000006225, 1.5708000000003035, 0.9590496346044991, 0.5289949136083387, 1.4220428193947285
0.4712817668914795, -3.141590000000498, 1.570800000000243, 0.9590496329466557, 0.5289949146378148, 1.4220428186514724
0.4762840270996094, -3.1415900000003987, 1.5708000000001943, 0.9590496314550438, 0.5289949155642998, 1.4220428179829234
0.48128366470336914, -3.1415900000003187, 1.5708000000001554, 0.9590496301129964, 0.5289949163980968, 1.422042817381573
0.4862818717956543, -3.141590000000255, 1.5708000000001243, 0.959049628905517, 0.5289949171484782, 1.4220428168406667
0.49128198623657227, -3.1415900000002037, 1.5708000000000995, 0.959049627819113, 0.5289949178237889, 1.4220428163541299
0.49628210067749023, -3.141590000000163, 1.5708000000000795, 0.9590496268416443, 0.5289949184315391, 1.4220428159164975
0.501284122467041, -3.1415900000001304, 1.5708000000000635, 0.9590496259621882, 0.5289949189784875, 1.4220428155228544
0.5072810649871826, -3.1415900000001042, 1.5708000000000508, 0.9590496251709171, 0.5289949194707169, 1.4220428151687787
0.5122811794281006, -3.1415900000000834, 1.5708000000000406, 0.9590496244589886, 0.5289949199137014, 1.4220428148502937
0.5172832012176514, -3.1415900000000665, 1.5708000000000324, 0.9590496238184469, 0.5289949203123677, 1.422042814563822
0.522282600402832, -3.141590000000053, 1.570800000000026, 0.9590496232421342, 0.5289949206711496, 1.4220428143061459
0.5272815227508545, -3.1415900000000425, 1.5708000000000208, 0.9590496227236099, 0.5289949209940372, 1.4220428140743708
0.5322821140289307, -3.141590000000034, 1.5708000000000166, 0.9590496222570798, 0.5289949212846214, 1.4220428138658934
0.5372841358184814, -3.1415900000000274, 1.5708000000000133, 0.9590496218373301, 0.5289949215461341, 1.4220428136783718
0.5422823429107666, -3.141590000000022, 1.5708000000000106, 0.9590496214596701, 0.5289949217814838, 1.4220428135096996
0.5472829341888428, -3.1415900000000176, 1.5708000000000084, 0.9590496211198793, 0.5289949219932878, 1.4220428133579823
0.5522830486297607, -3.141590000000014, 1.5708000000000066, 0.9590496208141606, 0.5289949221839018, 1.4220428132215155
0.5572836399078369, -3.1415900000000114, 1.5708000000000053, 0.9590496205390973, 0.5289949223554457, 1.4220428130987663
0.5622820854187012, -3.141590000000009, 1.5708000000000042, 0.9590496202916156, 0.5289949225098274, 1.4220428129883558
0.5672812461853027, -3.1415900000000074, 1.5708000000000033, 0.9590496200689498, 0.5289949226487639, 1.4220428128890437
0.5722837448120117, -3.141590000000006, 1.5708000000000026, 0.9590496198686115, 0.5289949227738004, 1.4220428127997145
0.5772824287414551, -3.1415900000000048, 1.5708000000000022, 0.9590496196883619, 0.5289949228863277, 1.4220428127193647
0.5832836627960205, -3.141590000000004, 1.5708000000000018, 0.9590496195261866, 0.528994922987597, 1.4220428126470916
0.5882833003997803, -3.141590000000003, 1.5708000000000013, 0.9590496193802733, 0.5289949230787347, 1.4220428125820836
0.5932819843292236, -3.1415900000000025, 1.570800000000001, 0.9590496192489912, 0.5289949231607546, 1.4220428125236102
0.5982823371887207, -3.141590000000002, 1.5708000000000009, 0.9590496191308734, 0.5289949232345686, 1.4220428124710145
0.6032814979553223, -3.1415900000000017, 1.5708000000000006, 0.9590496190245996, 0.528994923300998, 1.422042812423706
0.608281135559082, -3.141590000000001, 1.5708000000000004, 0.9590496189289823, 0.5289949233607812, 1.4220428123811528
0.6132831573486328, -3.1415900000000008, 1.5708000000000004, 0.9590496188429529, 0.5289949234145835, 1.4220428123428772
0.6182811260223389, -3.1415900000000008, 1.5708000000000004, 0.9590496187655501, 0.5289949234630031, 1.4220428123084492
0.6232812404632568, -3.1415900000000008, 1.5708000000000004, 0.9590496186959088, 0.5289949235065785, 1.4220428122774817
0.6282811164855957, -3.1415900000000008, 1.5708000000000004, 0.9590496186332507, 0.5289949235457944, 1.4220428122496274
0.6332826614379883, -3.1415900000000008, 1.5708000000000004, 0.9590496185768755, 0.5289949235810868, 1.422042812224573
0.6382815837860107, -3.1415900000000008, 1.5708000000000004, 0.9590496185261533, 0.5289949236128484, 1.422042812202037
0.6432816982269287, -3.1415900000000008, 1.5708000000000004, 0.9590496184805173, 0.5289949236414324, 1.4220428121817663
0.648282527923584, -3.1415900000000008, 1.5708000000000004, 0.9590496184394574, 0.5289949236671567, 1.4220428121635333
0.6532809734344482, -3.1415900000000008, 1.5708000000000004, 0.9590496184025146, 0.5289949236903074, 1.4220428121471331
0.6582822799682617, -3.1415900000000008, 1.5708000000000004, 0.9590496183692763, 0.528994923711142, 1.4220428121323816
0.6632840633392334, -3.1415900000000008, 1.5708000000000004, 0.9590496183393709, 0.5289949237298921, 1.4220428121191129
0.668283224105835, -3.1415900000000008, 1.5708000000000004, 0.9590496183124642, 0.5289949237467664, 1.422042812107178
0.6732814311981201, -3.1415900000000008, 1.5708000000000004, 0.9590496182882555, 0.5289949237619525, 1.4220428120964428
0.6782820224761963, -3.1415900000000008, 1.5708000000000004, 0.9590496182664744, 0.5289949237756192, 1.4220428120867867
0.6832845211029053, -3.1415900000000008, 1.5708000000000004, 0.9590496182468773, 0.5289949237879187, 1.4220428120781015
0.688281774520874, -3.1415900000000008, 1.5708000000000004, 0.9590496182292453, 0.5289949237989876, 1.4220428120702893
0.6932826042175293, -3.1415900000000008, 1.5708000000000004, 0.9590496182133813, 0.5289949238089492, 1.4220428120632622
0.6982824802398682, -3.1415900000000008, 1.5708000000000004, 0.9590496181991081, 0.5289949238179141, 1.4220428120569417
0.7032840251922607, -3.1415900000000008, 1.5708000000000004, 0.9590496181862661, 0.5289949238259821, 1.4220428120512565
0.7092831134796143, -3.1415900000000008, 1.5708000000000004, 0.9590496181747118, 0.528994923833243, 1.4220428120461428
0.7142817974090576, -3.1415900000000008, 1.5708000000000004, 0.9590496181643161, 0.5289949238397774, 1.4220428120415431
0.7192809581756592, -3.1415900000000008, 1.5708000000000004, 0.9590496181549628, 0.5289949238456582, 1.4220428120374058
0.7242846488952637, -3.1415900000000008, 1.5708000000000004, 0.9590496181465474, 0.5289949238509505, 1.4220428120336843
0.7292842864990234, -3.1415900000000008, 1.5708000000000004, 0.9590496181389758, 0.5289949238557133, 1.422042812030337
0.7342832088470459, -3.1415900000000008, 1.5708000000000004, 0.9590496181321635, 0.5289949238599997, 1.422042812027326
0.7392828464508057, -3.1415900000000008, 1.5708000000000004, 0.9590496181260343, 0.5289949238638573, 1.422042812024618
0.7442848682403564, -3.1415900000000008, 1.5708000000000004, 0.9590496181205197, 0.5289949238673288, 1.4220428120221822
0.7492811679840088, -3.1415900000000008, 1.5708000000000004, 0.959049618115558, 0.5289949238704531, 1.422042812019991
0.7542834281921387, -3.1415900000000008, 1.5708000000000004, 0.9590496181110939, 0.5289949238732649, 1.4220428120180202
0.7592847347259521, -3.1415900000000008, 1.5708000000000004, 0.9590496181070773, 0.5289949238757953, 1.4220428120162476
0.7642829418182373, -3.1415900000000008, 1.5708000000000004, 0.9590496181034636, 0.5289949238780726, 1.422042812014653
0.7692816257476807, -3.1415900000000008, 1.5708000000000004, 0.9590496181002122, 0.528994923880122, 1.422042812013219
0.7742836475372314, -3.1415900000000008, 1.5708000000000004, 0.9590496180972868, 0.5289949238819665, 1.4220428120119288
0.779282808303833, -3.1415900000000008, 1.5708000000000004, 0.9590496180946548, 0.5289949238836263, 1.4220428120107684
0.7842814922332764, -3.1415900000000008, 1.5708000000000004, 0.9590496180922867, 0.5289949238851201, 1.4220428120097248
0.7892816066741943, -3.1415900000000008, 1.5708000000000004, 0.9590496180901561, 0.5289949238864645, 1.422042812008786
0.7942869663238525, -3.1415900000000008, 1.5708000000000004, 0.9590496180882391, 0.5289949238876743, 1.4220428120079416
0.7992837429046631, -3.1415900000000008, 1.5708000000000004, 0.9590496180865143, 0.5289949238887631, 1.422042812007182
0.8052847385406494, -3.1415900000000008, 1.5708000000000004, 0.9590496180849625, 0.528994923889743, 1.4220428120064987
0.8102850914001465, -3.1415900000000008, 1.5708000000000004, 0.9590496180835663, 0.5289949238906249, 1.4220428120058843
0.816281795501709, -3.1415900000000008, 1.5708000000000004, 0.95904961808231, 0.5289949238914184, 1.4220428120053317
0.8222837448120117, -3.1415900000000008, 1.5708000000000004, 0.9590496180811798, 0.5289949238921327, 1.4220428120048345
0.8272836208343506, -3.1415900000000008, 1.5708000000000004, 0.9590496180801629, 0.5289949238927755, 1.4220428120043873
0.8332841396331787, -3.1415900000000008, 1.5708000000000004, 0.9590496180792479, 0.5289949238933539, 1.4220428120039852
0.8382833003997803, -3.1415900000000008, 1.5708000000000004, 0.9590496180784247, 0.5289949238938745, 1.4220428120036235
0.8442819118499756, -3.1415900000000008, 1.5708000000000004, 0.9590496180776841, 0.528994923894343, 1.422042812003298
0.8502845764160156, -3.1415900000000008, 1.5708000000000004, 0.9590496180770177, 0.5289949238947647, 1.4220428120030053
0.8562831878662109, -3.1415900000000008, 1.5708000000000004, 0.9590496180764181, 0.5289949238951441, 1.422042812002742
0.8612823486328125, -3.1415900000000008, 1.5708000000000004, 0.9590496180758786, 0.5289949238954856, 1.422042812002505
0.8662838935852051, -3.1415900000000008, 1.5708000000000004, 0.9590496180753932, 0.528994923895793, 1.422042812002292
0.8712828159332275, -3.1415900000000008, 1.5708000000000004, 0.9590496180749566, 0.5289949238960695, 1.4220428120021005
0.8762824535369873, -3.1415900000000008, 1.5708000000000004, 0.9590496180745637, 0.5289949238963184, 1.4220428120019282
0.8822834491729736, -3.1415900000000008, 1.5708000000000004, 0.9590496180742102, 0.5289949238965425, 1.4220428120017732
0.8872823715209961, -3.1415900000000008, 1.5708000000000004, 0.9590496180738921, 0.5289949238967441, 1.4220428120016337
0.892284631729126, -3.1415900000000008, 1.5708000000000004, 0.9590496180736059, 0.5289949238969255, 1.4220428120015083
0.8972833156585693, -3.1415900000000008, 1.5708000000000004, 0.9590496180733484, 0.5289949238970888, 1.4220428120013955
0.9032831192016602, -3.1415900000000008, 1.5708000000000004, 0.9590496180731167, 0.5289949238972358, 1.422042812001294
0.9082820415496826, -3.1415900000000008, 1.5708000000000004, 0.9590496180729083, 0.528994923897368, 1.4220428120012027
0.9132826328277588, -3.1415900000000008, 1.5708000000000004, 0.9590496180727208, 0.528994923897487, 1.4220428120011206
0.9182844161987305, -3.1415900000000008, 1.5708000000000004, 0.9590496180725521, 0.5289949238975942, 1.4220428120010467
0.9232840538024902, -3.1415900000000008, 1.5708000000000004, 0.9590496180724003, 0.5289949238976905, 1.4220428120009803
0.928281307220459, -3.1415900000000008, 1.5708000000000004, 0.9590496180722637, 0.5289949238977772, 1.4220428120009205
0.9332828521728516, -3.1415900000000008, 1.5708000000000004, 0.9590496180721408, 0.5289949238978553, 1.4220428120008668
0.9382829666137695, -3.1415900000000008, 1.5708000000000004, 0.9590496180720303, 0.5289949238979256, 1.4220428120008184
0.944282054901123, -3.1415900000000008, 1.5708000000000004, 0.9590496180719308, 0.5289949238979889, 1.4220428120007749
0.9492824077606201, -3.1415900000000008, 1.5708000000000004, 0.9590496180718413, 0.5289949238980457, 1.4220428120007358
0.9542839527130127, -3.1415900000000008, 1.5708000000000004, 0.9590496180717608, 0.5289949238980969, 1.4220428120007007
0.9592833518981934, -3.1415900000000008, 1.5708000000000004, 0.9590496180716883, 0.528994923898143, 1.4220428120006692
0.9652814865112305, -3.1415900000000008, 1.5708000000000004, 0.9590496180716231, 0.5289949238981845, 1.4220428120006408
0.9702813625335693, -3.1415900000000008, 1.5708000000000004, 0.9590496180715645, 0.5289949238982218, 1.4220428120006152
0.9752833843231201, -3.1415900000000008, 1.5708000000000004, 0.9590496180715118, 0.5289949238982554, 1.4220428120005921
0.980280876159668, -3.1415900000000008, 1.5708000000000004, 0.9590496180714643, 0.5289949238982856, 1.4220428120005715
0.9852809906005859, -3.1415900000000008, 1.5708000000000004, 0.9590496180714215, 0.5289949238983128, 1.4220428120005528
0.9902832508087158, -3.1415900000000008, 1.5708000000000004, 0.9590496180713831, 0.5289949238983374, 1.422042812000536
0.9962835311889648, -3.1415900000000008, 1.5708000000000004, 0.9590496180713486, 0.5289949238983593, 1.4220428120005209
1.0016894340515137, -3.1415900000000008, 1.5708000000000004, 0.9590496180713175, 0.5289949238983792, 1.4220428120005073
1.0066888332366943, -3.1415900000000008, 1.5708000000000004, 0.9590496180712895, 0.5289949238983971, 1.422042812000495
1.011686086654663, -3.1415900000000008, 1.5708000000000004, 0.9590496180712643, 0.5289949238984132, 1.4220428120004842
1.0163896083831787, -3.1415900000000008, 1.5708000000000004, 0.9590496180712417, 0.5289949238984276, 1.4220428120004744
1.0211892127990723, -3.1415900000000008, 1.5708000000000004, 0.9590496180712212, 0.5289949238984406, 1.4220428120004656
1.0261976718902588, -3.1415900000000008, 1.5708000000000004, 0.9590496180712029, 0.5289949238984523, 1.4220428120004576
1.0319697856903076, -3.1415900000000008, 1.5708000000000004, 0.9590496180711864, 0.5289949238984628, 1.4220428120004505
1.036972999572754, -3.1415900000000008, 1.5708000000000004, 0.9590496180711715, 0.5289949238984722, 1.422042812000444
1.043097972869873, -3.1415900000000008, 1.5708000000000004, 0.9590496180711582, 0.5289949238984808, 1.4220428120004382
1.0480966567993164, -3.1415900000000008, 1.5708000000000004, 0.9590496180711462, 0.5289949238984885, 1.422042812000433
1.0560424327850342, -3.1415900000000008, 1.5708000000000004, 0.9590496180711354, 0.5289949238984953, 1.4220428120004283
1.0619680881500244, -3.1415900000000008, 1.5708000000000004, 0.9590496180711257, 0.5289949238985016, 1.422042812000424
1.0669713020324707, -3.1415900000000008, 1.5708000000000004, 0.9590496180711169, 0.5289949238985071, 1.4220428120004203
1.0722284317016602, -3.1415900000000008, 1.5708000000000004, 0.959049618071109, 0.5289949238985121, 1.422042812000417
1.0769460201263428, -3.1415900000000008, 1.5708000000000004, 0.9590496180711019, 0.5289949238985167, 1.4220428120004138
1.0820224285125732, -3.1415900000000008, 1.5708000000000004, 0.9590496180710956, 0.5289949238985208, 1.422042812000411
1.0868453979492188, -3.1415900000000008, 1.5708000000000004, 0.9590496180710898, 0.5289949238985244, 1.4220428120004085
1.0919182300567627, -3.1415900000000008, 1.5708000000000004, 0.9590496180710846, 0.5289949238985278, 1.4220428120004063
1.0970561504364014, -3.1415900000000008, 1.5708000000000004, 0.9590496180710799, 0.5289949238985308, 1.4220428120004043
1.1026761531829834, -3.1415900000000008, 1.5708000000000004, 0.9590496180710757, 0.5289949238985334, 1.4220428120004025
1.1084027290344238, -3.1415900000000008, 1.5708000000000004, 0.9590496180710719, 0.5289949238985359, 1.422042812000401
1.1138856410980225, -3.1415900000000008, 1.5708000000000004, 0.9590496180710686, 0.5289949238985381, 1.4220428120003994
1.120445728302002, -3.1415900000000008, 1.5708000000000004, 0.9590496180710656, 0.5289949238985401, 1.422042812000398
1.1257376670837402, -3.1415900000000008, 1.5708000000000004, 0.9590496180710628, 0.5289949238985419, 1.422042812000397
1.1309459209442139, -3.1415900000000008, 1.5708000000000004, 0.9590496180710604, 0.5289949238985434, 1.4220428120003958
1.1364052295684814, -3.1415900000000008, 1.5708000000000004, 0.9590496180710582, 0.5289949238985449, 1.422042812000395
1.1421663761138916, -3.1415900000000008, 1.5708000000000004, 0.9590496180710562, 0.5289949238985461, 1.422042812000394
1.1469151973724365, -3.1415900000000008, 1.5708000000000004, 0.9590496180710544, 0.5289949238985472, 1.4220428120003932
1.1526179313659668, -3.1415900000000008, 1.5708000000000004, 0.9590496180710527, 0.5289949238985482, 1.4220428120003925
1.157270908355713, -3.1415900000000008, 1.5708000000000004, 0.9590496180710513, 0.5289949238985491, 1.4220428120003918
1.162017822265625, -3.1415900000000008, 1.5708000000000004, 0.9590496180710499, 0.52899492389855, 1.4220428120003912
1.1671197414398193, -3.1415900000000008, 1.5708000000000004, 0.9590496180710487, 0.5289949238985507, 1.4220428120003907
1.1728386878967285, -3.1415900000000008, 1.5708000000000004, 0.9590496180710477, 0.5289949238985514, 1.4220428120003903
1.1772863864898682, -3.1415900000000008, 1.5708000000000004, 0.9590496180710467, 0.5289949238985521, 1.4220428120003898
1.1823525428771973, -3.1415900000000008, 1.5708000000000004, 0.9590496180710458, 0.5289949238985526, 1.4220428120003894
1.1871936321258545, -3.1415900000000008, 1.5708000000000004, 0.959049618071045, 0.5289949238985531, 1.422042812000389
1.192737102508545, -3.1415900000000008, 1.5708000000000004, 0.9590496180710444, 0.5289949238985535, 1.4220428120003887
1.197737216949463, -3.1415900000000008, 1.5708000000000004, 0.9590496180710437, 0.528994923898554, 1.4220428120003885
1.203850269317627, -3.1415900000000008, 1.5708000000000004, 0.9590496180710432, 0.5289949238985543, 1.4220428120003883
1.2088334560394287, -3.1415900000000008, 1.5708000000000004, 0.9590496180710427, 0.5289949238985546, 1.422042812000388
1.21462082862854, -3.1415900000000008, 1.5708000000000004, 0.9590496180710423, 0.528994923898555, 1.4220428120003878
1.2201099395751953, -3.1415900000000008, 1.5708000000000004, 0.9590496180710418, 0.5289949238985552, 1.4220428120003876
1.2254772186279297, -3.1415900000000008, 1.5708000000000004, 0.9590496180710415, 0.5289949238985554, 1.4220428120003874
1.2309584617614746, -3.1415900000000008, 1.5708000000000004, 0.9590496180710412, 0.5289949238985556, 1.4220428120003872
1.2359702587127686, -3.1415900000000008, 1.5708000000000004, 0.9590496180710408, 0.5289949238985558, 1.422042812000387
1.240995168685913, -3.1415900000000008, 1.5708000000000004, 0.9590496180710406, 0.5289949238985561, 1.422042812000387
1.2459802627563477, -3.1415900000000008, 1.5708000000000004, 0.9590496180710404, 0.5289949238985562, 1.422042812000387
1.2509801387786865, -3.1415900000000008, 1.5708000000000004, 0.9590496180710402, 0.5289949238985563, 1.422042812000387
1.255981206893921, -3.1415900000000008, 1.5708000000000004, 0.9590496180710399, 0.5289949238985564, 1.422042812000387
1.2609789371490479, -3.1415900000000008, 1.5708000000000004, 0.9590496180710397, 0.5289949238985565, 1.422042812000387
1.2659800052642822, -3.1415900000000008, 1.5708000000000004, 0.9590496180710396, 0.5289949238985566, 1.422042812000387
1.2709786891937256, -3.1415900000000008, 1.5708000000000004, 0.9590496180710395, 0.5289949238985567, 1.422042812000387
1.2759795188903809, -3.1415900000000008, 1.5708000000000004, 0.9590496180710394, 0.5289949238985568, 1.422042812000387
1.280979871749878, -3.1415900000000008, 1.5708000000000004, 0.9590496180710393, 0.528994923898557, 1.422042812000387
1.2859797477722168, -3.1415900000000008, 1.5708000000000004, 0.9590496180710392, 0.5289949238985571, 1.422042812000387
1.2919812202453613, -3.1415900000000008, 1.5708000000000004, 0.9590496180710391, 0.5289949238985571, 1.422042812000387
1.296980381011963, -3.1415900000000008, 1.5708000000000004, 0.959049618071039, 0.5289949238985571, 1.422042812000387
1.301978588104248, -3.1415900000000008, 1.5708000000000004, 0.9590496180710388, 0.5289949238985571, 1.422042812000387
1.3069794178009033, -3.1415900000000008, 1.5708000000000004, 0.9590496180710387, 0.5289949238985571, 1.422042812000387
1.3119802474975586, -3.1415900000000008, 1.5708000000000004, 0.9590496180710387, 0.5289949238985571, 1.422042812000387
1.3169786930084229, -3.1415900000000008, 1.5708000000000004, 0.9590496180710387, 0.5289949238985571, 1.422042812000387
1.3219802379608154, -3.1415900000000008, 1.5708000000000004, 0.9590496180710387, 0.5289949238985571, 1.422042812000387
1.3269784450531006, -3.1415900000000008, 1.5708000000000004, 0.9590496180710387, 0.5289949238985571, 1.422042812000387
1.3319780826568604, -3.1415900000000008, 1.5708000000000004, 0.9590496180710387, 0.5289949238985571, 1.422042812000387
1.3369803428649902, -3.1415900000000008, 1.5708000000000004, 0.9590496180710387, 0.5289949238985571, 1.422042812000387
1.341982364654541, -3.1415900000000008, 1.5708000000000004, 0.9590496180710387, 0.5289949238985571, 1.422042812000387
1.3469796180725098, -3.1415900000000008, 1.5708000000000004, 0.9590496180710387, 0.5289949238985571, 1.422042812000387
1.3519797325134277, -3.1415900000000008, 1.5708000000000004, 0.9590496180710387, 0.5289949238985571, 1.422042812000387
1.3569793701171875, -3.1415900000000008, 1.5708000000000004, 0.9590496180710387, 0.5289949238985571, 1.422042812000387
1.3619794845581055, -3.1415900000000008, 1.5708000000000004, 0.9590496180710387, 0.5289949238985571, 1.422042812000387
1.3669805526733398, -3.1415900000000008, 1.5708000000000004, 0.9590496180710387, 0.5289949238985571, 1.422042812000387
1.3719799518585205, -3.1415900000000008, 1.5708000000000004, 0.9590496180710387, 0.5289949238985571, 1.422042812000387
1.376981496810913, -3.1415900000000008, 1.5708000000000004, 0.9590496180710387, 0.5289949238985571, 1.422042812000387
1.3829798698425293, -3.1415900000000008, 1.5708000000000004, 0.9590496180710387, 0.5289949238985571, 1.422042812000387
1.3879806995391846, -3.1415900000000008, 1.5708000000000004, 0.9590496180710387, 0.5289949238985571, 1.422042812000387
1.3929805755615234, -3.1415900000000008, 1.5708000000000004, 0.9590496180710387, 0.5289949238985571, 1.422042812000387
1.3979833126068115, -3.1415900000000008, 1.5708000000000004, 0.9590496180710387, 0.5289949238985571, 1.422042812000387
1.4029803276062012, -3.1415900000000008, 1.5708000000000004, 0.9590496180710387, 0.5289949238985571, 1.422042812000387
1.422980546951294, -3.1415900000000008, 1.5708000000000004, 0.9590496180710387, 0.5289949238985571, 1.422042812000387
1.4279816150665283, -3.1415900000000008, 1.5708000000000004, 0.9590496180710387, 0.5289949238985571, 1.422042812000387
1.4339804649353027, -3.1415900000000008, 1.5708000000000004, 0.9590496180710387, 0.5289949238985571, 1.422042812000387
1.4399795532226562, -3.1415900000000008, 1.5708000000000004, 0.9590496180710387, 0.5289949238985571, 1.422042812000387
1.4469809532165527, -3.1415900000000008, 1.5708000000000004, 0.9590496180710387, 0.5289949238985571, 1.422042812000387
1.4539821147918701, -3.1415900000000008, 1.5708000000000004, 0.9590496180710387, 0.5289949238985571, 1.422042812000387
1.460979700088501, -3.1415900000000008, 1.5708000000000004, 0.9590496180710387, 0.5289949238985571, 1.422042812000387
1.4679808616638184, -3.1415900000000008, 1.5708000000000004, 0.9590496180710387, 0.5289949238985571, 1.422042812000387
1.4749820232391357, -3.1415900000000008, 1.5708000000000004, 0.9590496180710387, 0.5289949238985571, 1.422042812000387
1.4809811115264893, -3.1415900000000008, 1.5708000000000004, 0.9590496180710387, 0.5289949238985571, 1.422042812000387
1.4859800338745117, -3.1415900000000008, 1.5708000000000004, 0.9590496180710387, 0.5289949238985571, 1.422042812000387
1.4909789562225342, -3.1415900000000008, 1.5708000000000004, 0.9590496180710387, 0.5289949238985571, 1.422042812000387
1.4959790706634521, -3.1415900000000008, 1.5708000000000004, 0.9590496180710387, 0.5289949238985571, 1.422042812000387
1.5009782314300537, -3.1415900000000008, 1.5708000000000004, 0.9590496180710387, 0.5289949238985571, 1.422042812000387
1.5059795379638672, -3.1415900000000008, 1.5708000000000004, 0.9590496180710387, 0.5289949238985571, 1.422042812000387
1.5119810104370117, -3.1415900000000008, 1.5708000000000004, 0.9590496180710387, 0.5289949238985571, 1.422042812000387
1.5169830322265625, -3.1415900000000008, 1.5708000000000004, 0.9590496180710387, 0.5289949238985571, 1.422042812000387
1.522979974746704, -3.1415900000000008, 1.5708000000000004, 0.9590496180710387, 0.5289949238985571, 1.422042812000387
1.5279815196990967, -3.1415900000000008, 1.5708000000000004, 0.9590496180710387, 0.5289949238985571, 1.422042812000387
1.5329794883728027, -3.1415900000000008, 1.5708000000000004, 0.9590496180710387, 0.5289949238985571, 1.422042812000387
1.53898024559021, -3.1415900000000008, 1.5708000000000004, 0.9590496180710387, 0.5289949238985571, 1.422042812000387
1.543980598449707, -3.1415900000000008, 1.5708000000000004, 0.9590496180710387, 0.5289949238985571, 1.422042812000387
1.5489816665649414, -3.1415900000000008, 1.5708000000000004, 0.9590496180710387, 0.5289949238985571, 1.422042812000387
1.5539779663085938, -3.1415900000000008, 1.5708000000000004, 0.9590496180710387, 0.5289949238985571, 1.422042812000387
1.55897855758667, -3.1415900000000008, 1.5708000000000004, 0.9590496180710387, 0.5289949238985571, 1.422042812000387
1.5639803409576416, -3.1415900000000008, 1.5708000000000004, 0.9590496180710387, 0.5289949238985571, 1.422042812000387
1.568979263305664, -3.1415900000000008, 1.5708000000000004, 0.9590496180710387, 0.5289949238985571, 1.422042812000387
1.5739781856536865, -3.1415900000000008, 1.5708000000000004, 0.9590496180710387, 0.5289949238985571, 1.422042812000387
1.5789802074432373, -3.1415900000000008, 1.5708000000000004, 0.9590496180710387, 0.5289949238985571, 1.422042812000387
1.5839807987213135, -3.1415900000000008, 1.5708000000000004, 0.9590496180710387, 0.5289949238985571, 1.422042812000387
1.5899779796600342, -3.1415900000000008, 1.5708000000000004, 0.9590496180710387, 0.5289949238985571, 1.422042812000387
1.5949780941009521, -3.1415900000000008, 1.5708000000000004, 0.9590496180710387, 0.5289949238985571, 1.422042812000387
1.5999798774719238, -3.1415900000000008, 1.5708000000000004, 0.9590496180710387, 0.5289949238985571, 1.422042812000387
1.604978322982788, -3.1415900000000008, 1.5708000000000004, 0.9590496180710387, 0.5289949238985571, 1.422042812000387
1.609978199005127, -3.1415900000000008, 1.5708000000000004, 0.9590496180710387, 0.5289949238985571, 1.422042812000387
1.6149802207946777, -3.1415900000000008, 1.5708000000000004, 0.9590496180710387, 0.5289949238985571, 1.422042812000387
1.6199800968170166, -3.1415900000000008, 1.5708000000000004, 0.9590496180710387, 0.5289949238985571, 1.422042812000387
1.6249785423278809, -3.1415900000000008, 1.5708000000000004, 0.9590496180710387, 0.5289949238985571, 1.422042812000387
1.6299779415130615, -3.1415900000000008, 1.5708000000000004, 0.9590496180710387, 0.5289949238985571, 1.422042812000387
1.6349785327911377, -3.1415900000000008, 1.5708000000000004, 0.9590496180710387, 0.5289949238985571, 1.422042812000387
1.6399781703948975, -3.1415900000000008, 1.5708000000000004, 0.9590496180710387, 0.5289949238985571, 1.422042812000387
1.645979642868042, -3.1415900000000008, 1.5708000000000004, 0.9590496180710387, 0.5289949238985571, 1.422042812000387
1.6511681079864502, -3.1415900000000008, 1.5708000000000004, 0.9590496180710387, 0.5289949238985571, 1.422042812000387
1.6570968627929688, -3.1415900000000008, 1.5708000000000004, 0.9590496180710387, 0.5289949238985571, 1.422042812000387
1.6624491214752197, -3.1415900000000008, 1.5708000000000004, 0.9590496180710387, 0.5289949238985571, 1.422042812000387
1.6684465408325195, -3.1415900000000008, 1.5708000000000004, 0.9590496180710387, 0.5289949238985571, 1.422042812000387
1.6744449138641357, -3.1415900000000008, 1.5708000000000004, 0.9590496180710387, 0.5289949238985571, 1.422042812000387
1.6792354583740234, -3.1415900000000008, 1.5708000000000004, 0.9590496180710387, 0.5289949238985571, 1.422042812000387
1.684234619140625, -3.1415900000000008, 1.5708000000000004, 0.9590496180710387, 0.5289949238985571, 1.422042812000387
1.689300537109375, -3.1415900000000008, 1.5708000000000004, 0.9590496180710387, 0.5289949238985571, 1.422042812000387
1.694448471069336, -3.1415900000000008, 1.5708000000000004, 0.9590496180710387, 0.5289949238985571, 1.422042812000387
1.7001612186431885, -3.1415900000000008, 1.5708000000000004, 0.9590496180710387, 0.5289949238985571, 1.422042812000387
1.705198049545288, -3.1415900000000008, 1.5708000000000004, 0.9590496180710387, 0.5289949238985571, 1.422042812000387
1.7105944156646729, -3.1415900000000008, 1.5708000000000004, 0.9590496180710387, 0.5289949238985571, 1.422042812000387
1.7153751850128174, -3.1415900000000008, 1.5708000000000004, 0.9590496180710387, 0.5289949238985571, 1.422042812000387
1.72072172164917, -3.1415900000000008, 1.5708000000000004, 0.9590496180710387, 0.5289949238985571, 1.422042812000387
1.7257025241851807, -3.1415900000000008, 1.5708000000000004, 0.9590496180710387, 0.5289949238985571, 1.422042812000387
1.730971336364746, -3.1415900000000008, 1.5708000000000004, 0.9590496180710387, 0.5289949238985571, 1.422042812000387
1.7362773418426514, -3.1415900000000008, 1.5708000000000004, 0.9590496180710387, 0.5289949238985571, 1.422042812000387
1.7410855293273926, -3.1415900000000008, 1.5708000000000004, 0.9590496180710387, 0.5289949238985571, 1.422042812000387
1.7461810111999512, -3.1415900000000008, 1.5708000000000004, 0.9590496180710387, 0.5289949238985571, 1.422042812000387
1.7515449523925781, -3.1415900000000008, 1.5708000000000004, 0.9590496180710387, 0.5289949238985571, 1.422042812000387
1.7568202018737793, -3.1415900000000008, 1.5708000000000004, 0.9590496180710387, 0.5289949238985571, 1.422042812000387
1.7617895603179932, -3.1415900000000008, 1.5708000000000004, 0.9590496180710387, 0.5289949238985571, 1.422042812000387
1.7670109272003174, -3.1415900000000008, 1.5708000000000004, 0.9590496180710387, 0.5289949238985571, 1.422042812000387
1.7722482681274414, -3.1415900000000008, 1.5708000000000004, 0.9590496180710387, 0.5289949238985571, 1.422042812000387
1.7772305011749268, -3.1415900000000008, 1.5708000000000004, 0.9590496180710387, 0.5289949238985571, 1.422042812000387
1.7827980518341064, -3.1415900000000008, 1.5708000000000004, 0.9590496180710387, 0.5289949238985571, 1.422042812000387
1.787961721420288, -3.1415900000000008, 1.5708000000000004, 0.9590496180710387, 0.5289949238985571, 1.422042812000387
1.7937366962432861, -3.1415900000000008, 1.5708000000000004, 0.9590496180710387, 0.5289949238985571, 1.422042812000387
1.798424482345581, -3.1415900000000008, 1.5708000000000004, 0.9590496180710387, 0.5289949238985571, 1.422042812000387
1.803422212600708, -3.1415900000000008, 1.5708000000000004, 0.9590496180710387, 0.5289949238985571, 1.422042812000387
1.8084232807159424, -3.1415900000000008, 1.5708000000000004, 0.9590496180710387, 0.5289949238985571, 1.422042812000387
1.814424753189087, -3.1415900000000008, 1.5708000000000004, 0.9590496180710387, 0.5289949238985571, 1.422042812000387
1.819425344467163, -3.1415900000000008, 1.5708000000000004, 0.9590496180710387, 0.5289949238985571, 1.422042812000387
1.8244240283966064, -3.1415900000000008, 1.5708000000000004, 0.9590496180710387, 0.5289949238985571, 1.422042812000387
1.8294250965118408, -3.1415900000000008, 1.5708000000000004, 0.9590496180710387, 0.5289949238985571, 1.422042812000387
1.8354241847991943, -3.1415900000000008, 1.5708000000000004, 0.9590496180710387, 0.5289949238985571, 1.422042812000387
1.8404228687286377, -3.1415900000000008, 1.5708000000000004, 0.9590496180710387, 0.5289949238985571, 1.422042812000387
1.845423698425293, -3.1415900000000008, 1.5708000000000004, 0.9590496180710387, 0.5289949238985571, 1.422042812000387
1.8514225482940674, -3.1415900000000008, 1.5708000000000004, 0.9590496180710387, 0.5289949238985571, 1.422042812000387
1.85642409324646, -3.1415900000000008, 1.5708000000000004, 0.9590496180710387, 0.5289949238985571, 1.422042812000387
1.8614227771759033, -3.1415900000000008, 1.5708000000000004, 0.9590496180710387, 0.5289949238985571, 1.422042812000387
1.8664233684539795, -3.1415900000000008, 1.5708000000000004, 0.9590496180710387, 0.5289949238985571, 1.422042812000387
1.8714237213134766, -3.1415900000000008, 1.5708000000000004, 0.9590496180710387, 0.5289949238985571, 1.422042812000387
1.8764233589172363, -3.1415900000000008, 1.5708000000000004, 0.9590496180710387, 0.5289949238985571, 1.422042812000387
1.881422519683838, -3.1415900000000008, 1.5708000000000004, 0.9590496180710387, 0.5289949238985571, 1.422042812000387
1.8864240646362305, -3.1415900000000008, 1.5708000000000004, 0.9590496180710387, 0.5289949238985571, 1.422042812000387
1.8914237022399902, -3.1415900000000008, 1.5708000000000004, 0.9590496180710387, 0.5289949238985571, 1.422042812000387
1.8964221477508545, -3.1415900000000008, 1.5708000000000004, 0.9590496180710387, 0.5289949238985571, 1.422042812000387
1.9014232158660889, -3.1415900000000008, 1.5708000000000004, 0.9590496180710387, 0.5289949238985571, 1.422042812000387
1.906423807144165, -3.1415900000000008, 1.5708000000000004, 0.9590496180710387, 0.5289949238985571, 1.422042812000387
1.911423921585083, -3.1415900000000008, 1.5708000000000004, 0.9590496180710387, 0.5289949238985571, 1.422042812000387
1.9174222946166992, -3.1415900000000008, 1.5708000000000004, 0.9590496180710387, 0.5289949238985571, 1.422042812000387
1.9224228858947754, -3.1415900000000008, 1.5708000000000004, 0.9590496180710387, 0.5289949238985571, 1.422042812000387
1.9274225234985352, -3.1415900000000008, 1.5708000000000004, 0.9590496180710387, 0.5289949238985571, 1.422042812000387
1.9324238300323486, -3.1415900000000008, 1.5708000000000004, 0.9590496180710387, 0.5289949238985571, 1.422042812000387
1.9374241828918457, -3.1415900000000008, 1.5708000000000004, 0.9590496180710387, 0.5289949238985571, 1.422042812000387
1.9424242973327637, -3.1415900000000008, 1.5708000000000004, 0.9590496180710387, 0.5289949238985571, 1.422042812000387
1.9474239349365234, -3.1415900000000008, 1.5708000000000004, 0.9590496180710387, 0.5289949238985571, 1.422042812000387
1.9524250030517578, -3.1415900000000008, 1.5708000000000004, 0.9590496180710387, 0.5289949238985571, 1.422042812000387
1.957425832748413, -3.1415900000000008, 1.5708000000000004, 0.9590496180710387, 0.5289949238985571, 1.422042812000387
1.9624271392822266, -3.1415900000000008, 1.5708000000000004, 0.9590496180710387, 0.5289949238985571, 1.422042812000387
1.9674243927001953, -3.1415900000000008, 1.5708000000000004, 0.9590496180710387, 0.5289949238985571, 1.422042812000387
1.9724235534667969, -3.1415900000000008, 1.5708000000000004, 0.9590496180710387, 0.5289949238985571, 1.422042812000387
1.9774222373962402, -3.1415900000000008, 1.5708000000000004, 0.9590496180710387, 0.5289949238985571, 1.422042812000387
1.9824235439300537, -3.1415900000000008, 1.5708000000000004, 0.9590496180710387, 0.5289949238985571, 1.422042812000387
1.9874227046966553, -3.1415900000000008, 1.5708000000000004, 0.9590496180710387, 0.5289949238985571, 1.422042812000387
1.9924225807189941, -3.1415900000000008, 1.5708000000000004, 0.9590496180710387, 0.5289949238985571, 1.422042812000387
1.9974236488342285, -3.1415900000000008, 1.5708000000000004, 0.9590496180710387, 0.5289949238985571, 1.422042812000387
2.002425193786621, -3.1415900000000008, 1.5708000000000004, 0.9590496180710387, 0.5289949238985571, 1.422042812000387
2.0076074600219727, -3.1415900000000008, 1.5708000000000004, 0.9590496180710387, 0.5289949238985571, 1.422042812000387
2.012479305267334, -3.1415900000000008, 1.5708000000000004, 0.9590496180710387, 0.5289949238985571, 1.422042812000387
2.018115758895874, -3.1415900000000008, 1.5708000000000004, 0.9590496180710387, 0.5289949238985571, 1.422042812000387
2.023833751678467, -3.1415900000000008, 1.5708000000000004, 0.9590496180710387, 0.5289949238985571, 1.422042812000387
2.0288054943084717, -3.1415900000000008, 1.5708000000000004, 0.9590496180710387, 0.5289949238985571, 1.422042812000387
2.033691167831421, -3.1415900000000008, 1.5708000000000004, 0.9590496180710387, 0.5289949238985571, 1.422042812000387
2.038818359375, -3.1415900000000008, 1.5708000000000004, 0.9590496180710387, 0.5289949238985571, 1.422042812000387
2.0436911582946777, -3.1415900000000008, 1.5708000000000004, 0.9590496180710387, 0.5289949238985571, 1.422042812000387
2.048959732055664, -3.1415900000000008, 1.5708000000000004, 0.9590496180710387, 0.5289949238985571, 1.422042812000387
2.0539541244506836, -3.1415900000000008, 1.5708000000000004, 0.9590496180710387, 0.5289949238985571, 1.422042812000387
2.0597355365753174, -3.1415900000000008, 1.5708000000000004, 0.9590496180710387, 0.5289949238985571, 1.422042812000387
2.065272569656372, -3.1415900000000008, 1.5708000000000004, 0.9590496180710387, 0.5289949238985571, 1.422042812000387
2.069835662841797, -3.1415900000000008, 1.5708000000000004, 0.9590496180710387, 0.5289949238985571, 1.422042812000387
2.075078248977661, -3.1415900000000008, 1.5708000000000004, 0.9590496180710387, 0.5289949238985571, 1.422042812000387
2.0810554027557373, -3.1415900000000008, 1.5708000000000004, 0.9590496180710387, 0.5289949238985571, 1.422042812000387
2.0862619876861572, -3.1415900000000008, 1.5708000000000004, 0.9590496180710387, 0.5289949238985571, 1.422042812000387
2.0911858081817627, -3.1415900000000008, 1.5708000000000004, 0.9590496180710387, 0.5289949238985571, 1.422042812000387
2.096630096435547, -3.1415900000000008, 1.5708000000000004, 0.9590496180710387, 0.5289949238985571, 1.422042812000387
2.1016745567321777, -3.1415900000000008, 1.5708000000000004, 0.9590496180710387, 0.5289949238985571, 1.422042812000387
2.113670825958252, -3.1415900000000008, 1.5708000000000004, 0.9590496180710387, 0.5289949238985571, 1.422042812000387
2.1186704635620117, -3.1415900000000008, 1.5708000000000004, 0.9590496180710387, 0.5289949238985571, 1.422042812000387
2.123668670654297, -3.1415900000000008, 1.5708000000000004, 0.9590496180710387, 0.5289949238985571, 1.422042812000387
2.128669261932373, -3.1415900000000008, 1.5708000000000004, 0.9590496180710387, 0.5289949238985571, 1.422042812000387
2.13366961479187, -3.1415900000000008, 1.5708000000000004, 0.9590496180710387, 0.5289949238985571, 1.422042812000387
2.138669013977051, -3.1415900000000008, 1.5708000000000004, 0.9590496180710387, 0.5289949238985571, 1.422042812000387
2.143669366836548, -3.1415900000000008, 1.5708000000000004, 0.9590496180710387, 0.5289949238985571, 1.422042812000387
2.149670124053955, -3.1415900000000008, 1.5708000000000004, 0.9590496180710387, 0.5289949238985571, 1.422042812000387
2.1546707153320312, -3.1415900000000008, 1.5708000000000004, 0.9590496180710387, 0.5289949238985571, 1.422042812000387
2.159668207168579, -3.1415900000000008, 1.5708000000000004, 0.9590496180710387, 0.5289949238985571, 1.422042812000387
2.164668321609497, -3.1415900000000008, 1.5708000000000004, 0.9590496180710387, 0.5289949238985571, 1.422042812000387
2.169670581817627, -3.1415900000000008, 1.5708000000000004, 0.9590496180710387, 0.5289949238985571, 1.422042812000387
2.174668788909912, -3.1415900000000008, 1.5708000000000004, 0.9590496180710387, 0.5289949238985571, 1.422042812000387
2.179669141769409, -3.1415900000000008, 1.5708000000000004, 0.9590496180710387, 0.5289949238985571, 1.422042812000387
2.1846694946289062, -3.1415900000000008, 1.5708000000000004, 0.9590496180710387, 0.5289949238985571, 1.422042812000387
2.189671039581299, -3.1415900000000008, 1.5708000000000004, 0.9590496180710387, 0.5289949238985571, 1.422042812000387
2.1946685314178467, -3.1415900000000008, 1.5708000000000004, 0.9590496180710387, 0.5289949238985571, 1.422042812000387
2.1996688842773438, -3.1415900000000008, 1.5708000000000004, 0.9590496180710387, 0.5289949238985571, 1.422042812000387
2.2046704292297363, -3.1415900000000008, 1.5708000000000004, 0.9590496180710387, 0.5289949238985571, 1.422042812000387
2.2096681594848633, -3.1415900000000008, 1.5708000000000004, 0.9590496180710387, 0.5289949238985571, 1.422042812000387
2.215667963027954, -3.1415900000000008, 1.5708000000000004, 0.9590496180710387, 0.5289949238985571, 1.422042812000387
2.2206690311431885, -3.1415900000000008, 1.5708000000000004, 0.9590496180710387, 0.5289949238985571, 1.422042812000387
2.2256717681884766, -3.1415900000000008, 1.5708000000000004, 0.9590496180710387, 0.5289949238985571, 1.422042812000387
2.230670213699341, -3.1415900000000008, 1.5708000000000004, 0.9590496180710387, 0.5289949238985571, 1.422042812000387
2.2366716861724854, -3.1415900000000008, 1.5708000000000004, 0.9590496180710387, 0.5289949238985571, 1.422042812000387
2.241671085357666, -3.1415900000000008, 1.5708000000000004, 0.9590496180710387, 0.5289949238985571, 1.422042812000387
2.2466719150543213, -3.1415900000000008, 1.5708000000000004, 0.9590496180710387, 0.5289949238985571, 1.422042812000387
2.251671552658081, -3.1415900000000008, 1.5708000000000004, 0.9590496180710387, 0.5289949238985571, 1.422042812000387
2.2570528984069824, -3.1415900000000008, 1.5708000000000004, 0.9590496180710387, 0.5289949238985571, 1.422042812000387
2.261805534362793, -3.1415900000000008, 1.5708000000000004, 0.9590496180710387, 0.5289949238985571, 1.422042812000387
2.267730236053467, -3.1415900000000008, 1.5708000000000004, 0.9590496180710387, 0.5289949238985571, 1.422042812000387
2.2726407051086426, -3.1415900000000008, 1.5708000000000004, 0.9590496180710387, 0.5289949238985571, 1.422042812000387
2.2784583568573, -3.1415900000000008, 1.5708000000000004, 0.9590496180710387, 0.5289949238985571, 1.422042812000387
2.283989906311035, -3.1415900000000008, 1.5708000000000004, 0.9590496180710387, 0.5289949238985571, 1.422042812000387
2.288325071334839, -3.1415900000000008, 1.5708000000000004, 0.9590496180710387, 0.5289949238985571, 1.422042812000387
2.293468713760376, -3.1415900000000008, 1.5708000000000004, 0.9590496180710387, 0.5289949238985571, 1.422042812000387
2.2984015941619873, -3.1415900000000008, 1.5708000000000004, 0.9590496180710387, 0.5289949238985571, 1.422042812000387
2.3034095764160156, -3.1415900000000008, 1.5708000000000004, 0.9590496180710387, 0.5289949238985571, 1.422042812000387
2.308357000350952, -3.1415900000000008, 1.5708000000000004, 0.9590496180710387, 0.5289949238985571, 1.422042812000387
2.3140504360198975, -3.1415900000000008, 1.5708000000000004, 0.9590496180710387, 0.5289949238985571, 1.422042812000387
2.3189775943756104, -3.1415900000000008, 1.5708000000000004, 0.9590496180710387, 0.5289949238985571, 1.422042812000387
2.3237316608428955, -3.1415900000000008, 1.5708000000000004, 0.9590496180710387, 0.5289949238985571, 1.422042812000387
2.3285791873931885, -3.1415900000000008, 1.5708000000000004, 0.9590496180710387, 0.5289949238985571, 1.422042812000387
2.3334076404571533, -3.1415900000000008, 1.5708000000000004, 0.9590496180710387, 0.5289949238985571, 1.422042812000387
2.338165044784546, -3.1415900000000008, 1.5708000000000004, 0.9590496180710387, 0.5289949238985571, 1.422042812000387
2.3431191444396973, -3.1415900000000008, 1.5708000000000004, 0.9590496180710387, 0.5289949238985571, 1.422042812000387
2.34902286529541, -3.1415900000000008, 1.5708000000000004, 0.9590496180710387, 0.5289949238985571, 1.422042812000387
2.3540329933166504, -3.1415900000000008, 1.5708000000000004, 0.9590496180710387, 0.5289949238985571, 1.422042812000387
2.3591561317443848, -3.1415900000000008, 1.5708000000000004, 0.9590496180710387, 0.5289949238985571, 1.422042812000387
2.3648571968078613, -3.1415900000000008, 1.5708000000000004, 0.9590496180710387, 0.5289949238985571, 1.422042812000387
2.370511531829834, -3.1415900000000008, 1.5708000000000004, 0.9590496180710387, 0.5289949238985571, 1.422042812000387
2.375028133392334, -3.1415900000000008, 1.5708000000000004, 0.9590496180710387, 0.5289949238985571, 1.422042812000387
2.3799595832824707, -3.1415900000000008, 1.5708000000000004, 0.9590496180710387, 0.5289949238985571, 1.422042812000387
2.3848044872283936, -3.1415900000000008, 1.5708000000000004, 0.9590496180710387, 0.5289949238985571, 1.422042812000387
2.390533685684204, -3.1415900000000008, 1.5708000000000004, 0.9590496180710387, 0.5289949238985571, 1.422042812000387
2.3956596851348877, -3.1415900000000008, 1.5708000000000004, 0.9590496180710387, 0.5289949238985571, 1.422042812000387
2.400631904602051, -3.1415900000000008, 1.5708000000000004, 0.9590496180710387, 0.5289949238985571, 1.422042812000387
2.4059698581695557, -3.1415900000000008, 1.5708000000000004, 0.9590496180710387, 0.5289949238985571, 1.422042812000387
2.410970449447632, -3.1415900000000008, 1.5708000000000004, 0.9590496180710387, 0.5289949238985571, 1.422042812000387
2.4169700145721436, -3.1415900000000008, 1.5708000000000004, 0.9590496180710387, 0.5289949238985571, 1.422042812000387
2.4219706058502197, -3.1415900000000008, 1.5708000000000004, 0.9590496180710387, 0.5289949238985571, 1.422042812000387
2.4269704818725586, -3.1415900000000008, 1.5708000000000004, 0.9590496180710387, 0.5289949238985571, 1.422042812000387
2.4319710731506348, -3.1415900000000008, 1.5708000000000004, 0.9590496180710387, 0.5289949238985571, 1.422042812000387
2.4379711151123047, -3.1415900000000008, 1.5708000000000004, 0.9590496180710387, 0.5289949238985571, 1.422042812000387
2.442969799041748, -3.1415900000000008, 1.5708000000000004, 0.9590496180710387, 0.5289949238985571, 1.422042812000387
2.447970151901245, -3.1415900000000008, 1.5708000000000004, 0.9590496180710387, 0.5289949238985571, 1.422042812000387
2.4529716968536377, -3.1415900000000008, 1.5708000000000004, 0.9590496180710387, 0.5289949238985571, 1.422042812000387
2.4589695930480957, -3.1415900000000008, 1.5708000000000004, 0.9590496180710387, 0.5289949238985571, 1.422042812000387
2.463970184326172, -3.1415900000000008, 1.5708000000000004, 0.9590496180710387, 0.5289949238985571, 1.422042812000387
2.468971014022827, -3.1415900000000008, 1.5708000000000004, 0.9590496180710387, 0.5289949238985571, 1.422042812000387
2.473970890045166, -3.1415900000000008, 1.5708000000000004, 0.9590496180710387, 0.5289949238985571, 1.422042812000387
2.4799697399139404, -3.1415900000000008, 1.5708000000000004, 0.9590496180710387, 0.5289949238985571, 1.422042812000387
2.4849693775177, -3.1415900000000008, 1.5708000000000004, 0.9590496180710387, 0.5289949238985571, 1.422042812000387
2.48997163772583, -3.1415900000000008, 1.5708000000000004, 0.9590496180710387, 0.5289949238985571, 1.422042812000387
2.4949707984924316, -3.1415900000000008, 1.5708000000000004, 0.9590496180710387, 0.5289949238985571, 1.422042812000387
2.499969959259033, -3.1415900000000008, 1.5708000000000004, 0.9590496180710387, 0.5289949238985571, 1.422042812000387
2.5049889087677, -3.1415900000000008, 1.5708000000000004, 0.9590496180710387, 0.5289949238985571, 1.422042812000387
2.510500192642212, -3.1415900000000008, 1.5708000000000004, 0.9590496180710387, 0.5289949238985571, 1.422042812000387
2.5155980587005615, -3.1415900000000008, 1.5708000000000004, 0.9590496180710387, 0.5289949238985571, 1.422042812000387
2.5206589698791504, -3.1415900000000008, 1.5708000000000004, 0.9590496180710387, 0.5289949238985571, 1.422042812000387
2.525177478790283, -3.1415900000000008, 1.5708000000000004, 0.9590496180710387, 0.5289949238985571, 1.422042812000387
2.530672550201416, -3.1415900000000008, 1.5708000000000004, 0.9590496180710387, 0.5289949238985571, 1.422042812000387
2.534933567047119, -3.1415900000000008, 1.5708000000000004, 0.9590496180710387, 0.5289949238985571, 1.422042812000387
2.5406837463378906, -3.1415900000000008, 1.5708000000000004, 0.9590496180710387, 0.5289949238985571, 1.422042812000387
2.545377492904663, -3.1415900000000008, 1.5708000000000004, 0.9590496180710387, 0.5289949238985571, 1.422042812000387
2.5510852336883545, -3.1415900000000008, 1.5708000000000004, 0.9590496180710387, 0.5289949238985571, 1.422042812000387
2.5558767318725586, -3.1415900000000008, 1.5708000000000004, 0.9590496180710387, 0.5289949238985571, 1.422042812000387
2.560767650604248, -3.1415900000000008, 1.5708000000000004, 0.9590496180710387, 0.5289949238985571, 1.422042812000387
2.5662763118743896, -3.1415900000000008, 1.5708000000000004, 0.9590496180710387, 0.5289949238985571, 1.422042812000387
2.5713462829589844, -3.1415900000000008, 1.5708000000000004, 0.9590496180710387, 0.5289949238985571, 1.422042812000387
2.576343536376953, -3.1415900000000008, 1.5708000000000004, 0.9590496180710387, 0.5289949238985571, 1.422042812000387
2.5814008712768555, -3.1415900000000008, 1.5708000000000004, 0.9590496180710387, 0.5289949238985571, 1.422042812000387
2.586949348449707, -3.1415900000000008, 1.5708000000000004, 0.9590496180710387, 0.5289949238985571, 1.422042812000387
2.5926826000213623, -3.1415900000000008, 1.5708000000000004, 0.9590496180710387, 0.5289949238985571, 1.422042812000387
2.5973641872406006, -3.1415900000000008, 1.5708000000000004, 0.9590496180710387, 0.5289949238985571, 1.422042812000387
2.6024608612060547, -3.1415900000000008, 1.5708000000000004, 0.9590496180710387, 0.5289949238985571, 1.422042812000387
2.608002185821533, -3.1415900000000008, 1.5708000000000004, 0.9590496180710387, 0.5289949238985571, 1.422042812000387
2.613013982772827, -3.1415900000000008, 1.5708000000000004, 0.9590496180710387, 0.5289949238985571, 1.422042812000387
2.617733955383301, -3.1415900000000008, 1.5708000000000004, 0.9590496180710387, 0.5289949238985571, 1.422042812000387
2.622894048690796, -3.1415900000000008, 1.5708000000000004, 0.9590496180710387, 0.5289949238985571, 1.422042812000387
2.6278390884399414, -3.1415900000000008, 1.5708000000000004, 0.9590496180710387, 0.5289949238985571, 1.422042812000387
2.6337413787841797, -3.1415900000000008, 1.5708000000000004, 0.9590496180710387, 0.5289949238985571, 1.422042812000387
2.6387557983398438, -3.1415900000000008, 1.5708000000000004, 0.9590496180710387, 0.5289949238985571, 1.422042812000387
2.643651247024536, -3.1415900000000008, 1.5708000000000004, 0.9590496180710387, 0.5289949238985571, 1.422042812000387
2.6485238075256348, -3.1415900000000008, 1.5708000000000004, 0.9590496180710387, 0.5289949238985571, 1.422042812000387
2.653554677963257, -3.1415900000000008, 1.5708000000000004, 0.9590496180710387, 0.5289949238985571, 1.422042812000387
2.658249616622925, -3.1415900000000008, 1.5708000000000004, 0.9590496180710387, 0.5289949238985571, 1.422042812000387
2.663243293762207, -3.1415900000000008, 1.5708000000000004, 0.9590496180710387, 0.5289949238985571, 1.422042812000387
2.6683809757232666, -3.1415900000000008, 1.5708000000000004, 0.9590496180710387, 0.5289949238985571, 1.422042812000387
2.6731960773468018, -3.1415900000000008, 1.5708000000000004, 0.9590496180710387, 0.5289949238985571, 1.422042812000387
2.6778013706207275, -3.1415900000000008, 1.5708000000000004, 0.9590496180710387, 0.5289949238985571, 1.422042812000387
2.6828367710113525, -3.1415900000000008, 1.5708000000000004, 0.9590496180710387, 0.5289949238985571, 1.422042812000387
2.6883127689361572, -3.1415900000000008, 1.5708000000000004, 0.9590496180710387, 0.5289949238985571, 1.422042812000387
2.693040132522583, -3.1415900000000008, 1.5708000000000004, 0.9590496180710387, 0.5289949238985571, 1.422042812000387
2.6984148025512695, -3.1415900000000008, 1.5708000000000004, 0.9590496180710387, 0.5289949238985571, 1.422042812000387
2.703188180923462, -3.1415900000000008, 1.5708000000000004, 0.9590496180710387, 0.5289949238985571, 1.422042812000387
2.7083804607391357, -3.1415900000000008, 1.5708000000000004, 0.9590496180710387, 0.5289949238985571, 1.422042812000387
2.713137626647949, -3.1415900000000008, 1.5708000000000004, 0.9590496180710387, 0.5289949238985571, 1.422042812000387
2.7178945541381836, -3.1415900000000008, 1.5708000000000004, 0.9590496180710387, 0.5289949238985571, 1.422042812000387
2.722881317138672, -3.1415900000000008, 1.5708000000000004, 0.9590496180710387, 0.5289949238985571, 1.422042812000387
2.7275400161743164, -3.1415900000000008, 1.5708000000000004, 0.9590496180710387, 0.5289949238985571, 1.422042812000387
2.7329344749450684, -3.1415900000000008, 1.5708000000000004, 0.9590496180710387, 0.5289949238985571, 1.422042812000387
2.7379536628723145, -3.1415900000000008, 1.5708000000000004, 0.9590496180710387, 0.5289949238985571, 1.422042812000387
2.7431280612945557, -3.1415900000000008, 1.5708000000000004, 0.9590496180710387, 0.5289949238985571, 1.422042812000387
2.7487361431121826, -3.1415900000000008, 1.5708000000000004, 0.9590496180710387, 0.5289949238985571, 1.422042812000387
2.753507614135742, -3.1415900000000008, 1.5708000000000004, 0.9590496180710387, 0.5289949238985571, 1.422042812000387
2.7587521076202393, -3.1415900000000008, 1.5708000000000004, 0.9590496180710387, 0.5289949238985571, 1.422042812000387
2.763767957687378, -3.1415900000000008, 1.5708000000000004, 0.9590496180710387, 0.5289949238985571, 1.422042812000387
2.7684683799743652, -3.1415900000000008, 1.5708000000000004, 0.9590496180710387, 0.5289949238985571, 1.422042812000387
2.773425817489624, -3.1415900000000008, 1.5708000000000004, 0.9590496180710387, 0.5289949238985571, 1.422042812000387
2.7785909175872803, -3.1415900000000008, 1.5708000000000004, 0.9590496180710387, 0.5289949238985571, 1.422042812000387
2.784205675125122, -3.1415900000000008, 1.5708000000000004, 0.9590496180710387, 0.5289949238985571, 1.422042812000387
2.789339542388916, -3.1415900000000008, 1.5708000000000004, 0.9590496180710387, 0.5289949238985571, 1.422042812000387
2.7945144176483154, -3.1415900000000008, 1.5708000000000004, 0.9590496180710387, 0.5289949238985571, 1.422042812000387
2.799415111541748, -3.1415900000000008, 1.5708000000000004, 0.9590496180710387, 0.5289949238985571, 1.422042812000387
2.804111957550049, -3.1415900000000008, 1.5708000000000004, 0.9590496180710387, 0.5289949238985571, 1.422042812000387
2.8090126514434814, -3.1415900000000008, 1.5708000000000004, 0.9590496180710387, 0.5289949238985571, 1.422042812000387
2.813683271408081, -3.1415900000000008, 1.5708000000000004, 0.9590496180710387, 0.5289949238985571, 1.422042812000387
2.8196823596954346, -3.1415900000000008, 1.5708000000000004, 0.9590496180710387, 0.5289949238985571, 1.422042812000387
2.8252973556518555, -3.1415900000000008, 1.5708000000000004, 0.9590496180710387, 0.5289949238985571, 1.422042812000387
2.8308584690093994, -3.1415900000000008, 1.5708000000000004, 0.9590496180710387, 0.5289949238985571, 1.422042812000387
2.8361637592315674, -3.1415900000000008, 1.5708000000000004, 0.9590496180710387, 0.5289949238985571, 1.422042812000387
2.8411693572998047, -3.1415900000000008, 1.5708000000000004, 0.9590496180710387, 0.5289949238985571, 1.422042812000387
2.846569299697876, -3.1415900000000008, 1.5708000000000004, 0.9590496180710387, 0.5289949238985571, 1.422042812000387
2.851949453353882, -3.1415900000000008, 1.5708000000000004, 0.9590496180710387, 0.5289949238985571, 1.422042812000387
2.85699462890625, -3.1415900000000008, 1.5708000000000004, 0.9590496180710387, 0.5289949238985571, 1.422042812000387
2.8620924949645996, -3.1415900000000008, 1.5708000000000004, 0.9590496180710387, 0.5289949238985571, 1.422042812000387
2.867079973220825, -3.1415900000000008, 1.5708000000000004, 0.9590496180710387, 0.5289949238985571, 1.422042812000387
2.8719735145568848, -3.1415900000000008, 1.5708000000000004, 0.9590496180710387, 0.5289949238985571, 1.422042812000387
2.8773436546325684, -3.1415900000000008, 1.5708000000000004, 0.9590496180710387, 0.5289949238985571, 1.422042812000387
2.881730079650879, -3.1415900000000008, 1.5708000000000004, 0.9590496180710387, 0.5289949238985571, 1.422042812000387
2.8869965076446533, -3.1415900000000008, 1.5708000000000004, 0.9590496180710387, 0.5289949238985571, 1.422042812000387
2.891770601272583, -3.1415900000000008, 1.5708000000000004, 0.9590496180710387, 0.5289949238985571, 1.422042812000387
2.8969995975494385, -3.1415900000000008, 1.5708000000000004, 0.9590496180710387, 0.5289949238985571, 1.422042812000387
2.915342330932617, -3.1415900000000008, 1.5708000000000004, 0.9590496180710387, 0.5289949238985571, 1.422042812000387
2.929210662841797, -3.1415900000000008, 1.5708000000000004, 0.9590496180710387, 0.5289949238985571, 1.422042812000387
2.9347352981567383, -3.1415900000000008, 1.5708000000000004, 0.9590496180710387, 0.5289949238985571, 1.422042812000387
2.9417221546173096, -3.1415900000000008, 1.5708000000000004, 0.9590496180710387, 0.5289949238985571, 1.422042812000387
2.9469494819641113, -3.1415900000000008, 1.5708000000000004, 0.9590496180710387, 0.5289949238985571, 1.422042812000387
2.951859712600708, -3.1415900000000008, 1.5708000000000004, 0.9590496180710387, 0.5289949238985571, 1.422042812000387
2.958585262298584, -3.1415900000000008, 1.5708000000000004, 0.9590496180710387, 0.5289949238985571, 1.422042812000387
2.96358585357666, -3.1415900000000008, 1.5708000000000004, 0.9590496180710387, 0.5289949238985571, 1.422042812000387
2.9692015647888184, -3.1415900000000008, 1.5708000000000004, 0.9590496180710387, 0.5289949238985571, 1.422042812000387
2.974229574203491, -3.1415900000000008, 1.5708000000000004, 0.9590496180710387, 0.5289949238985571, 1.422042812000387
2.9802284240722656, -3.1415900000000008, 1.5708000000000004, 0.9590496180710387, 0.5289949238985571, 1.422042812000387
2.98523211479187, -3.1415900000000008, 1.5708000000000004, 0.9590496180710387, 0.5289949238985571, 1.422042812000387
2.9912281036376953, -3.1415900000000008, 1.5708000000000004, 0.9590496180710387, 0.5289949238985571, 1.422042812000387
2.9962289333343506, -3.1415900000000008, 1.5708000000000004, 0.9590496180710387, 0.5289949238985571, 1.422042812000387
3.001227617263794, -3.1415900000000008, 1.5708000000000004, 0.9590496180710387, 0.5289949238985571, 1.422042812000387
3.0072286128997803, -3.1415900000000008, 1.5708000000000004, 0.9590496180710387, 0.5289949238985571, 1.422042812000387
3.012227773666382, -3.1415900000000008, 1.5708000000000004, 0.9590496180710387, 0.5289949238985571, 1.422042812000387
3.0172278881073, -3.1415900000000008, 1.5708000000000004, 0.9590496180710387, 0.5289949238985571, 1.422042812000387
3.022228956222534, -3.1415900000000008, 1.5708000000000004, 0.9590496180710387, 0.5289949238985571, 1.422042812000387
3.0272281169891357, -3.1415900000000008, 1.5708000000000004, 0.9590496180710387, 0.5289949238985571, 1.422042812000387
3.032228946685791, -3.1415900000000008, 1.5708000000000004, 0.9590496180710387, 0.5289949238985571, 1.422042812000387
3.037231206893921, -3.1415900000000008, 1.5708000000000004, 0.9590496180710387, 0.5289949238985571, 1.422042812000387
3.0422282218933105, -3.1415900000000008, 1.5708000000000004, 0.9590496180710387, 0.5289949238985571, 1.422042812000387
3.0472278594970703, -3.1415900000000008, 1.5708000000000004, 0.9590496180710387, 0.5289949238985571, 1.422042812000387
3.0522289276123047, -3.1415900000000008, 1.5708000000000004, 0.9590496180710387, 0.5289949238985571, 1.422042812000387
3.0572283267974854, -3.1415900000000008, 1.5708000000000004, 0.9590496180710387, 0.5289949238985571, 1.422042812000387
3.0622270107269287, -3.1415900000000008, 1.5708000000000004, 0.9590496180710387, 0.5289949238985571, 1.422042812000387
3.067230701446533, -3.1415900000000008, 1.5708000000000004, 0.9590496180710387, 0.5289949238985571, 1.422042812000387
3.072230339050293, -3.1415900000000008, 1.5708000000000004, 0.9590496180710387, 0.5289949238985571, 1.422042812000387
3.0772292613983154, -3.1415900000000008, 1.5708000000000004, 0.9590496180710387, 0.5289949238985571, 1.422042812000387
3.0832273960113525, -3.1415900000000008, 1.5708000000000004, 0.9590496180710387, 0.5289949238985571, 1.422042812000387
3.088226795196533, -3.1415900000000008, 1.5708000000000004, 0.9590496180710387, 0.5289949238985571, 1.422042812000387
3.0932297706604004, -3.1415900000000008, 1.5708000000000004, 0.9590496180710387, 0.5289949238985571, 1.422042812000387
3.09822678565979, -3.1415900000000008, 1.5708000000000004, 0.9590496180710387, 0.5289949238985571, 1.422042812000387
3.103227138519287, -3.1415900000000008, 1.5708000000000004, 0.9590496180710387, 0.5289949238985571, 1.422042812000387
3.108227252960205, -3.1415900000000008, 1.5708000000000004, 0.9590496180710387, 0.5289949238985571, 1.422042812000387
3.1132283210754395, -3.1415900000000008, 1.5708000000000004, 0.9590496180710387, 0.5289949238985571, 1.422042812000387
3.118227243423462, -3.1415900000000008, 1.5708000000000004, 0.9590496180710387, 0.5289949238985571, 1.422042812000387
3.123227596282959, -3.1415900000000008, 1.5708000000000004, 0.9590496180710387, 0.5289949238985571, 1.422042812000387
3.1282293796539307, -3.1415900000000008, 1.5708000000000004, 0.9590496180710387, 0.5289949238985571, 1.422042812000387
3.1332268714904785, -3.1415900000000008, 1.5708000000000004, 0.9590496180710387, 0.5289949238985571, 1.422042812000387
3.1382293701171875, -3.1415900000000008, 1.5708000000000004, 0.9590496180710387, 0.5289949238985571, 1.422042812000387
3.1432278156280518, -3.1415900000000008, 1.5708000000000004, 0.9590496180710387, 0.5289949238985571, 1.422042812000387
3.1482298374176025, -3.1415900000000008, 1.5708000000000004, 0.9590496180710387, 0.5289949238985571, 1.422042812000387
3.153228998184204, -3.1415900000000008, 1.5708000000000004, 0.9590496180710387, 0.5289949238985571, 1.422042812000387
3.1582279205322266, -3.1415900000000008, 1.5708000000000004, 0.9590496180710387, 0.5289949238985571, 1.422042812000387
3.1632282733917236, -3.1415900000000008, 1.5708000000000004, 0.9590496180710387, 0.5289949238985571, 1.422042812000387
3.1682281494140625, -3.1415900000000008, 1.5708000000000004, 0.9590496180710387, 0.5289949238985571, 1.422042812000387
3.1742279529571533, -3.1415900000000008, 1.5708000000000004, 0.9590496180710387, 0.5289949238985571, 1.422042812000387
3.179229259490967, -3.1415900000000008, 1.5708000000000004, 0.9590496180710387, 0.5289949238985571, 1.422042812000387
3.1842293739318848, -3.1415900000000008, 1.5708000000000004, 0.9590496180710387, 0.5289949238985571, 1.422042812000387
3.1892292499542236, -3.1415900000000008, 1.5708000000000004, 0.9590496180710387, 0.5289949238985571, 1.422042812000387
3.194227933883667, -3.1415900000000008, 1.5708000000000004, 0.9590496180710387, 0.5289949238985571, 1.422042812000387
3.1992311477661133, -3.1415900000000008, 1.5708000000000004, 0.9590496180710387, 0.5289949238985571, 1.422042812000387
3.204230546951294, -3.1415900000000008, 1.5708000000000004, 0.9590496180710387, 0.5289949238985571, 1.422042812000387
3.209230422973633, -3.1415900000000008, 1.5708000000000004, 0.9590496180710387, 0.5289949238985571, 1.422042812000387
3.214228868484497, -3.1415900000000008, 1.5708000000000004, 0.9590496180710387, 0.5289949238985571, 1.422042812000387
3.2192282676696777, -3.1415900000000008, 1.5708000000000004, 0.9590496180710387, 0.5289949238985571, 1.422042812000387
3.2242271900177, -3.1415900000000008, 1.5708000000000004, 0.9590496180710387, 0.5289949238985571, 1.422042812000387
3.230226516723633, -3.1415900000000008, 1.5708000000000004, 0.9590496180710387, 0.5289949238985571, 1.422042812000387
3.235227108001709, -3.1415900000000008, 1.5708000000000004, 0.9590496180710387, 0.5289949238985571, 1.422042812000387
3.2402267456054688, -3.1415900000000008, 1.5708000000000004, 0.9590496180710387, 0.5289949238985571, 1.422042812000387
3.2452285289764404, -3.1415900000000008, 1.5708000000000004, 0.9590496180710387, 0.5289949238985571, 1.422042812000387
3.250227451324463, -3.1415900000000008, 1.5708000000000004, 0.9590496180710387, 0.5289949238985571, 1.422042812000387
3.2552270889282227, -3.1415900000000008, 1.5708000000000004, 0.9590496180710387, 0.5289949238985571, 1.422042812000387
3.2602291107177734, -3.1415900000000008, 1.5708000000000004, 0.9590496180710387, 0.5289949238985571, 1.422042812000387
3.2652275562286377, -3.1415900000000008, 1.5708000000000004, 0.9590496180710387, 0.5289949238985571, 1.422042812000387
3.270228385925293, -3.1415900000000008, 1.5708000000000004, 0.9590496180710387, 0.5289949238985571, 1.422042812000387
3.275230646133423, -3.1415900000000008, 1.5708000000000004, 0.9590496180710387, 0.5289949238985571, 1.422042812000387
3.280229091644287, -3.1415900000000008, 1.5708000000000004, 0.9590496180710387, 0.5289949238985571, 1.422042812000387
3.2852284908294678, -3.1415900000000008, 1.5708000000000004, 0.9590496180710387, 0.5289949238985571, 1.422042812000387
3.2902259826660156, -3.1415900000000008, 1.5708000000000004, 0.9590496180710387, 0.5289949238985571, 1.422042812000387
3.29522705078125, -3.1415900000000008, 1.5708000000000004, 0.9590496180710387, 0.5289949238985571, 1.422042812000387
3.300227403640747, -3.1415900000000008, 1.5708000000000004, 0.9590496180710387, 0.5289949238985571, 1.422042812000387
3.3052265644073486, -3.1415900000000008, 1.5708000000000004, 0.9590496180710387, 0.5289949238985571, 1.422042812000387
3.310227632522583, -3.1415900000000008, 1.5708000000000004, 0.9590496180710387, 0.5289949238985571, 1.422042812000387
3.315230369567871, -3.1415900000000008, 1.5708000000000004, 0.9590496180710387, 0.5289949238985571, 1.422042812000387
3.320232629776001, -3.1415900000000008, 1.5708000000000004, 0.9590496180710387, 0.5289949238985571, 1.422042812000387
3.326230764389038, -3.1415900000000008, 1.5708000000000004, 0.9590496180710387, 0.5289949238985571, 1.422042812000387
3.3312273025512695, -3.1415900000000008, 1.5708000000000004, 0.9590496180710387, 0.5289949238985571, 1.422042812000387
3.3362278938293457, -3.1415900000000008, 1.5708000000000004, 0.9590496180710387, 0.5289949238985571, 1.422042812000387
3.3412277698516846, -3.1415900000000008, 1.5708000000000004, 0.9590496180710387, 0.5289949238985571, 1.422042812000387
3.346226930618286, -3.1415900000000008, 1.5708000000000004, 0.9590496180710387, 0.5289949238985571, 1.422042812000387
3.351229667663574, -3.1415900000000008, 1.5708000000000004, 0.9590496180710387, 0.5289949238985571, 1.422042812000387
3.3562307357788086, -3.1415900000000008, 1.5708000000000004, 0.9590496180710387, 0.5289949238985571, 1.422042812000387
3.3612277507781982, -3.1415900000000008, 1.5708000000000004, 0.9590496180710387, 0.5289949238985571, 1.422042812000387
3.3662269115448, -3.1415900000000008, 1.5708000000000004, 0.9590496180710387, 0.5289949238985571, 1.422042812000387
3.371227264404297, -3.1415900000000008, 1.5708000000000004, 0.9590496180710387, 0.5289949238985571, 1.422042812000387
3.3762269020080566, -3.1415900000000008, 1.5708000000000004, 0.9590496180710387, 0.5289949238985571, 1.422042812000387
3.381227731704712, -3.1415900000000008, 1.5708000000000004, 0.9590496180710387, 0.5289949238985571, 1.422042812000387
3.3865885734558105, -3.1415900000000008, 1.5708000000000004, 0.9590496180710387, 0.5289949238985571, 1.422042812000387
3.3912513256073, -3.1415900000000008, 1.5708000000000004, 0.9590496180710387, 0.5289949238985571, 1.422042812000387
3.396254777908325, -3.1415900000000008, 1.5708000000000004, 0.9590496180710387, 0.5289949238985571, 1.422042812000387
3.401980400085449, -3.1415900000000008, 1.5708000000000004, 0.9590496180710387, 0.5289949238985571, 1.422042812000387
3.4073684215545654, -3.1415900000000008, 1.5708000000000004, 0.9590496180710387, 0.5289949238985571, 1.422042812000387
3.412536382675171, -3.1415900000000008, 1.5708000000000004, 0.9590496180710387, 0.5289949238985571, 1.422042812000387
3.41745662689209, -3.1415900000000008, 1.5708000000000004, 0.9590496180710387, 0.5289949238985571, 1.422042812000387
3.4219188690185547, -3.1415900000000008, 1.5708000000000004, 0.9590496180710387, 0.5289949238985571, 1.422042812000387
3.427210569381714, -3.1415900000000008, 1.5708000000000004, 0.9590496180710387, 0.5289949238985571, 1.422042812000387
3.4319896697998047, -3.1415900000000008, 1.5708000000000004, 0.9590496180710387, 0.5289949238985571, 1.422042812000387
3.4376842975616455, -3.1415900000000008, 1.5708000000000004, 0.9590496180710387, 0.5289949238985571, 1.422042812000387
3.4440131187438965, -3.1415900000000008, 1.5708000000000004, 0.9590496180710387, 0.5289949238985571, 1.422042812000387
3.451950788497925, -3.1415900000000008, 1.5708000000000004, 0.9590496180710387, 0.5289949238985571, 1.422042812000387
3.456888437271118, -3.1415900000000008, 1.5708000000000004, 0.9590496180710387, 0.5289949238985571, 1.422042812000387
3.4616730213165283, -3.1415900000000008, 1.5708000000000004, 0.9590496180710387, 0.5289949238985571, 1.422042812000387
3.4675073623657227, -3.1415900000000008, 1.5708000000000004, 0.9590496180710387, 0.5289949238985571, 1.422042812000387
3.472169876098633, -3.1415900000000008, 1.5708000000000004, 0.9590496180710387, 0.5289949238985571, 1.422042812000387
3.4772112369537354, -3.1415900000000008, 1.5708000000000004, 0.9590496180710387, 0.5289949238985571, 1.422042812000387
3.4829933643341064, -3.1415900000000008, 1.5708000000000004, 0.9590496180710387, 0.5289949238985571, 1.422042812000387
3.4880049228668213, -3.1415900000000008, 1.5708000000000004, 0.9590496180710387, 0.5289949238985571, 1.422042812000387
3.493389129638672, -3.1415900000000008, 1.5708000000000004, 0.9590496180710387, 0.5289949238985571, 1.422042812000387
3.498532295227051, -3.1415900000000008, 1.5708000000000004, 0.9590496180710387, 0.5289949238985571, 1.422042812000387
3.5040297508239746, -3.1415900000000008, 1.5708000000000004, 0.9590496180710387, 0.5289949238985571, 1.422042812000387
3.5085315704345703, -3.1415900000000008, 1.5708000000000004, 0.9590496180710387, 0.5289949238985571, 1.422042812000387
3.5140774250030518, -3.1415900000000008, 1.5708000000000004, 0.9590496180710387, 0.5289949238985571, 1.422042812000387
3.519988775253296, -3.1415900000000008, 1.5708000000000004, 0.9590496180710387, 0.5289949238985571, 1.422042812000387
3.525076150894165, -3.1415900000000008, 1.5708000000000004, 0.9590496180710387, 0.5289949238985571, 1.422042812000387
3.5304317474365234, -3.1415900000000008, 1.5708000000000004, 0.9590496180710387, 0.5289949238985571, 1.422042812000387
3.53547739982605, -3.1415900000000008, 1.5708000000000004, 0.9590496180710387, 0.5289949238985571, 1.422042812000387
3.5401992797851562, -3.1415900000000008, 1.5708000000000004, 0.9590496180710387, 0.5289949238985571, 1.422042812000387
3.544890880584717, -3.1415900000000008, 1.5708000000000004, 0.9590496180710387, 0.5289949238985571, 1.422042812000387
3.5498876571655273, -3.1415900000000008, 1.5708000000000004, 0.9590496180710387, 0.5289949238985571, 1.422042812000387
3.554861307144165, -3.1415900000000008, 1.5708000000000004, 0.9590496180710387, 0.5289949238985571, 1.422042812000387
3.559908390045166, -3.1415900000000008, 1.5708000000000004, 0.9590496180710387, 0.5289949238985571, 1.422042812000387
3.565159797668457, -3.1415900000000008, 1.5708000000000004, 0.9590496180710387, 0.5289949238985571, 1.422042812000387
3.5701279640197754, -3.1415900000000008, 1.5708000000000004, 0.9590496180710387, 0.5289949238985571, 1.422042812000387
3.57517409324646, -3.1415900000000008, 1.5708000000000004, 0.9590496180710387, 0.5289949238985571, 1.422042812000387
3.581016778945923, -3.1415900000000008, 1.5708000000000004, 0.9590496180710387, 0.5289949238985571, 1.422042812000387
3.585554361343384, -3.1415900000000008, 1.5708000000000004, 0.9590496180710387, 0.5289949238985571, 1.422042812000387
3.591019868850708, -3.1415900000000008, 1.5708000000000004, 0.9590496180710387, 0.5289949238985571, 1.422042812000387
3.5959722995758057, -3.1415900000000008, 1.5708000000000004, 0.9590496180710387, 0.5289949238985571, 1.422042812000387
3.601233720779419, -3.1415900000000008, 1.5708000000000004, 0.9590496180710387, 0.5289949238985571, 1.422042812000387
3.6059906482696533, -3.1415900000000008, 1.5708000000000004, 0.9590496180710387, 0.5289949238985571, 1.422042812000387
3.610963821411133, -3.1415900000000008, 1.5708000000000004, 0.9590496180710387, 0.5289949238985571, 1.422042812000387
3.615971326828003, -3.1415900000000008, 1.5708000000000004, 0.9590496180710387, 0.5289949238985571, 1.422042812000387
3.6210134029388428, -3.1415900000000008, 1.5708000000000004, 0.9590496180710387, 0.5289949238985571, 1.422042812000387
3.626821279525757, -3.1415900000000008, 1.5708000000000004, 0.9590496180710387, 0.5289949238985571, 1.422042812000387
3.6327762603759766, -3.1415900000000008, 1.5708000000000004, 0.9590496180710387, 0.5289949238985571, 1.422042812000387
3.6377835273742676, -3.1415900000000008, 1.5708000000000004, 0.9590496180710387, 0.5289949238985571, 1.422042812000387
3.6428143978118896, -3.1415900000000008, 1.5708000000000004, 0.9590496180710387, 0.5289949238985571, 1.422042812000387
3.6488170623779297, -3.1415900000000008, 1.5708000000000004, 0.9590496180710387, 0.5289949238985571, 1.422042812000387
3.6544857025146484, -3.1415900000000008, 1.5708000000000004, 0.9590496180710387, 0.5289949238985571, 1.422042812000387
3.6595003604888916, -3.1415900000000008, 1.5708000000000004, 0.9590496180710387, 0.5289949238985571, 1.422042812000387
3.6645686626434326, -3.1415900000000008, 1.5708000000000004, 0.9590496180710387, 0.5289949238985571, 1.422042812000387
3.67049503326416, -3.1415900000000008, 1.5708000000000004, 0.9590496180710387, 0.5289949238985571, 1.422042812000387
3.6755669116973877, -3.1415900000000008, 1.5708000000000004, 0.9590496180710387, 0.5289949238985571, 1.422042812000387
3.6803243160247803, -3.1415900000000008, 1.5708000000000004, 0.9590496180710387, 0.5289949238985571, 1.422042812000387
3.685697078704834, -3.1415900000000008, 1.5708000000000004, 0.9590496180710387, 0.5289949238985571, 1.422042812000387
3.6908931732177734, -3.1415900000000008, 1.5708000000000004, 0.9590496180710387, 0.5289949238985571, 1.422042812000387
3.6962027549743652, -3.1415900000000008, 1.5708000000000004, 0.9590496180710387, 0.5289949238985571, 1.422042812000387
3.7005865573883057, -3.1415900000000008, 1.5708000000000004, 0.9590496180710387, 0.5289949238985571, 1.422042812000387
3.7053725719451904, -3.1415900000000008, 1.5708000000000004, 0.9590496180710387, 0.5289949238985571, 1.422042812000387
3.7107393741607666, -3.1415900000000008, 1.5708000000000004, 0.9590496180710387, 0.5289949238985571, 1.422042812000387
3.715296983718872, -3.1415900000000008, 1.5708000000000004, 0.9590496180710387, 0.5289949238985571, 1.422042812000387
3.720183849334717, -3.1415900000000008, 1.5708000000000004, 0.9590496180710387, 0.5289949238985571, 1.422042812000387
3.725449800491333, -3.1415900000000008, 1.5708000000000004, 0.9590496180710387, 0.5289949238985571, 1.422042812000387
3.7304036617279053, -3.1415900000000008, 1.5708000000000004, 0.9590496180710387, 0.5289949238985571, 1.422042812000387
3.7357943058013916, -3.1415900000000008, 1.5708000000000004, 0.9590496180710387, 0.5289949238985571, 1.422042812000387
3.7413790225982666, -3.1415900000000008, 1.5708000000000004, 0.9590496180710387, 0.5289949238985571, 1.422042812000387
3.746316432952881, -3.1415900000000008, 1.5708000000000004, 0.9590496180710387, 0.5289949238985571, 1.422042812000387
3.750859260559082, -3.1415900000000008, 1.5708000000000004, 0.9590496180710387, 0.5289949238985571, 1.422042812000387
3.756011486053467, -3.1415900000000008, 1.5708000000000004, 0.9590496180710387, 0.5289949238985571, 1.422042812000387
3.761138916015625, -3.1415900000000008, 1.5708000000000004, 0.9590496180710387, 0.5289949238985571, 1.422042812000387
3.766148805618286, -3.1415900000000008, 1.5708000000000004, 0.9590496180710387, 0.5289949238985571, 1.422042812000387
3.7710821628570557, -3.1415900000000008, 1.5708000000000004, 0.9590496180710387, 0.5289949238985571, 1.422042812000387
3.7766659259796143, -3.1415900000000008, 1.5708000000000004, 0.9590496180710387, 0.5289949238985571, 1.422042812000387
3.781546115875244, -3.1415900000000008, 1.5708000000000004, 0.9590496180710387, 0.5289949238985571, 1.422042812000387
3.786566734313965, -3.1415900000000008, 1.5708000000000004, 0.9590496180710387, 0.5289949238985571, 1.422042812000387
3.7915544509887695, -3.1415900000000008, 1.5708000000000004, 0.9590496180710387, 0.5289949238985571, 1.422042812000387
3.7964818477630615, -3.1415900000000008, 1.5708000000000004, 0.9590496180710387, 0.5289949238985571, 1.422042812000387
3.801408290863037, -3.1415900000000008, 1.5708000000000004, 0.9590496180710387, 0.5289949238985571, 1.422042812000387
3.8067100048065186, -3.1415900000000008, 1.5708000000000004, 0.9590496180710387, 0.5289949238985571, 1.422042812000387
3.8122000694274902, -3.1415900000000008, 1.5708000000000004, 0.9590496180710387, 0.5289949238985571, 1.422042812000387
3.8171932697296143, -3.1415900000000008, 1.5708000000000004, 0.9590496180710387, 0.5289949238985571, 1.422042812000387
3.822129726409912, -3.1415900000000008, 1.5708000000000004, 0.9590496180710387, 0.5289949238985571, 1.422042812000387
3.8287136554718018, -3.1415900000000008, 1.5708000000000004, 0.9590496180710387, 0.5289949238985571, 1.422042812000387
3.833967447280884, -3.1415900000000008, 1.5708000000000004, 0.9590496180710387, 0.5289949238985571, 1.422042812000387
3.841038942337036, -3.1415900000000008, 1.5708000000000004, 0.9590496180710387, 0.5289949238985571, 1.422042812000387
3.846038341522217, -3.1415900000000008, 1.5708000000000004, 0.9590496180710387, 0.5289949238985571, 1.422042812000387
3.851038694381714, -3.1415900000000008, 1.5708000000000004, 0.9590496180710387, 0.5289949238985571, 1.422042812000387
3.8560376167297363, -3.1415900000000008, 1.5708000000000004, 0.9590496180710387, 0.5289949238985571, 1.422042812000387
3.8610382080078125, -3.1415900000000008, 1.5708000000000004, 0.9590496180710387, 0.5289949238985571, 1.422042812000387
3.8660402297973633, -3.1415900000000008, 1.5708000000000004, 0.9590496180710387, 0.5289949238985571, 1.422042812000387
3.8710384368896484, -3.1415900000000008, 1.5708000000000004, 0.9590496180710387, 0.5289949238985571, 1.422042812000387
3.8780393600463867, -3.1415900000000008, 1.5708000000000004, 0.9590496180710387, 0.5289949238985571, 1.422042812000387
3.8840394020080566, -3.1415900000000008, 1.5708000000000004, 0.9590496180710387, 0.5289949238985571, 1.422042812000387
3.8910398483276367, -3.1415900000000008, 1.5708000000000004, 0.9590496180710387, 0.5289949238985571, 1.422042812000387
3.898041009902954, -3.1415900000000008, 1.5708000000000004, 0.9590496180710387, 0.5289949238985571, 1.422042812000387
3.9050400257110596, -3.1415900000000008, 1.5708000000000004, 0.9590496180710387, 0.5289949238985571, 1.422042812000387
3.9110376834869385, -3.1415900000000008, 1.5708000000000004, 0.9590496180710387, 0.5289949238985571, 1.422042812000387
3.9170377254486084, -3.1415900000000008, 1.5708000000000004, 0.9590496180710387, 0.5289949238985571, 1.422042812000387
3.9220378398895264, -3.1415900000000008, 1.5708000000000004, 0.9590496180710387, 0.5289949238985571, 1.422042812000387
3.9270384311676025, -3.1415900000000008, 1.5708000000000004, 0.9590496180710387, 0.5289949238985571, 1.422042812000387
3.9330403804779053, -3.1415900000000008, 1.5708000000000004, 0.9590496180710387, 0.5289949238985571, 1.422042812000387
3.939037799835205, -3.1415900000000008, 1.5708000000000004, 0.9590496180710387, 0.5289949238985571, 1.422042812000387
3.9460384845733643, -3.1415900000000008, 1.5708000000000004, 0.9590496180710387, 0.5289949238985571, 1.422042812000387
3.9520375728607178, -3.1415900000000008, 1.5708000000000004, 0.9590496180710387, 0.5289949238985571, 1.422042812000387
3.9590373039245605, -3.1415900000000008, 1.5708000000000004, 0.9590496180710387, 0.5289949238985571, 1.422042812000387
3.96703839302063, -3.1415900000000008, 1.5708000000000004, 0.9590496180710387, 0.5289949238985571, 1.422042812000387
3.97403883934021, -3.1415900000000008, 1.5708000000000004, 0.9590496180710387, 0.5289949238985571, 1.422042812000387
3.9800376892089844, -3.1415900000000008, 1.5708000000000004, 0.9590496180710387, 0.5289949238985571, 1.422042812000387
3.9860377311706543, -3.1415900000000008, 1.5708000000000004, 0.9590496180710387, 0.5289949238985571, 1.422042812000387
3.9920382499694824, -3.1415900000000008, 1.5708000000000004, 0.9590496180710387, 0.5289949238985571, 1.422042812000387
3.998037815093994, -3.1415900000000008, 1.5708000000000004, 0.9590496180710387, 0.5289949238985571, 1.422042812000387
4.003039836883545, -3.1415900000000008, 1.5708000000000004, 0.9590496180710387, 0.5289949238985571, 1.422042812000387
4.010038375854492, -3.1415900000000008, 1.5708000000000004, 0.9590496180710387, 0.5289949238985571, 1.422042812000387
4.01703953742981, -3.1415900000000008, 1.5708000000000004, 0.9590496180710387, 0.5289949238985571, 1.422042812000387
4.02503776550293, -3.1415900000000008, 1.5708000000000004, 0.9590496180710387, 0.5289949238985571, 1.422042812000387
4.0325517654418945, -3.1415900000000008, 1.5708000000000004, 0.9590496180710387, 0.5289949238985571, 1.422042812000387
4.037552833557129, -3.1415900000000008, 1.5708000000000004, 0.9590496180710387, 0.5289949238985571, 1.422042812000387
4.042551040649414, -3.1415900000000008, 1.5708000000000004, 0.9590496180710387, 0.5289949238985571, 1.422042812000387
4.047551393508911, -3.1415900000000008, 1.5708000000000004, 0.9590496180710387, 0.5289949238985571, 1.422042812000387
4.053107261657715, -3.1415900000000008, 1.5708000000000004, 0.9590496180710387, 0.5289949238985571, 1.422042812000387
4.059107303619385, -3.1415900000000008, 1.5708000000000004, 0.9590496180710387, 0.5289949238985571, 1.422042812000387
4.065108060836792, -3.1415900000000008, 1.5708000000000004, 0.9590496180710387, 0.5289949238985571, 1.422042812000387
4.0701069831848145, -3.1415900000000008, 1.5708000000000004, 0.9590496180710387, 0.5289949238985571, 1.422042812000387
4.077107667922974, -3.1415900000000008, 1.5708000000000004, 0.9590496180710387, 0.5289949238985571, 1.422042812000387
4.0821075439453125, -3.1415900000000008, 1.5708000000000004, 0.9590496180710387, 0.5289949238985571, 1.422042812000387
4.088106870651245, -3.1415900000000008, 1.5708000000000004, 0.9590496180710387, 0.5289949238985571, 1.422042812000387
4.093108892440796, -3.1415900000000008, 1.5708000000000004, 0.9590496180710387, 0.5289949238985571, 1.422042812000387
4.098107099533081, -3.1415900000000008, 1.5708000000000004, 0.9590496180710387, 0.5289949238985571, 1.422042812000387
4.106109619140625, -3.1415900000000008, 1.5708000000000004, 0.9590496180710387, 0.5289949238985571, 1.422042812000387
4.113109588623047, -3.1415900000000008, 1.5708000000000004, 0.9590496180710387, 0.5289949238985571, 1.422042812000387
4.118107080459595, -3.1415900000000008, 1.5708000000000004, 0.9590496180710387, 0.5289949238985571, 1.422042812000387
4.123108148574829, -3.1415900000000008, 1.5708000000000004, 0.9590496180710387, 0.5289949238985571, 1.422042812000387
4.129108905792236, -3.1415900000000008, 1.5708000000000004, 0.9590496180710387, 0.5289949238985571, 1.422042812000387
4.135108232498169, -3.1415900000000008, 1.5708000000000004, 0.9590496180710387, 0.5289949238985571, 1.422042812000387
4.141108274459839, -3.1415900000000008, 1.5708000000000004, 0.9590496180710387, 0.5289949238985571, 1.422042812000387
4.149110555648804, -3.1415900000000008, 1.5708000000000004, 0.9590496180710387, 0.5289949238985571, 1.422042812000387
4.155109405517578, -3.1415900000000008, 1.5708000000000004, 0.9590496180710387, 0.5289949238985571, 1.422042812000387
4.162128686904907, -3.1415900000000008, 1.5708000000000004, 0.9590496180710387, 0.5289949238985571, 1.422042812000387
4.170110702514648, -3.1415900000000008, 1.5708000000000004, 0.9590496180710387, 0.5289949238985571, 1.422042812000387
4.17462420463562, -3.1415900000000008, 1.5708000000000004, 0.9590496180710387, 0.5289949238985571, 1.422042812000387
4.18161940574646, -3.1415900000000008, 1.5708000000000004, 0.9590496180710387, 0.5289949238985571, 1.422042812000387
4.18661904335022, -3.1415900000000008, 1.5708000000000004, 0.9590496180710387, 0.5289949238985571, 1.422042812000387
4.192619323730469, -3.1415900000000008, 1.5708000000000004, 0.9590496180710387, 0.5289949238985571, 1.422042812000387
4.198619604110718, -3.1415900000000008, 1.5708000000000004, 0.9590496180710387, 0.5289949238985571, 1.422042812000387
4.203620910644531, -3.1415900000000008, 1.5708000000000004, 0.9590496180710387, 0.5289949238985571, 1.422042812000387
4.20961856842041, -3.1415900000000008, 1.5708000000000004, 0.9590496180710387, 0.5289949238985571, 1.422042812000387
4.214619874954224, -3.1415900000000008, 1.5708000000000004, 0.9590496180710387, 0.5289949238985571, 1.422042812000387
4.219623565673828, -3.1415900000000008, 1.5708000000000004, 0.9590496180710387, 0.5289949238985571, 1.422042812000387
4.225619554519653, -3.1415900000000008, 1.5708000000000004, 0.9590496180710387, 0.5289949238985571, 1.422042812000387
4.230620622634888, -3.1415900000000008, 1.5708000000000004, 0.9590496180710387, 0.5289949238985571, 1.422042812000387
4.236618757247925, -3.1415900000000008, 1.5708000000000004, 0.9590496180710387, 0.5289949238985571, 1.422042812000387
4.241619348526001, -3.1415900000000008, 1.5708000000000004, 0.9590496180710387, 0.5289949238985571, 1.422042812000387
4.24761962890625, -3.1415900000000008, 1.5708000000000004, 0.9590496180710387, 0.5289949238985571, 1.422042812000387
4.252622842788696, -3.1415900000000008, 1.5708000000000004, 0.9590496180710387, 0.5289949238985571, 1.422042812000387
4.2576189041137695, -3.1415900000000008, 1.5708000000000004, 0.9590496180710387, 0.5289949238985571, 1.422042812000387
4.2626190185546875, -3.1415900000000008, 1.5708000000000004, 0.9590496180710387, 0.5289949238985571, 1.422042812000387
4.267619609832764, -3.1415900000000008, 1.5708000000000004, 0.9590496180710387, 0.5289949238985571, 1.422042812000387
4.272619724273682, -3.1415900000000008, 1.5708000000000004, 0.9590496180710387, 0.5289949238985571, 1.422042812000387
4.278619050979614, -3.1415900000000008, 1.5708000000000004, 0.9590496180710387, 0.5289949238985571, 1.422042812000387
4.283619165420532, -3.1415900000000008, 1.5708000000000004, 0.9590496180710387, 0.5289949238985571, 1.422042812000387
4.288621187210083, -3.1415900000000008, 1.5708000000000004, 0.9590496180710387, 0.5289949238985571, 1.422042812000387
4.293620824813843, -3.1415900000000008, 1.5708000000000004, 0.9590496180710387, 0.5289949238985571, 1.422042812000387
4.299618721008301, -3.1415900000000008, 1.5708000000000004, 0.9590496180710387, 0.5289949238985571, 1.422042812000387
4.305621862411499, -3.1415900000000008, 1.5708000000000004, 0.9590496180710387, 0.5289949238985571, 1.422042812000387
4.310620069503784, -3.1415900000000008, 1.5708000000000004, 0.9590496180710387, 0.5289949238985571, 1.422042812000387
4.31562066078186, -3.1415900000000008, 1.5708000000000004, 0.9590496180710387, 0.5289949238985571, 1.422042812000387
4.3206188678741455, -3.1415900000000008, 1.5708000000000004, 0.9590496180710387, 0.5289949238985571, 1.422042812000387
4.326619386672974, -3.1415900000000008, 1.5708000000000004, 0.9590496180710387, 0.5289949238985571, 1.422042812000387
4.331619024276733, -3.1415900000000008, 1.5708000000000004, 0.9590496180710387, 0.5289949238985571, 1.422042812000387
4.337619304656982, -3.1415900000000008, 1.5708000000000004, 0.9590496180710387, 0.5289949238985571, 1.422042812000387
4.342621803283691, -3.1415900000000008, 1.5708000000000004, 0.9590496180710387, 0.5289949238985571, 1.422042812000387
4.347620010375977, -3.1415900000000008, 1.5708000000000004, 0.9590496180710387, 0.5289949238985571, 1.422042812000387
4.352618455886841, -3.1415900000000008, 1.5708000000000004, 0.9590496180710387, 0.5289949238985571, 1.422042812000387
4.357619524002075, -3.1415900000000008, 1.5708000000000004, 0.9590496180710387, 0.5289949238985571, 1.422042812000387
4.363619804382324, -3.1415900000000008, 1.5708000000000004, 0.9590496180710387, 0.5289949238985571, 1.422042812000387
4.3696208000183105, -3.1415900000000008, 1.5708000000000004, 0.9590496180710387, 0.5289949238985571, 1.422042812000387
4.374619007110596, -3.1415900000000008, 1.5708000000000004, 0.9590496180710387, 0.5289949238985571, 1.422042812000387
4.380619525909424, -3.1415900000000008, 1.5708000000000004, 0.9590496180710387, 0.5289949238985571, 1.422042812000387
4.386619329452515, -3.1415900000000008, 1.5708000000000004, 0.9590496180710387, 0.5289949238985571, 1.422042812000387
4.391621112823486, -3.1415900000000008, 1.5708000000000004, 0.9590496180710387, 0.5289949238985571, 1.422042812000387
4.397618770599365, -3.1415900000000008, 1.5708000000000004, 0.9590496180710387, 0.5289949238985571, 1.422042812000387
4.403619289398193, -3.1415900000000008, 1.5708000000000004, 0.9590496180710387, 0.5289949238985571, 1.422042812000387
4.408620357513428, -3.1415900000000008, 1.5708000000000004, 0.9590496180710387, 0.5289949238985571, 1.422042812000387
4.413621664047241, -3.1415900000000008, 1.5708000000000004, 0.9590496180710387, 0.5289949238985571, 1.422042812000387
4.419620752334595, -3.1415900000000008, 1.5708000000000004, 0.9590496180710387, 0.5289949238985571, 1.422042812000387
4.424619436264038, -3.1415900000000008, 1.5708000000000004, 0.9590496180710387, 0.5289949238985571, 1.422042812000387
4.429618835449219, -3.1415900000000008, 1.5708000000000004, 0.9590496180710387, 0.5289949238985571, 1.422042812000387
4.434618949890137, -3.1415900000000008, 1.5708000000000004, 0.9590496180710387, 0.5289949238985571, 1.422042812000387
4.439621448516846, -3.1415900000000008, 1.5708000000000004, 0.9590496180710387, 0.5289949238985571, 1.422042812000387
4.445618629455566, -3.1415900000000008, 1.5708000000000004, 0.9590496180710387, 0.5289949238985571, 1.422042812000387
4.451619386672974, -3.1415900000000008, 1.5708000000000004, 0.9590496180710387, 0.5289949238985571, 1.422042812000387
4.456620693206787, -3.1415900000000008, 1.5708000000000004, 0.9590496180710387, 0.5289949238985571, 1.422042812000387
4.461620092391968, -3.1415900000000008, 1.5708000000000004, 0.9590496180710387, 0.5289949238985571, 1.422042812000387
